fryumbla/Robot-Manipulability/log/abbrobot_manip_2021-04-15_22-56-17.csv
TCP x,TCP y,TCP z,eef x,eef y,eef z,Cr(rzyz),Pitch(rzyz),Roll(rzyz),Manipulability,joint_1,joint_2,joint_3,joint_4,joint_5,joint_6
0.4,0,0.2,0.42500000000000004,-0.12000000000000001,0.3720000000000001,-90,90.0,-90.0,0.09129305599268986,0.5092833136247102,-0.1587578133294144,0.7583894123166286,0.0001888928647619029,0.9702536508698336,2.079238685766795
0.4,0,0.2,0.45520643106952924,-0.10944062302712519,0.3720000000000001,-75,90.0,-90.0,0.07987681656524065,0.5345203104082701,-0.289123594642909,0.8619526260323298,0.00099941351803933,0.9986080027451388,1.84292408268743
0.4,0,0.2,0.48165063509461103,-0.0914230484541326,0.372,-60,90.0,-90.0,0.06810696667525626,0.5237443007649121,-0.43360916735861144,0.9593820806027108,0.00011801687305360486,1.0459757586814498,1.5713991154186597
0.4,0,0.2,0.5025304832720494,-0.067175144212722,0.372,-45,90.0,-90.0,0.056811718070582405,0.4542232301351106,-0.583555226562938,1.0434020416739376,-0.0003983405656101021,1.1098288294710326,1.2399956747585168
0.4,0,0.2,0.5094406230271252,0.05520643106952922,0.372,15,90.0,-90.0,0.052572946549586226,-0.3998034490599198,-0.6437659548749678,1.0726477836860742,-0.0005692633769062857,1.1423312975407907,-0.6612377105531692
0.4,0,0.2,0.49142304845413265,0.08165063509461101,0.3720000000000001,30,90.0,-90.0,0.06305714268493867,-0.5027440828658895,-0.49883322716829115,0.9979616650496463,-0.0005441964345519166,1.0710009923662296,-1.0266973565958282
0.4,0,0.2,0.467175144212722,0.10253048327204942,0.372,45,90.0,-90.0,0.0747346825350969,-0.5355652988596663,-0.35024431260415956,0.9050728688263361,0.00057914863825976,1.0149326254947466,-1.3207379488402902
0.4,0,0.2,0.43834936490538906,0.11642304845413265,0.372,60,90.0,-90.0,0.08641064370864682,-0.5232763852869986,-0.21325546999600017,0.8033488652626112,-5.0030657840034135e-06,0.9798378024657768,-1.5695739041666341
0.4,0,0.2,0.4069101397550758,0.12238157528225123,0.3720000000000001,75,90.0,-90.0,0.09763223185067792,-0.4835673586407764,-0.09145365757428756,0.6985467599844416,0.000995650773113742,0.964482357113378,-1.7934605927897107
0.4,0,0.2,0.375,0.12000000000000004,0.3720000000000001,90,90.0,-90.0,0.10189313647135627,-0.4249499285359568,0.012327094997995986,0.598867071591817,-0.0006304823302782528,0.9591521188236051,-1.9944718179658854
0.35000000000000003,0.0,0.25,0.37500000000000006,-0.12000000000000001,0.42200000000000004,-90,90.0,-90.0,0.0986541977511201,0.4248920418743966,-0.04472999757621628,0.48603340098775555,0.0008368543915785332,1.1300098314275497,1.9944979253582826
0.35000000000000003,0.0,0.25,0.40520643106952925,-0.10944062302712519,0.42200000000000004,-75,90.0,-90.0,0.09642226653258638,0.43611352405992476,-0.1656922599192761,0.5957741827064367,0.00047164453592538394,1.1411905756297827,1.744538762319574
0.35000000000000003,0.0,0.25,0.43165063509461105,-0.0914230484541326,0.422,-60,90.0,-90.0,0.08436782846651898,0.4134287088095959,-0.29207846924785247,0.6964931271272546,-0.00021361322974975576,1.1654706020903554,1.4613574803150824
0.35000000000000003,0.0,0.25,0.4525304832720494,-0.067175144212722,0.42200000000000004,-45,90.0,-90.0,0.07358758422770849,0.3439860129588759,-0.4103092902384922,0.77911821797837,-0.0002989092207251942,1.2023583357844605,1.1291299813811504
0.35000000000000003,0.0,0.25,0.4664230484541327,-0.03834936490538901,0.42200000000000004,-30,90.0,-90.0,0.06528098608686657,0.21717393727559386,-0.5045626693389892,0.8367448326759851,0.00037435431288634414,1.2385699285242577,0.7399028850256953
0.35000000000000003,0.0,0.25,0.4723815752822512,-0.0069101397550757546,0.42200000000000004,-15,90.0,-90.0,0.06138281161093587,0.04067768798997286,-0.5500487668723851,0.8622405384997024,0.00028475712844698093,1.2594521978391917,0.3020700821409948
0.35000000000000003,0.0,0.25,0.47000000000000003,0.025000000000000033,0.42200000000000004,0,90.0,-90.0,0.06293310415390149,-0.14654176468926977,-0.5317177659496665,0.8521668813307055,7.31615857576617e-05,1.249702996487995,-0.14635415064749427
0.35000000000000003,0.0,0.25,0.4594406230271252,0.05520643106952922,0.42200000000000004,15,90.0,-90.0,0.06953958091778918,-0.2967935898973146,-0.45561132018107037,0.8080322240172876,5.223812435911342e-05,1.2176405566996193,-0.5578324606152908
0.35000000000000003,0.0,0.25,0.4414230484541326,0.08165063509461101,0.42200000000000004,30,90.0,-90.0,0.07950387996415527,-0.38982010921329596,-0.34472050701234036,0.7349465551887724,0.00020218232434237002,1.1801025891747454,-0.9132940519945927
0.35000000000000003,0.0,0.25,0.417175144212722,0.10253048327204942,0.42200000000000004,45,90.0,-90.0,0.09119893031004013,-0.43129008319224965,-0.2199730862263163,0.640814762273505,0.0012674698444369858,1.1502551225438251,-1.217692716023174
0.35000000000000003,0.0,0.25,0.38834936490538907,0.11642304845413265,0.422,60,90.0,-90.0,0.09987006957826967,-0.4335575344695474,-0.09575705485419246,0.534080499996225,0.00042628835871975847,1.13302509472766,-1.4803358437145882
0.35000000000000003,0.0,0.25,0.3569101397550758,0.12238157528225123,0.42200000000000004,75,90.0,-90.0,0.09679876372783172,-0.408080698258685,0.020247169456819834,0.4218632465240892,0.0001452306028064147,1.1292705972814028,-1.7180605437813767
0.35000000000000003,0.0,0.25,0.325,0.12000000000000004,0.42200000000000004,90,90.0,-90.0,0.0930343648370748,-0.3639112179863936,0.12514781757651067,0.3100900114111493,-0.0007403891982567856,1.1359373653962321,-1.9339678758564507
0.4,0.05,0.2,0.42500000000000004,-0.07,0.3720000000000001,-90,90.0,-90.0,0.0839560213032745,0.3140403135721643,-0.24048939275922313,0.8248301449628135,0.0014764583252670593,0.9870233725187505,1.8838970727096624
0.4,0.05,0.2,0.45520643106952924,-0.05944062302712519,0.3720000000000001,-75,90.0,-90.0,0.07209043467858275,0.31095634611674877,-0.3812933147316256,0.9261427997420644,0.001088239031521069,1.0255071607167465,1.6196963822770687
0.4,0.05,0.2,0.48165063509461103,-0.0414230484541326,0.372,-60,90.0,-90.0,0.06074117981526605,0.2555596287034558,-0.527833970184066,1.014067483763576,0.0004292342808341786,1.0838407667687837,1.3016534456435387
0.4,0.05,0.2,0.5025304832720494,-0.017175144212721996,0.372,-45,90.0,-90.0,0.051181981165853714,0.12481815618202965,-0.6613950308626502,1.080836220253256,-0.0008581412078238399,1.1511476102688147,0.9108669190413285
0.4,0.05,0.2,0.5223815752822513,0.04308986024492425,0.372,-15,90.0,-90.0,0.04612012031571797,-0.35131992635521736,-0.7359644015176249,1.1127920686073465,-0.0002932594519362143,1.1945524120088578,-0.08882959060073535
0.4,0.05,0.2,0.52,0.07500000000000004,0.3720000000000001,0,90.0,-90.0,0.052328659255088394,-0.5593240311118087,-0.644983118144366,1.0731715854583208,0.0007013759158794339,1.1426928802227563,-0.5587893912586033
0.4,0.05,0.2,0.5094406230271252,0.10520643106952923,0.372,15,90.0,-90.0,0.06221561832374702,-0.6775282982915446,-0.508239646989002,1.0033957890947502,-0.0011823765780818638,1.0756385741846826,-0.9380247837790794
0.4,0.05,0.2,0.49142304845413265,0.131650635094611,0.3720000000000001,30,90.0,-90.0,0.07375687804244516,-0.7246183111941539,-0.3612527072298963,0.9124923457511165,-0.0005669890639541537,1.0200049415208927,-1.248109141353244
0.4,0.05,0.2,0.467175144212722,0.15253048327204943,0.372,45,90.0,-90.0,0.08551245930003915,-0.7232084064086208,-0.2223827981240426,0.810615551018697,-0.0009526443053308275,0.9822751468346465,-1.507408678370433
0.4,0.05,0.2,0.43834936490538906,0.16642304845413264,0.372,60,90.0,-90.0,0.0967591449540068,-0.689776649718119,-0.09878036177177653,0.705227402961207,-4.029084284570036e-05,0.963621666662412,-1.7375895867577897
0.4,0.05,0.2,0.4069101397550758,0.17238157528225123,0.3720000000000001,75,90.0,-90.0,0.10184631628662405,-0.6368716922799251,0.008929206794004795,0.6024785026866073,-0.0008638151264639474,0.9591588491579405,-1.9448291882194237
0.4,0.05,0.2,0.375,0.17000000000000004,0.3720000000000001,90,90.0,-90.0,0.09971256914398849,-0.5701797242509534,0.09936374771966526,0.5073926763651186,-0.00034805985969526567,0.9629802121716892,-2.139885037322531
0.35000000000000003,-0.05,0.15000000000000002,0.37500000000000006,-0.17,0.32200000000000006,-90,90.0,-90.0,0.09974606399957979,0.570360870103552,0.18686625264310858,0.5881842366640192,0.0013483925041100943,0.7961316173864935,2.139454662481289
0.35000000000000003,-0.05,0.15000000000000002,0.40520643106952925,-0.1594406230271252,0.32200000000000006,-75,90.0,-90.0,0.10024401317543072,0.5961096835888658,0.07988637112304815,0.7096943718050198,0.0014724655186985273,0.7812254778896613,1.904999934467781
0.35000000000000003,-0.05,0.15000000000000002,0.43165063509461105,-0.14142304845413262,0.322,-60,90.0,-90.0,0.08969979168340009,0.5965156467993413,-0.0375779836109763,0.8296165853598688,1.4750604817019715e-05,0.7778811860765772,1.6432463729258608
0.35000000000000003,-0.05,0.15000000000000002,0.4525304832720494,-0.117175144212722,0.32200000000000006,-45,90.0,-90.0,0.0790269128615436,0.5584738379850834,-0.15940767251523846,0.93893892155758,0.0005726913823598122,0.7919664793878014,1.342788693669095
0.35000000000000003,-0.05,0.15000000000000002,0.4664230484541327,-0.08834936490538901,0.32200000000000006,-30,90.0,-90.0,0.06955229723486557,0.47062098314172357,-0.2744730210510405,1.0293090034128995,-0.0007502682617482396,0.8154363741060937,0.9951830029475867
0.35000000000000003,-0.05,0.15000000000000002,0.4723815752822512,-0.05691013975507576,0.32200000000000006,-15,90.0,-90.0,0.06315739950707094,0.3269841988575064,-0.35904305440970624,1.0876159654429975,-0.00021154965327597667,0.8424493122808951,0.5883421102240697
0.35000000000000003,-0.05,0.15000000000000002,0.47000000000000003,-0.02499999999999997,0.32200000000000006,0,90.0,-90.0,0.06127542027679782,0.14561570385133366,-0.38499766009218234,1.1040585495378676,0.0010787869637726092,0.8519329270655214,0.1448258011376632
0.35000000000000003,-0.05,0.15000000000000002,0.4594406230271252,0.00520643106952922,0.32200000000000006,15,90.0,-90.0,0.06447322563648049,-0.028624933256358644,-0.3412725014997949,1.075844630508795,-0.0010499594347577106,0.8363545703315113,-0.2893512925870084
0.35000000000000003,-0.05,0.15000000000000002,0.4414230484541326,0.03165063509461101,0.32200000000000006,30,90.0,-90.0,0.07186873850676795,-0.158038721814398,-0.24599115331860635,1.0078019413513783,0.001052275719711423,0.8092788111311748,-0.6831263963101154
0.35000000000000003,-0.05,0.15000000000000002,0.417175144212722,0.052530483272049414,0.32200000000000006,45,90.0,-90.0,0.08174325172775855,-0.2315619472026994,-0.12724176426685055,0.9118748688199559,0.0017371888153184735,0.7864110935827257,-1.0184657383161992
0.35000000000000003,-0.05,0.15000000000000002,0.38834936490538907,0.06642304845413265,0.322,60,90.0,-90.0,0.09264877557473152,-0.2578858892200293,-0.005958326388781456,0.7985511709905823,-0.0009391638502701264,0.7775428386796756,-1.3035866355281691
0.35000000000000003,-0.05,0.15000000000000002,0.3569101397550758,0.07238157528225123,0.32200000000000006,75,90.0,-90.0,0.10086239685833955,-0.2508026592809585,0.10893601872773284,0.6777800578987075,0.0009120500507032775,0.7834312253243279,-1.5607142349318686
0.35000000000000003,-0.05,0.15000000000000002,0.325,0.07000000000000003,0.32200000000000006,90,90.0,-90.0,0.09907943193335617,-0.21893316575609567,0.21262728048060378,0.5569624678699646,0.0013576344245088362,0.8004480612971885,-1.78983768797922
0.30000000000000004,0.0,0.10000000000000002,0.32500000000000007,-0.12000000000000001,0.2720000000000001,-90,90.0,-90.0,0.09716547244429646,0.36393024263019846,0.3719985482061284,0.5465787041491509,0.0008446855922461981,0.6516120354954211,1.9332255758167014
0.30000000000000004,0.0,0.10000000000000002,0.35520643106952926,-0.10944062302712519,0.2720000000000001,-75,90.0,-90.0,0.0993371405757364,0.36699635025943295,0.27500723420584816,0.6788411227272361,0.0011346905338784946,0.6169799370109527,1.676029525611541
0.30000000000000004,0.0,0.10000000000000002,0.38165063509461106,-0.0914230484541326,0.272,-60,90.0,-90.0,0.09224322962079487,0.340420278235467,0.17748019480751834,0.8020473794519098,-0.0011159211307425075,0.5914071991803262,1.389385150302045
0.30000000000000004,0.0,0.10000000000000002,0.40253048327204943,-0.067175144212722,0.272,-45,90.0,-90.0,0.08347636222797924,0.2755502475134653,0.08745837829131083,0.9067743000785379,-0.0002856348166597072,0.5773864084954753,1.062082635776422
0.30000000000000004,0.0,0.10000000000000002,0.4164230484541327,-0.03834936490538901,0.2720000000000001,-30,90.0,-90.0,0.07680509316119309,0.17029299239707957,0.016672529118003196,0.9820368840322163,-0.0013571614020994427,0.5714137729218162,0.695845084287842
0.30000000000000004,0.0,0.10000000000000002,0.4223815752822513,-0.0069101397550757546,0.272,-15,90.0,-90.0,0.0739303837445894,0.031697891002634704,-0.016933646453945572,1.0156170638916038,-0.0002433185598315758,0.5725601875371784,0.2944096700388145
0.30000000000000004,0.0,0.10000000000000002,0.42000000000000004,0.025000000000000033,0.2720000000000001,0,90.0,-90.0,0.07512545749309352,-0.11279537635502838,-0.0035783806049725876,1.0021641522105165,-0.000813397071179979,0.5726181370408946,-0.111489911724427
0.30000000000000004,0.0,0.10000000000000002,0.40944062302712525,0.05520643106952922,0.272,15,90.0,-90.0,0.08016241044410803,-0.2356284387265452,0.05286420446430326,0.9438834958261708,0.0017194149450776612,0.5737168712540955,-0.4996492625229184
0.30000000000000004,0.0,0.10000000000000002,0.39142304845413267,0.08165063509461101,0.2720000000000001,30,90.0,-90.0,0.08825352932459393,-0.3169935427496183,0.13717484739962368,0.8501543254283642,-0.0018785300943681283,0.583559298774592,-0.8385970904110063
0.30000000000000004,0.0,0.10000000000000002,0.367175144212722,0.10253048327204942,0.272,45,90.0,-90.0,0.09742756202829952,-0.3591934830445199,0.23229699342167826,0.734298615285647,-0.0012291344872031235,0.6035950193748354,-1.142899919656418
0.30000000000000004,0.0,0.10000000000000002,0.3383493649053891,0.11642304845413265,0.272,60,90.0,-90.0,0.09846572011300167,-0.3684793497590697,0.3307359016525022,0.6037647338358902,0.0006868881951199517,0.6367734721009501,-1.4170034848889799
0.30000000000000004,0.0,0.10000000000000002,0.3069101397550758,0.12238157528225123,0.2720000000000001,75,90.0,-90.0,0.09509850046213443,-0.35256478900145705,0.425306357917472,0.47015963908983793,0.0016442766597548337,0.6746441724732553,-1.662844263095817
0.30000000000000004,0.0,0.10000000000000002,0.275,0.12000000000000004,0.2720000000000001,90,90.0,-90.0,0.09087404949748229,-0.3177403298106577,0.5137712505921009,0.33812058175896303,0.0012865938483256716,0.7188696120888268,-1.889696666894382
0.35000000000000003,0.05,0.2,0.37500000000000006,-0.07,0.3720000000000001,-90,90.0,-90.0,0.1000792441181195,0.2584218612827919,-0.050217172964035314,0.6601886411244605,0.0001498483219243733,0.9616870643386753,1.8284830910609262
0.35000000000000003,0.05,0.2,0.40520643106952925,-0.05944062302712519,0.3720000000000001,-75,90.0,-90.0,0.0883447961561627,0.2477517399034158,-0.17506007600534884,0.7721637039545621,0.0008150342952494456,0.9730576467686901,1.555351849405529
0.35000000000000003,0.05,0.2,0.43165063509461105,-0.0414230484541326,0.372,-60,90.0,-90.0,0.07742479934976677,0.1964706780463978,-0.29949708104838857,0.8691391660265144,-0.0009577342868284872,1.0016809484503042,1.2450869915317342
0.35000000000000003,0.05,0.2,0.4525304832720494,-0.017175144212721996,0.372,-45,90.0,-90.0,0.06832531621502601,0.09085315213736347,-0.40837121258281206,0.9436038294630797,0.0007334150737416308,1.0351642527290266,0.8754972983356354
0.35000000000000003,0.05,0.2,0.4664230484541327,0.011650635094610992,0.3720000000000001,-30,90.0,-90.0,0.06289846450596043,-0.06664706954846644,-0.4768837033350591,0.9854343358615623,-7.974589780158393e-05,1.061894106378876,0.45762203349529584
0.35000000000000003,0.05,0.2,0.4723815752822512,0.04308986024492425,0.372,-15,90.0,-90.0,0.06252684305631052,-0.2520476846706982,-0.48152173888886185,0.9881535176710208,0.0010993829093283835,1.0632709560325997,0.008380488578298094
0.35000000000000003,0.05,0.2,0.47000000000000003,0.07500000000000004,0.3720000000000001,0,90.0,-90.0,0.06747428921448752,-0.41512861286244207,-0.41938915362588036,0.9504104909787365,-0.0005395593795912988,1.0405395200088887,-0.41536240131535107
0.35000000000000003,0.05,0.2,0.4594406230271252,0.10520643106952923,0.372,15,90.0,-90.0,0.07613879053030166,-0.5271969756199022,-0.3140240111819329,0.8799908697483015,-0.001217991480165018,1.0048770875323814,-0.7876188593853917
0.35000000000000003,0.05,0.2,0.4414230484541326,0.131650635094611,0.3720000000000001,30,90.0,-90.0,0.08695706213672816,-0.5849139846397748,-0.19051256531313104,0.784926713769891,-0.001033501395159459,0.9760886188153727,-1.1075512331850674
0.35000000000000003,0.05,0.2,0.417175144212722,0.15253048327204943,0.372,45,90.0,-90.0,0.09867109499789219,-0.6003999350816082,-0.06526207588541853,0.6743031649398378,1.2994532951515254e-05,0.962520867371673,-1.385443459428126
0.35000000000000003,0.05,0.2,0.38834936490538907,0.16642304845413264,0.372,60,90.0,-90.0,0.09981697458969244,-0.5841403354260463,0.05163200870569578,0.5585395623557792,-0.0007745560347574548,0.9597529007616993,-1.6309286554797915
0.35000000000000003,0.05,0.2,0.3569101397550758,0.17238157528225123,0.3720000000000001,75,90.0,-90.0,0.09670654543502906,-0.5470785400774942,0.15807060891247485,0.44142860446967724,0.000289352653413221,0.9706400353563337,-1.855434070766652
0.35000000000000003,0.05,0.2,0.325,0.17000000000000004,0.3720000000000001,90,90.0,-90.0,0.09306864482959105,-0.4947770945352429,0.2513802427782169,0.3307624946374613,-0.000759139690246557,0.9880084637758764,-2.0645764637843156
0.30000000000000004,0.05,0.25,0.32500000000000007,-0.07,0.42200000000000004,-90,90.0,-90.0,0.09346160623927986,0.21846428146075333,0.07274848714699668,0.36702042571413923,0.000867402290837918,1.1299692149322984,1.7886743883100427
0.30000000000000004,0.05,0.25,0.35520643106952926,-0.05944062302712519,0.42200000000000004,-75,90.0,-90.0,0.09694251441871772,0.20561019991021262,-0.04469885360407738,0.4859932799300302,0.0010080968968824646,1.129046820962164,1.5143688664872976
0.30000000000000004,0.05,0.25,0.38165063509461106,-0.0414230484541326,0.422,-60,90.0,-90.0,0.09511772569946605,0.15884145338819602,-0.15608934774223301,0.5874500396156446,-7.433549690987135e-05,1.1383798904871145,1.2050847499741388
0.30000000000000004,0.05,0.25,0.40253048327204943,-0.017175144212721996,0.42200000000000004,-45,90.0,-90.0,0.08609029358291222,0.0718321194860956,-0.248865940160565,0.6639721089902829,0.0008451760031543531,1.155427682129914,0.8560416928162173
0.30000000000000004,0.05,0.25,0.4164230484541327,0.011650635094610992,0.42200000000000004,-30,90.0,-90.0,0.08056360225258721,-0.05208977789105762,-0.3067757635878625,0.7076488612049168,0.0005026666229442267,1.1689925211545584,0.4714844999988707
0.30000000000000004,0.05,0.25,0.4223815752822513,0.04308986024492425,0.42200000000000004,-15,90.0,-90.0,0.07984810152023974,-0.19545747624245755,-0.31476469647874034,0.7132990059117373,0.0008826600960396441,1.1728323257941382,0.06621777102890983
0.30000000000000004,0.05,0.25,0.42000000000000004,0.07500000000000004,0.42200000000000004,0,90.0,-90.0,0.08394428778083732,-0.3280957407190544,-0.2714318857489248,0.6813438753153637,-0.000639185067462964,1.1611711601519206,-0.3279858109809855
0.30000000000000004,0.05,0.25,0.40944062302712525,0.10520643106952923,0.42200000000000004,15,90.0,-90.0,0.09199793583710403,-0.4277859099569522,-0.18821963814779952,0.6145036617954112,-0.0008533703020625498,1.1443994780816624,-0.6892210999300642
0.30000000000000004,0.05,0.25,0.39142304845413267,0.131650635094611,0.42200000000000004,30,90.0,-90.0,0.09778421627760005,-0.48716438593949235,-0.08095484508331395,0.5204398701557451,-0.00021336704857011527,1.130381090427594,-1.0100952491720345
0.30000000000000004,0.05,0.25,0.367175144212722,0.15253048327204943,0.42200000000000004,45,90.0,-90.0,0.09469029002401708,-0.5094486069722082,0.035694185420183565,0.4062188219142388,-0.0012670153300701923,1.128292992614169,-1.2936888494706376
0.30000000000000004,0.05,0.25,0.3383493649053891,0.16642304845413264,0.422,60,90.0,-90.0,0.09049100330895798,-0.504171660886106,0.15227434054875866,0.27959574864262515,0.0002318708098922983,1.1398650774308343,-1.550843837793883
0.30000000000000004,0.05,0.25,0.3069101397550758,0.17238157528225123,0.42200000000000004,75,90.0,-90.0,0.08543279849444489,-0.4773622690970647,0.26359867857191477,0.14791450337462608,-0.0006566228559247963,1.159488402499604,-1.7870699756753863
0.30000000000000004,0.05,0.25,0.275,0.17000000000000004,0.42200000000000004,90,90.0,-90.0,0.07992185837592207,-0.4357886983693893,0.3647773297244222,0.019018893658273972,0.000290841000843765,1.186338512033249,-2.0059114348935
0.25000000000000006,-0.05,0.10000000000000002,0.2750000000000001,-0.17,0.2720000000000001,-90,90.0,-90.0,0.0867156191858802,0.43592413183190143,0.5698109399714363,0.2510895885591851,0.0003875809549281618,0.7507609430990919,2.007296797622817
0.25000000000000006,-0.05,0.10000000000000002,0.30520643106952927,-0.1594406230271252,0.2720000000000001,-75,90.0,-90.0,0.09187153053062799,0.4444482256707396,0.4728463858733665,0.39968778025229945,0.0010068925054913568,0.6979547605597566,1.7526470224806623
0.25000000000000006,-0.05,0.10000000000000002,0.33165063509461107,-0.14142304845413262,0.272,-60,90.0,-90.0,0.0959699432542421,0.43027753807889474,0.37816492496044213,0.538002008994567,-0.0009311138306939483,0.6538047862127095,1.4777531957073395
0.25000000000000006,-0.05,0.10000000000000002,0.35253048327204944,-0.117175144212722,0.272,-45,90.0,-90.0,0.09846645666359458,0.3869696204127993,0.29134927815860096,0.6574762257417681,-0.000649819362260221,0.6215265911828938,1.1725753693481364
0.25000000000000006,-0.05,0.10000000000000002,0.3664230484541327,-0.08834936490538901,0.2720000000000001,-30,90.0,-90.0,0.09483507679655095,0.3124723637249403,0.21994024519714392,0.7494628930699696,-0.001302537981500624,0.6014080790190823,0.8381369888472318
0.25000000000000006,-0.05,0.10000000000000002,0.37238157528225124,-0.05691013975507576,0.272,-15,90.0,-90.0,0.09040153579400732,0.2098683356657234,0.17574219341477681,0.8041430787799021,-0.001651806910727068,0.5910487861598759,0.4725745754755325
0.25000000000000006,-0.05,0.10000000000000002,0.37000000000000005,-0.02499999999999997,0.2720000000000001,0,90.0,-90.0,0.08963622928568754,0.0918914934098104,0.1678007428570381,0.813615922375927,0.0016882767157359506,0.589708147853597,0.09102828228158928
0.25000000000000006,-0.05,0.10000000000000002,0.3594406230271252,0.00520643106952922,0.272,15,90.0,-90.0,0.09273944388391178,-0.018662108910507468,0.19874357302831416,0.7763611618330465,-0.0011638620294739345,0.5962754197245423,-0.27930477072976123
0.25000000000000006,-0.05,0.10000000000000002,0.3414230484541326,0.03165063509461101,0.2720000000000001,30,90.0,-90.0,0.09808603518945792,-0.10549420172956472,0.25944721378813007,0.6989809633222444,-0.0003513747002038862,0.611027738465903,-0.6288238983233498
0.25000000000000006,-0.05,0.10000000000000002,0.317175144212722,0.052530483272049414,0.272,45,90.0,-90.0,0.09721432738958055,-0.1610658117238692,0.34209415457668224,0.5885441722346557,-0.0005083606591347827,0.6406851200587287,-0.9452656966724168
0.25000000000000006,-0.05,0.10000000000000002,0.2883493649053891,0.06642304845413265,0.272,60,90.0,-90.0,0.09366860353332247,-0.18633172566062217,0.43416628967767484,0.4573268162975821,-0.0014093576618800158,0.67856261348976,-1.2322829388864165
0.25000000000000006,-0.05,0.10000000000000002,0.2569101397550758,0.07238157528225123,0.2720000000000001,75,90.0,-90.0,0.08890265844903172,-0.18693670543827637,0.530986464722025,0.311643816367557,-0.0003864669684100102,0.7289950979076114,-1.4964134101062108
0.25000000000000006,-0.05,0.10000000000000002,0.22500000000000003,0.07000000000000003,0.2720000000000001,90,90.0,-90.0,0.08329606659805745,-0.16709148515618644,0.6261711459015941,0.16224865450297485,-9.833854427225444e-05,0.7814362460367947,-1.736897091552324
0.25000000000000006,-0.1,0.15000000000000002,0.2750000000000001,-0.22000000000000003,0.32200000000000006,-90,90.0,-90.0,0.0806271031556285,0.542292779712427,0.5566730254159211,0.08683641629820321,-0.00032956353603123963,0.9283514820549976,2.1125540250956845
0.25000000000000006,-0.1,0.15000000000000002,0.30520643106952927,-0.20944062302712518,0.32200000000000006,-75,90.0,-90.0,0.08669846944902741,0.5588338911925796,0.4511612329230028,0.24131129159852155,0.0007875932241562075,0.8777223117744494,1.8666001195788653
0.25000000000000006,-0.1,0.15000000000000002,0.33165063509461107,-0.1914230484541326,0.322,-60,90.0,-90.0,0.09175039372234974,0.5556384845285948,0.3461570456019366,0.38675859626185627,-0.0009953584249488244,0.8380249581497227,1.6042882245750911
0.25000000000000006,-0.1,0.15000000000000002,0.35253048327204944,-0.167175144212722,0.32200000000000006,-45,90.0,-90.0,0.09556235571992873,0.5266158495584449,0.2458437818284585,0.5165289770093651,0.000969111518276871,0.8077360348243093,1.3119968281466103
0.25000000000000006,-0.1,0.15000000000000002,0.3664230484541327,-0.13834936490538902,0.32200000000000006,-30,90.0,-90.0,0.097991864469644,0.46851396591784333,0.15845090161275557,0.6217834726308306,-0.001038053168445842,0.7901890501871941,0.9920722786615771
0.25000000000000006,-0.1,0.15000000000000002,0.37238157528225124,-0.10691013975507577,0.32200000000000006,-15,90.0,-90.0,0.0979609458750703,0.37995185765566053,0.09514347750129791,0.6931879009522056,0.0002701729063314085,0.7818882547140742,0.6412863767030188
0.25000000000000006,-0.1,0.15000000000000002,0.37000000000000005,-0.07499999999999997,0.32200000000000006,0,90.0,-90.0,0.09532364194904161,0.271330206221231,0.06644366873842121,0.7241140644919224,-0.0015777069488830625,0.7796119996152714,0.2729226798372496
0.25000000000000006,-0.1,0.15000000000000002,0.3594406230271252,-0.04479356893047078,0.32200000000000006,15,90.0,-90.0,0.09678856347547996,0.1582388006583976,0.08053936093826103,0.7088112927382249,0.0009379028472464333,0.7823203608711027,-0.104513766646828
0.25000000000000006,-0.1,0.15000000000000002,0.3414230484541326,-0.018349364905388993,0.32200000000000006,30,90.0,-90.0,0.09845946869452749,0.06116713760234284,0.13282531895384458,0.6507012138536392,0.00018890971941113767,0.7868711097572461,-0.46184849109636367
0.25000000000000006,-0.1,0.15000000000000002,0.317175144212722,0.002530483272049411,0.32200000000000006,45,90.0,-90.0,0.09656274940072893,-0.007978508340839241,0.21366430499126673,0.5557339727743362,0.0017154922362617154,0.8013627832009751,-0.7936990536019827
0.25000000000000006,-0.1,0.15000000000000002,0.2883493649053891,0.016423048454132644,0.322,60,90.0,-90.0,0.09322326208329139,-0.04665419109538813,0.3104274347447697,0.43413770418238706,0.00034096371959668856,0.825838218376695,-1.094865583839056
0.25000000000000006,-0.1,0.15000000000000002,0.2569101397550758,0.022381575282251223,0.32200000000000006,75,90.0,-90.0,0.0885810847877655,-0.05822122064466387,0.41473707171979535,0.29310776812129974,-0.0001351187722397595,0.8635672866540053,-1.3665985889704235
0.25000000000000006,-0.1,0.15000000000000002,0.22500000000000003,0.02000000000000003,0.32200000000000006,90,90.0,-90.0,0.0828483866306331,-0.04838926198297912,0.5201073305226208,0.14142224132170841,0.00016089532865975627,0.9087404516459373,-1.6184818757725996
0.20000000000000007,-0.1,0.2,0.2250000000000001,-0.22000000000000003,0.3720000000000001,-90,90.0,-90.0,0.06511165602866237,0.48732518912524514,0.6595574134324216,-0.23929550243681846,9.167144393138209e-06,1.1501167749881032,2.058034056954138
0.20000000000000007,-0.1,0.2,0.2552064310695293,-0.20944062302712518,0.3720000000000001,-75,90.0,-90.0,0.07382602348248964,0.49841540200298623,0.5366365037707648,-0.054058988605710505,0.0006247882535521843,1.087398502060891,1.806372801594836
0.20000000000000007,-0.1,0.2,0.2816506350946111,-0.1914230484541326,0.372,-60,90.0,-90.0,0.08074601114458937,0.49049552606843294,0.42125998671892284,0.10923242453785816,0.0007057499881638659,1.0404132910687267,1.5371087929031142
0.20000000000000007,-0.1,0.2,0.30253048327204946,-0.167175144212722,0.372,-45,90.0,-90.0,0.08601789815357978,0.46005406513899505,0.31633748139046763,0.24861519749234898,-0.0011770048873788572,1.0056814029370555,1.2457140810756626
0.20000000000000007,-0.1,0.2,0.3164230484541327,-0.13834936490538902,0.3720000000000001,-30,90.0,-90.0,0.08962849988688827,0.40414312321393836,0.2304799298060297,0.35599286448756184,-0.00135503292161344,0.9846942917562406,0.9294686153008291
0.20000000000000007,-0.1,0.2,0.3223815752822513,-0.10691013975507577,0.372,-15,90.0,-90.0,0.09174547869703188,0.32460106491807417,0.1716441324968415,0.42611348501378593,6.961571592391111e-05,0.9728232250525363,0.5872797432474488
0.20000000000000007,-0.1,0.2,0.32000000000000006,-0.07499999999999997,0.3720000000000001,0,90.0,-90.0,0.09247715426653168,0.2299141847893268,0.1487118436525618,0.45207127667681324,0.0008832067967390275,0.9692732088966318,0.22978782680733364
0.20000000000000007,-0.1,0.2,0.30944062302712527,-0.04479356893047078,0.372,15,90.0,-90.0,0.09192162718473151,0.134606915355808,0.1661517087338717,0.43233337365663926,1.1902777964112126e-05,0.9717345586177891,-0.12698991962814818
0.20000000000000007,-0.1,0.2,0.2914230484541327,-0.018349364905388993,0.3720000000000001,30,90.0,-90.0,0.09001240622772161,0.052398639820038756,0.22027117915931368,0.36823216575892775,0.0011452200420700026,0.9823130851192334,-0.47272994576561694
0.20000000000000007,-0.1,0.2,0.26717514421272204,0.002530483272049411,0.372,45,90.0,-90.0,0.08659979941601131,-0.006994019111610626,0.3035184288166809,0.26519710055892476,-0.00013498417588488217,1.002800319625643,-0.7914842344326144
0.20000000000000007,-0.1,0.2,0.2383493649053891,0.016423048454132644,0.372,60,90.0,-90.0,0.08157654138413428,-0.041049737128315805,0.4059913957318332,0.13005607381207984,0.0007437735399115932,1.0350028188531728,-1.0882961440255858
0.20000000000000007,-0.1,0.2,0.2069101397550758,0.022381575282251223,0.3720000000000001,75,90.0,-90.0,0.0748657402964065,-0.05148162148201864,0.5201740873827383,-0.03065097644364544,-0.0005798151401792917,1.080979176773095,-1.35923150651922
0.20000000000000007,-0.1,0.2,0.17500000000000004,0.02000000000000003,0.3720000000000001,90,90.0,-90.0,0.06639840784352888,-0.0429414135105209,0.6427612091908971,-0.2131481045573675,-0.0008668514309683065,1.1416945207127918,-1.6141851923616437
0.20000000000000007,-0.1,0.25,0.2250000000000001,-0.22000000000000003,0.42200000000000004,-90,90.0,-90.0,0.05904335755189754,0.48733163564909016,0.6343060967143042,-0.362902816858097,0.0006309898884593623,1.2989121870922573,2.0571965105364542
0.20000000000000007,-0.1,0.25,0.2552064310695293,-0.20944062302712518,0.42200000000000004,-75,90.0,-90.0,0.06879208188374973,0.4982644474472411,0.501450981363139,-0.16771818324519897,0.0008690308139864681,1.2362317323163001,1.8065373553439539
0.20000000000000007,-0.1,0.25,0.2816506350946111,-0.1914230484541326,0.422,-60,90.0,-90.0,0.07639758606611025,0.4905694009934981,0.37899398728868383,0.0005165044755183614,-0.0010634046228032124,1.1917733882915151,1.538530857909716
0.20000000000000007,-0.1,0.25,0.30253048327204946,-0.167175144212722,0.42200000000000004,-45,90.0,-90.0,0.08208638324912114,0.4598581520401692,0.2688464034008653,0.1413331894329521,0.0009369329058272838,1.160453807259388,1.2444243246409994
0.20000000000000007,-0.1,0.25,0.3164230484541327,-0.13834936490538902,0.42200000000000004,-30,90.0,-90.0,0.08597753183252305,0.4040813481564294,0.1788942215116559,0.24905372369129225,-0.00026502546726749087,1.141705777262719,0.9272207193459704
0.20000000000000007,-0.1,0.25,0.3223815752822513,-0.10691013975507577,0.42200000000000004,-15,90.0,-90.0,0.0882402477021062,0.32487499102775613,0.11814464723715751,0.31814629334085637,0.00021727193409083214,1.134148552511249,0.5871453848312937
0.20000000000000007,-0.1,0.25,0.32000000000000006,-0.07499999999999997,0.42200000000000004,0,90.0,-90.0,0.0890303399822233,0.23038051776423,0.09433335396685774,0.3439087044372086,-0.0009552600026425131,1.1321664934983469,0.2299658512650817
0.20000000000000007,-0.1,0.25,0.30944062302712527,-0.04479356893047078,0.42200000000000004,15,90.0,-90.0,0.08843000383991492,0.13448702193462328,0.11220246005045605,0.3242068579346893,0.0010167890261241514,1.1338942809977175,-0.12864739711295822
0.20000000000000007,-0.1,0.25,0.2914230484541327,-0.018349364905388993,0.42200000000000004,30,90.0,-90.0,0.0863730262793169,0.05280550076443526,0.16889484831827264,0.2607797433905216,-0.0007179606435142039,1.1407044693167157,-0.46952946238979926
0.20000000000000007,-0.1,0.25,0.26717514421272204,0.002530483272049411,0.42200000000000004,45,90.0,-90.0,0.08272449044404288,-0.0067008859788857435,0.25532370289926876,0.15822421492858585,-0.0008046084852634881,1.1568299842464682,-0.7921741821770746
0.20000000000000007,-0.1,0.25,0.2383493649053891,0.016423048454132644,0.422,60,90.0,-90.0,0.07730355106416793,-0.04088491256610613,0.36248072093767025,0.022009021839065095,0.0001659615549922986,1.1860873114936137,-1.0878349802336968
0.20000000000000007,-0.1,0.25,0.2069101397550758,0.022381575282251223,0.42200000000000004,75,90.0,-90.0,0.06998076612053636,-0.051910131297130443,0.48364004960992824,-0.142611475788072,0.0007308823449196721,1.228866451965704,-1.3608300043287833
0.20000000000000007,-0.1,0.25,0.17500000000000004,0.02000000000000003,0.42200000000000004,90,90.0,-90.0,0.060547580221348755,-0.0429110434640319,0.6151698448808008,-0.3340019760035793,0.00012956986391233276,1.2893264908642095,-1.6127895482741603
0.25000000000000006,-0.1,0.2,0.2750000000000001,-0.22000000000000003,0.3720000000000001,-90,90.0,-90.0,0.07773253100507922,0.5424986155936125,0.4931527115861443,0.008432287146164692,-0.0008419089393625527,1.069895586730939,2.1132566401863535
0.25000000000000006,-0.1,0.2,0.30520643106952927,-0.20944062302712518,0.3720000000000001,-75,90.0,-90.0,0.08418317148444274,0.5588693424160338,0.38073304156018484,0.16400302488051352,0.0008817765605333154,1.0254052606186448,1.8665917832774241
0.25000000000000006,-0.1,0.2,0.33165063509461107,-0.1914230484541326,0.372,-60,90.0,-90.0,0.08951345060341145,0.5552966064247806,0.26864132384652273,0.3090025253889937,0.001075279112654429,0.9924753048954558,1.6012284279682973
0.25000000000000006,-0.1,0.2,0.35253048327204944,-0.167175144212722,0.372,-45,90.0,-90.0,0.09355240102387398,0.5266177557720377,0.16274882220130174,0.4360623361134251,-0.0004378662003716478,0.9726448978837197,1.3125389040565116
0.25000000000000006,-0.1,0.2,0.3664230484541327,-0.13834936490538902,0.3720000000000001,-30,90.0,-90.0,0.09626353593853185,0.46838470276802513,0.0698937074309737,0.5391561287588839,1.966356851468222e-05,0.9614222571879649,0.9915195243884352
0.25000000000000006,-0.1,0.2,0.37238157528225124,-0.10691013975507577,0.372,-15,90.0,-90.0,0.0977017508848762,0.3799168808564176,0.0026891845589797642,0.6084917026328304,0.0013646080711583785,0.9598365112353273,0.6416989573184267
0.25000000000000006,-0.1,0.2,0.37000000000000005,-0.07499999999999997,0.3720000000000001,0,90.0,-90.0,0.09743511809850351,0.27077472610125036,-0.026735998530791262,0.6377659855313846,0.0005305756523892075,0.9596733073659619,0.2709066224340401
0.25000000000000006,-0.1,0.2,0.3594406230271252,-0.04479356893047078,0.372,15,90.0,-90.0,0.09794135860072754,0.15881012970499123,-0.012288988991374613,0.623493559493975,-0.0011777239233885133,0.9600265831689695,-0.10134510685884265
0.25000000000000006,-0.1,0.2,0.3414230484541326,-0.018349364905388993,0.3720000000000001,30,90.0,-90.0,0.09691004160475085,0.061091573849091016,0.04243484346870468,0.5679289245564888,0.00026470832307842805,0.9596775387728314,-0.4621427788654925
0.25000000000000006,-0.1,0.2,0.317175144212722,0.002530483272049411,0.372,45,90.0,-90.0,0.09466568204670651,-0.007715403275541679,0.1275060849378405,0.47594141561433345,-0.0008105013007616418,0.9666865869667346,-0.7922937438057136
0.25000000000000006,-0.1,0.2,0.2883493649053891,0.016423048454132644,0.372,60,90.0,-90.0,0.09108634119631821,-0.04678236659948105,0.23061917150656194,0.35595152416090786,-6.244769316520938e-07,0.9840632039921671,-1.0936031814644718
0.25000000000000006,-0.1,0.2,0.2569101397550758,0.022381575282251223,0.3720000000000001,75,90.0,-90.0,0.08618832432534838,-0.05825714975333816,0.3413280310391604,0.21628567597401827,-0.0012765056710794026,1.0124794187064192,-1.366186554426505
0.25000000000000006,-0.1,0.2,0.22500000000000003,0.02000000000000003,0.3720000000000001,90,90.0,-90.0,0.08010724670286078,-0.048249105619727596,0.45379281157280305,0.06381018395148255,-9.119947035422403e-05,1.0524790004765514,-1.6182683158096898
0.35000000000000003,0.1,0.2,0.37500000000000006,-0.020000000000000004,0.3720000000000001,-90,90.0,-90.0,0.09669088161263523,0.075103972834892,-0.08144773358332293,0.6896249990318966,0.0004735967599745961,0.9632933798894795,1.6464298612062684
0.35000000000000003,0.1,0.2,0.40520643106952925,-0.009440623027125186,0.3720000000000001,-75,90.0,-90.0,0.08527331128753143,0.040049589236582576,-0.20430783513900094,0.796218314542708,0.00042423176136770994,0.9787582725061339,1.348172204264826
0.35000000000000003,0.1,0.2,0.43165063509461105,0.008576951545867406,0.372,-60,90.0,-90.0,0.07544640421381471,-0.04135394087790812,-0.316446440700248,0.8817264369824869,0.0008107137126374983,1.005321757724408,1.0063136471604088
0.35000000000000003,0.1,0.2,0.4525304832720494,0.03282485578727801,0.372,-45,90.0,-90.0,0.06860744749785673,-0.17325984884618859,-0.39843705491419906,0.9373389022453521,-4.2760892417929353e-05,1.0315751774489255,0.611237893936427
0.35000000000000003,0.1,0.2,0.4664230484541327,0.061650635094610995,0.3720000000000001,-30,90.0,-90.0,0.06631432413801262,-0.3414435248105825,-0.4270364110327795,0.9552438748451395,0.001171313998317569,1.0428271951815746,0.18119353186459902
0.35000000000000003,0.1,0.2,0.4723815752822512,0.09308986024492424,0.372,-15,90.0,-90.0,0.06914884176832937,-0.5074022381591843,-0.39222366791556534,0.9328334944576672,0.0007717775962259617,1.030172950449954,-0.2469141758457328
0.35000000000000003,0.1,0.2,0.47000000000000003,0.12500000000000003,0.3720000000000001,0,90.0,-90.0,0.07635119005330719,-0.6342933483362834,-0.30586905779775825,0.8737683763477261,0.0006105291772154961,1.002125032141742,-0.6352571513201459
0.35000000000000003,0.1,0.2,0.4594406230271252,0.15520643106952922,0.372,15,90.0,-90.0,0.08654585850356834,-0.7097182830539199,-0.19098441265798752,0.7850097076062215,-0.000132083647617754,0.9780218112355585,-0.9713357456749708
0.35000000000000003,0.1,0.2,0.4414230484541326,0.18165063509461102,0.3720000000000001,30,90.0,-90.0,0.09786816159760403,-0.7409283046222528,-0.06882082854576259,0.6780402815204666,0.0013052210438633334,0.9619400439330814,-1.264705138130804
0.35000000000000003,0.1,0.2,0.417175144212722,0.20253048327204942,0.372,45,90.0,-90.0,0.09952838071900705,-0.7373761865328522,0.04999427481759568,0.5602776598801479,-0.0007232006260432277,0.9597513417006774,-1.521981074567643
0.35000000000000003,0.1,0.2,0.38834936490538907,0.21642304845413265,0.372,60,90.0,-90.0,0.09633907293213446,-0.7104082328244846,0.15973612465115286,0.43938038019177456,0.0011960070124421105,0.9711739038446872,-1.7576146585347072
0.35000000000000003,0.1,0.2,0.3569101397550758,0.22238157528225122,0.3720000000000001,75,90.0,-90.0,0.09246739500646137,-0.6658956322046167,0.2585974791325815,0.3214241476350633,0.00048138355984112295,0.9919730607821825,-1.9744861408489098
0.35000000000000003,0.1,0.2,0.325,0.22000000000000003,0.3720000000000001,90,90.0,-90.0,0.0884325959082778,-0.6097194445692433,0.34368477277779147,0.21346587722934318,0.00037810244833081855,1.0146606790281556,-2.181354281313665
0.30000000000000004,0.05,0.15000000000000002,0.32500000000000007,-0.07,0.32200000000000006,-90,90.0,-90.0,0.09796924231112339,0.21836962736931093,0.2132620532585396,0.5566406780908125,0.0011049107878858446,0.8002602872194404,1.7885805867150268
0.30000000000000004,0.05,0.15000000000000002,0.35520643106952926,-0.05944062302712519,0.32200000000000006,-75,90.0,-90.0,0.09974767862083231,0.20582308122217716,0.10440793748641328,0.6829100540927581,0.0005481195471957144,0.7830655124189453,1.515101770044021
0.30000000000000004,0.05,0.15000000000000002,0.38165063509461106,-0.0414230484541326,0.322,-60,90.0,-90.0,0.09142161804779628,0.15864952897648146,-0.0009087655644698195,0.7934936406177007,0.0006399732307212956,0.7777716748607411,1.204441494168213
0.30000000000000004,0.05,0.15000000000000002,0.40253048327204943,-0.017175144212721996,0.32200000000000006,-45,90.0,-90.0,0.08316575091701232,0.07186303310545915,-0.09082388679296757,0.8794191021303762,0.0018378182804921436,0.7820903461812375,0.8569274400362703
0.30000000000000004,0.05,0.15000000000000002,0.4164230484541327,0.011650635094610992,0.32200000000000006,-30,90.0,-90.0,0.07808232587569522,-0.05223627703117279,-0.14796046836614452,0.9295634441361387,-0.00019828772570372526,0.7883493152831105,0.47112396840746595
0.30000000000000004,0.05,0.15000000000000002,0.4223815752822513,0.04308986024492425,0.32200000000000006,-15,90.0,-90.0,0.07738023779178411,-0.19594010891483238,-0.15628656980398878,0.936573264485388,0.0012225512927989792,0.7899753470942066,0.06435305646379591
0.30000000000000004,0.05,0.15000000000000002,0.42000000000000004,0.07500000000000004,0.32200000000000006,0,90.0,-90.0,0.0811038043307979,-0.328597918255198,-0.1133137436267701,0.8997193963416199,-0.00015634456166345825,0.7834565243782146,-0.32943079548149423
0.30000000000000004,0.05,0.15000000000000002,0.40944062302712525,0.10520643106952923,0.32200000000000006,15,90.0,-90.0,0.08863948518406572,-0.427917932847524,-0.031031181472431068,0.8233483527402448,-0.0009528024232653994,0.7788019774573612,-0.6881303596050593
0.30000000000000004,0.05,0.15000000000000002,0.39142304845413267,0.131650635094611,0.32200000000000006,30,90.0,-90.0,0.09800338789681795,-0.48681661724828307,0.07063548120852614,0.7195926677603917,-0.0006681267807432247,0.7797461229166796,-1.009886354529159
0.30000000000000004,0.05,0.15000000000000002,0.367175144212722,0.15253048327204943,0.32200000000000006,45,90.0,-90.0,0.09885674427403147,-0.5095330229103338,0.17852305158789578,0.5978558322783509,-0.0015175125171302734,0.793776383815219,-1.293846622006636
0.30000000000000004,0.05,0.15000000000000002,0.3383493649053891,0.16642304845413264,0.322,60,90.0,-90.0,0.0955846973061149,-0.5041506558874403,0.2855720848477885,0.46576345078444187,0.0006822738221040085,0.8198970277914365,-1.5508141528752772
0.30000000000000004,0.05,0.15000000000000002,0.3069101397550758,0.17238157528225123,0.32200000000000006,75,90.0,-90.0,0.09134845039498933,-0.47770060558142263,0.3858184323277126,0.33315087560178214,0.0003605736283663724,0.8511532356754821,-1.7861915059545244
0.30000000000000004,0.05,0.15000000000000002,0.275,0.17000000000000004,0.32200000000000006,90,90.0,-90.0,0.08661938314840659,-0.43568527836482773,0.47685494476932966,0.20438479593952813,-0.0014288977512538505,0.889884620136148,-2.0049495347129853
0.30000000000000004,0.15000000000000002,0.15000000000000002,0.32500000000000007,0.030000000000000013,0.32200000000000006,-90,90.0,-90.0,0.09789745557174696,-0.0950978946167718,0.19196072648241885,0.58203548688262,-0.0009799665432391159,0.7962536101237871,1.4763393480998959
0.30000000000000004,0.15000000000000002,0.15000000000000002,0.35520643106952926,0.04055937697287483,0.32200000000000006,-75,90.0,-90.0,0.09867091762386056,-0.1417074686707326,0.09270636433405757,0.6954722508992276,-0.0001503576970540815,0.7816708531176922,1.1664329673651386
0.30000000000000004,0.15000000000000002,0.15000000000000002,0.38165063509461106,0.05857695154586742,0.322,-60,90.0,-90.0,0.0914532618937206,-0.22309628191907627,0.011127454861584542,0.7815405364869047,0.001357881816327599,0.778506001913491,0.823859889739541
0.30000000000000004,0.15000000000000002,0.15000000000000002,0.40253048327204943,0.08282485578727802,0.32200000000000006,-45,90.0,-90.0,0.08674415773234419,-0.3353667848948508,-0.03865216755269085,0.830939742013173,-0.0003831062687591174,0.7789354370088948,0.4498321105421152
0.30000000000000004,0.15000000000000002,0.15000000000000002,0.4164230484541327,0.11165063509461101,0.32200000000000006,-30,90.0,-90.0,0.08611562241643221,-0.4627547309572117,-0.044855585441084964,0.8367007638748242,-0.0014182859760482002,0.778299008723651,0.06121160187429325
0.30000000000000004,0.15000000000000002,0.15000000000000002,0.4223815752822513,0.14308986024492426,0.32200000000000006,-15,90.0,-90.0,0.08990014936317066,-0.5814391569870057,-0.005073949650347663,0.7977632928553621,-0.0012637352358450368,0.778256559882849,-0.3187325548359689
0.30000000000000004,0.15000000000000002,0.15000000000000002,0.42000000000000004,0.17500000000000004,0.32200000000000006,0,90.0,-90.0,0.09695672960753757,-0.672156306245955,0.07003881946981912,0.7202618021805127,0.0014832930400390622,0.7803247378974288,-0.6737032684086307
0.30000000000000004,0.15000000000000002,0.15000000000000002,0.40944062302712525,0.20520643106952924,0.32200000000000006,15,90.0,-90.0,0.09851613225860868,-0.7269806722128336,0.16569906495709533,0.6129573733781923,-0.00041899676636544055,0.7932218293843751,-0.9886817119077574
0.30000000000000004,0.15000000000000002,0.15000000000000002,0.39142304845413267,0.23165063509461103,0.32200000000000006,30,90.0,-90.0,0.09549110305017906,-0.7501138064769166,0.2698211622086571,0.4859173677900885,-0.0005067959884353781,0.8157430856799517,-1.2723700110682865
0.30000000000000004,0.15000000000000002,0.15000000000000002,0.367175144212722,0.2525304832720494,0.32200000000000006,45,90.0,-90.0,0.09119512628329737,-0.7469768035652863,0.37512705572254207,0.34749478725341115,0.00031980526681704604,0.8476082518098343,-1.531772938095729
0.30000000000000004,0.15000000000000002,0.15000000000000002,0.3383493649053891,0.26642304845413267,0.322,60,90.0,-90.0,0.08604387234157744,-0.7235749455157339,0.4766570554429872,0.20517986775680297,0.0009413576516230526,0.8883966595116093,-1.7709576630891313
0.30000000000000004,0.15000000000000002,0.15000000000000002,0.3069101397550758,0.27238157528225126,0.32200000000000006,75,90.0,-90.0,0.08041160892782295,-0.6855226869727038,0.5704904747069806,0.06634335667833757,0.00044226539752960435,0.9337351558095369,-1.995216146764123
0.30000000000000004,0.15000000000000002,0.15000000000000002,0.275,0.2700000000000001,0.32200000000000006,90,90.0,-90.0,0.07468918848966459,-0.636738823876325,0.6541780195925906,-0.06263091624731944,-0.00021492429344362773,0.9795740068540104,-2.2081245788833743
0.25000000000000006,0.05,0.3,0.2750000000000001,-0.07,0.4720000000000001,-90,90.0,-90.0,0.07911775206598984,0.18946623406009447,0.23084458751394454,0.02534437010641833,0.0008079738862400612,1.313713825814557,1.7598302522476985
0.25000000000000006,0.05,0.3,0.30520643106952927,-0.05944062302712519,0.4720000000000001,-75,90.0,-90.0,0.0846233535443639,0.17534669708874726,0.1126536906425958,0.16128602074248102,0.0009291059340996515,1.2973859454797234,1.4832370443382685
0.25000000000000006,0.05,0.3,0.33165063509461107,-0.0414230484541326,0.472,-60,90.0,-90.0,0.08861897881336489,0.13349241233070275,0.005698789525882416,0.27378811122031793,0.0002208235725485326,1.291035106065636,1.1799540950538214
0.25000000000000006,0.05,0.3,0.35253048327204944,-0.017175144212721996,0.472,-45,90.0,-90.0,0.0911763230514695,0.059770909881163084,-0.0802391553118351,0.3567683528153185,0.00022369963831442893,1.2938678281894922,0.8441919134725727
0.25000000000000006,0.05,0.3,0.3664230484541327,0.011650635094610992,0.4720000000000001,-30,90.0,-90.0,0.09247713248854934,-0.04208370466317264,-0.13316645723164716,0.40482318598819106,-0.0012401197202250806,1.2989229984956356,0.4810166440976606
0.25000000000000006,0.05,0.3,0.37238157528225124,0.04308986024492425,0.472,-15,90.0,-90.0,0.09272536575988875,-0.15947883533621537,-0.1438065939768657,0.41431982810203066,-0.0007731321616262748,1.3010000975387617,0.10175306968019815
0.25000000000000006,0.05,0.3,0.37000000000000005,0.07500000000000004,0.4720000000000001,0,90.0,-90.0,0.091931768105592,-0.27083848655234627,-0.10966466883809282,0.38390193611448375,-0.0005055862432873131,1.29550577720897,-0.2713737193626961
0.25000000000000006,0.05,0.3,0.3594406230271252,0.10520643106952923,0.472,15,90.0,-90.0,0.0899518124715581,-0.3588783208131042,-0.03658883948604594,0.3152019742632553,3.333992632076951e-05,1.2932140225199686,-0.6215145015037252
0.25000000000000006,0.05,0.3,0.3414230484541326,0.131650635094611,0.4720000000000001,30,90.0,-90.0,0.08662771998423349,-0.41559748915743455,0.0619258147075757,0.21571534300063663,0.0007171149302345131,1.2933055343045177,-0.9384547078499962
0.25000000000000006,0.05,0.3,0.317175144212722,0.15253048327204943,0.472,45,90.0,-90.0,0.08181337226493018,-0.44143561180149765,0.17600694064320926,0.0898485888486843,-0.0001889789959750389,1.3047901566860989,-1.2258205251133112
0.25000000000000006,0.05,0.3,0.2883493649053891,0.16642304845413264,0.472,60,90.0,-90.0,0.07556502499584566,-0.44212887133784423,0.2967087065869506,-0.055342556364239716,0.00023467154002526966,1.3285317054181083,-1.4903466079241967
0.25000000000000006,0.05,0.3,0.2569101397550758,0.17238157528225123,0.4720000000000001,75,90.0,-90.0,0.06784391956177498,-0.4230239689738636,0.4203285847803058,-0.21696917428394813,0.0009802600143732519,1.366996602045835,-1.7314211155546266
0.25000000000000006,0.05,0.3,0.22500000000000003,0.17000000000000004,0.4720000000000001,90,90.0,-90.0,0.05898663333060402,-0.3888649214627297,0.5416640771604957,-0.3870545351667795,0.0007296625568907614,1.4158354151733066,-1.9593051693553607
0.30000000000000004,0.2,0.10000000000000002,0.32500000000000007,0.08,0.2720000000000001,-90,90.0,-90.0,0.0973800845952352,-0.24885819764551215,0.33557548899132617,0.5970206430833322,0.001166638580281126,0.6382489196238685,1.3207467684434815
0.30000000000000004,0.2,0.10000000000000002,0.35520643106952926,0.09055937697287482,0.2720000000000001,-75,90.0,-90.0,0.09787616549753003,-0.30823812922129123,0.25561767674435715,0.7044089815135787,0.0018395586041617307,0.6103433139808295,0.9983702653655959
0.30000000000000004,0.2,0.10000000000000002,0.38165063509461106,0.10857695154586741,0.272,-60,90.0,-90.0,0.09251165875733598,-0.39829549695443917,0.19693247978067302,0.7781729759756271,0.0015466025366420177,0.5958101248154591,0.6481181102785433
0.30000000000000004,0.2,0.10000000000000002,0.40253048327204943,0.132824855787278,0.272,-45,90.0,-90.0,0.08995170359050715,-0.5101761818644538,0.17116558438809115,0.809922209968602,-0.0009525282525945631,0.5905404923556706,0.27681023546729383
0.30000000000000004,0.2,0.10000000000000002,0.4164230484541327,0.161650635094611,0.2720000000000001,-30,90.0,-90.0,0.09112444484365921,-0.6261446636123654,0.18364248123606994,0.7949346644957903,0.0016663589606445055,0.5924342796644886,-0.1034148799250821
0.30000000000000004,0.2,0.10000000000000002,0.4223815752822513,0.19308986024492425,0.272,-15,90.0,-90.0,0.09589026267988345,-0.725492841890137,0.2311966409126128,0.7356147978159262,-0.0010195868598600448,0.6041904058912554,-0.46201799500330976
0.30000000000000004,0.2,0.10000000000000002,0.42000000000000004,0.22500000000000003,0.2720000000000001,0,90.0,-90.0,0.09822375636266457,-0.7968063884525196,0.30420223040009275,0.6399695649253363,-4.618919377977356e-05,0.6273899471537482,-0.7975971924738589
0.30000000000000004,0.2,0.10000000000000002,0.40944062302712525,0.2552064310695292,0.272,15,90.0,-90.0,0.09539911351523679,-0.8364022657953818,0.3924547097763313,0.5176945500279582,0.0007880383230087959,0.6597640559415989,-1.099457581377158
0.30000000000000004,0.2,0.10000000000000002,0.39142304845413267,0.281650635094611,0.2720000000000001,30,90.0,-90.0,0.09111766605185627,-0.8474622699967183,0.48782051899251855,0.3774596271684565,-0.0006617920847311483,0.7052183706340638,-1.3707089691009309
0.30000000000000004,0.2,0.10000000000000002,0.367175144212722,0.30253048327204946,0.272,45,90.0,-90.0,0.08582186434456748,-0.8366472589578864,0.584570087929086,0.22809468338882247,-0.001272277689181347,0.7587545864981329,-1.6208370266922023
0.30000000000000004,0.2,0.10000000000000002,0.3383493649053891,0.31642304845413266,0.272,60,90.0,-90.0,0.07984524375023462,-0.8091860086909343,0.6780848225544716,0.07811471839011794,-0.000520434118362148,0.813900910589913,-1.856354031049585
0.30000000000000004,0.2,0.10000000000000002,0.3069101397550758,0.32238157528225125,0.2720000000000001,75,90.0,-90.0,0.07345845730012557,-0.7689904582941368,0.7659600792679379,-0.06758326163413171,-0.0004118863775640998,0.8713164236630035,-2.077732922431205
0.30000000000000004,0.2,0.10000000000000002,0.275,0.32000000000000006,0.2720000000000001,90,90.0,-90.0,0.06714868720094344,-0.7200251266521563,0.8447724486009677,-0.20107101151600484,0.0015379870688891476,0.9271484535831405,-2.291526355330404
0.25000000000000006,0.0,0.3,0.2750000000000001,-0.12000000000000001,0.4720000000000001,-90,90.0,-90.0,0.07664269701043352,0.31789670164523604,0.27878293500209333,-0.033228611129357925,-0.0008827759939696682,1.3249144802010802,1.8880519402481957
0.25000000000000006,0.0,0.3,0.30520643106952927,-0.10944062302712519,0.4720000000000001,-75,90.0,-90.0,0.08275197584265531,0.3160551513560901,0.1580078576960025,0.11034678308937523,-0.0006325302656879142,1.3032881822243456,1.6256227851430507
0.25000000000000006,0.0,0.3,0.33165063509461107,-0.0914230484541326,0.472,-60,90.0,-90.0,0.08739681438762943,0.28798231435041644,0.04431985375348671,0.23413853621259167,0.0007804424599980294,1.2923857682236997,1.3357418933633622
0.25000000000000006,0.0,0.3,0.35253048327204944,-0.067175144212722,0.472,-45,90.0,-90.0,0.0905879967980707,0.22949029940370058,-0.05366434543101422,0.3320214770193307,-0.00027228462896754246,1.2917736845630365,1.0145127303313535
0.25000000000000006,0.0,0.3,0.3664230484541327,-0.03834936490538901,0.4720000000000001,-30,90.0,-90.0,0.0924201085454902,0.1392919221577345,-0.12399644068063469,0.3968499579806534,7.21202797829279e-07,1.2984059487385737,0.6633166460929825
0.25000000000000006,0.0,0.3,0.37238157528225124,-0.0069101397550757546,0.472,-15,90.0,-90.0,0.09313078808864153,0.025980293880003964,-0.15651086440629441,0.4253571362440761,0.0005556425222321719,1.3007605063206324,0.287367370801708
0.25000000000000006,0.0,0.3,0.37000000000000005,0.025000000000000033,0.4720000000000001,0,90.0,-90.0,0.09284144445038654,-0.0919242348398676,-0.14327630135596248,0.4136496675547373,-0.0008535483233722899,1.2997849330654188,-0.09188627232910065
0.25000000000000006,0.0,0.3,0.3594406230271252,0.05520643106952922,0.472,15,90.0,-90.0,0.09152611558742375,-0.19447670817176566,-0.08793242923979223,0.3638826459929193,0.0005668634404162629,1.2953736981897845,-0.45726391633473806
0.25000000000000006,0.0,0.3,0.3414230484541326,0.08165063509461101,0.4720000000000001,30,90.0,-90.0,0.08893788613694638,-0.266902184733519,-0.0003428328606432719,0.2796841205513838,-0.0003588970121841836,1.2914198739236025,-0.7895951668265885
0.25000000000000006,0.0,0.3,0.317175144212722,0.10253048327204942,0.472,45,90.0,-90.0,0.08492768458344813,-0.307891877259846,0.10796332069939713,0.16629470872363827,0.0009259825493919058,1.2969455865192026,-1.0941592196317105
0.25000000000000006,0.0,0.3,0.2883493649053891,0.11642304845413265,0.472,60,90.0,-90.0,0.0794517689708889,-0.31945854081668734,0.22624620965572126,0.030883732070035225,-0.0009471122060433288,1.313818871159284,-1.3659607018191375
0.25000000000000006,0.0,0.3,0.2569101397550758,0.12238157528225123,0.4720000000000001,75,90.0,-90.0,0.07259041673516016,-0.308997263303808,0.34822095349058485,-0.12114320781812063,-0.0007391848696357842,1.3439502121830962,-1.6177296128555951
0.25000000000000006,0.0,0.3,0.22500000000000003,0.12000000000000004,0.4720000000000001,90,90.0,-90.0,0.06443934328638906,-0.2815006564312365,0.47010483487549365,-0.2851568052874536,-0.0004824647601854441,1.385286348092922,-1.851537757845671
0.25000000000000006,0.1,0.10000000000000002,0.2750000000000001,-0.020000000000000004,0.2720000000000001,-90,90.0,-90.0,0.09243119596567582,0.05477797042687461,0.45716673633461835,0.4230518716451725,0.000713779878942126,0.6907831145033632,1.6244874559177152
0.25000000000000006,0.1,0.10000000000000002,0.30520643106952927,-0.009440623027125186,0.2720000000000001,-75,90.0,-90.0,0.09625334533825734,0.028338358065222707,0.36566483427834656,0.5555449472416165,-0.00019205545348275634,0.649664016656028,1.3366058544111397
0.25000000000000006,0.1,0.10000000000000002,0.33165063509461107,0.008576951545867406,0.272,-60,90.0,-90.0,0.0984432586417082,-0.027620678570083473,0.28557011559470197,0.6651027424162297,0.0006313369784781435,0.6212768836244958,1.018563650866928
0.25000000000000006,0.1,0.10000000000000002,0.35253048327204944,0.03282485578727801,0.272,-45,90.0,-90.0,0.09526714317272787,-0.11393692797271107,0.2263990030248687,0.741589239426149,0.0008236404405816281,0.6036816405853517,0.6717447239726493
0.25000000000000006,0.1,0.10000000000000002,0.3664230484541327,0.061650635094610995,0.2720000000000001,-30,90.0,-90.0,0.09227607750840423,-0.22155156182788371,0.19789203673788672,0.7772817964933916,-0.0007870715418591837,0.595390944500364,0.30337886209731285
0.25000000000000006,0.1,0.10000000000000002,0.37238157528225124,0.09308986024492424,0.272,-15,90.0,-90.0,0.093133449249152,-0.3349966802174217,0.20695220691542476,0.7659878859129413,0.001616839840372931,0.5970139631196183,-0.07436929949239916
0.25000000000000006,0.1,0.10000000000000002,0.37000000000000005,0.12500000000000003,0.2720000000000001,0,90.0,-90.0,0.09741064326027617,-0.43358304880354864,0.25169682308305064,0.7097050147222413,-0.0010337068938652237,0.6085476431971762,-0.4327953176121154
0.25000000000000006,0.1,0.10000000000000002,0.3594406230271252,0.15520643106952922,0.272,15,90.0,-90.0,0.09765347732056272,-0.5054796220335135,0.3222650446395571,0.61551034833809,0.0003497947796606755,0.6320248993909107,-0.7680719765785096
0.25000000000000006,0.1,0.10000000000000002,0.3414230484541326,0.18165063509461102,0.2720000000000001,30,90.0,-90.0,0.09456526048759394,-0.546294929488376,0.409027969681588,0.49382104738162474,-0.0008648273565650009,0.6671654764001747,-1.0693372376652406
0.25000000000000006,0.1,0.10000000000000002,0.317175144212722,0.20253048327204942,0.272,45,90.0,-90.0,0.09011566492796609,-0.5603363610783437,0.5042581800619268,0.3525107212103047,-0.0006851141559995187,0.7137089498429311,-1.344461943245197
0.25000000000000006,0.1,0.10000000000000002,0.2883493649053891,0.21642304845413265,0.272,60,90.0,-90.0,0.08463641673489633,-0.5519418351901283,0.6017680789428437,0.2010101864662693,0.0009729051510660516,0.7685344542585503,-1.600053118856047
0.25000000000000006,0.1,0.10000000000000002,0.2569101397550758,0.22238157528225122,0.2720000000000001,75,90.0,-90.0,0.0783676690555211,-0.5258249165563551,0.6969586987937009,0.04682894367065019,-0.000552726495025957,0.826367413423112,-1.8339594398635481
0.25000000000000006,0.1,0.10000000000000002,0.22500000000000003,0.22000000000000003,0.2720000000000001,90,90.0,-90.0,0.0716732860833992,-0.487534762321201,0.7871989656283361,-0.10340733011270073,0.0010672709391361605,0.886334732186874,-2.0589804520786728
0.15000000000000008,-0.1,0.3,0.1750000000000001,-0.22000000000000003,0.4720000000000001,-90,90.0,-90.0,0.018938982970040177,0.4418208446140709,0.9522173436799103,-1.0439200645263609,0.0004908995419656554,1.6616003612696222,2.0122291680570563
0.15000000000000008,-0.1,0.3,0.2052064310695293,-0.20944062302712518,0.4720000000000001,-75,90.0,-90.0,0.04277278345574209,0.4489582551965648,0.7126729929132108,-0.6458045881178179,0.0005755261919405723,1.5030790730312042,1.7578490194904253
0.15000000000000008,-0.1,0.3,0.2316506350946111,-0.1914230484541326,0.472,-60,90.0,-90.0,0.05592489576438406,0.43859115662439496,0.5535764449379635,-0.4044626824077322,-0.0006285064133202407,1.4220446278266707,1.4863283962660432
0.15000000000000008,-0.1,0.3,0.25253048327204947,-0.167175144212722,0.472,-45,90.0,-90.0,0.06473987872000225,0.40722723158626284,0.4276520001010897,-0.22680425546743144,0.0005488660258670662,1.3693398901605394,1.193028171521838
0.15000000000000008,-0.1,0.3,0.2664230484541327,-0.13834936490538902,0.4720000000000001,-30,90.0,-90.0,0.07040148454499687,0.3547226752117629,0.33362104461073183,-0.10214811877622877,0.00010834313772303724,1.3392888487310108,0.8775967436506507
0.15000000000000008,-0.1,0.3,0.27238157528225126,-0.10691013975507577,0.472,-15,90.0,-90.0,0.07363188113402305,0.2831680885206474,0.27299615130720156,-0.025879952008655897,-0.001237581360846733,1.3235221440060854,0.5462223615916045
0.15000000000000008,-0.1,0.3,0.2700000000000001,-0.07499999999999997,0.4720000000000001,0,90.0,-90.0,0.07462225563308313,0.1996382920513801,0.25313037364767055,-0.0014080017794149689,0.0010309854109094825,1.3196826682850908,0.1989458491550227
0.15000000000000008,-0.1,0.3,0.25944062302712523,-0.04479356893047078,0.472,15,90.0,-90.0,0.0735458946523328,0.11687310769130346,0.2747897279711656,-0.027877172391836586,0.0010073259441488373,1.3237599948862113,-0.14551400121788124
0.15000000000000008,-0.1,0.3,0.24142304845413268,-0.018349364905388993,0.4720000000000001,30,90.0,-90.0,0.07028099122218234,0.04585660023331578,0.33559650178785877,-0.10501201680242568,0.001037788691599722,1.3397464735557403,-0.4784861917173995
0.15000000000000008,-0.1,0.3,0.21717514421272205,0.002530483272049411,0.472,45,90.0,-90.0,0.06449011471283626,-0.005827664927254456,0.43145727283472063,-0.23192583035494851,-0.00017720090907358754,1.3702115912260997,-0.7903815360587009
0.15000000000000008,-0.1,0.3,0.18834936490538912,0.016423048454132644,0.472,60,90.0,-90.0,0.05560283084134064,-0.03627528083389662,0.5577249889696938,-0.4105233068726775,0.00019230598951459465,1.4227807420755583,-1.083079878986477
0.15000000000000008,-0.1,0.3,0.1569101397550758,0.022381575282251223,0.4720000000000001,75,90.0,-90.0,0.042243687140507524,-0.04613186527662887,0.7185554086848401,-0.6550620077545848,-0.001044362804697805,1.506532690270445,-1.3543728981892196
0.15000000000000008,-0.1,0.3,0.12500000000000006,0.02000000000000003,0.4720000000000001,90,90.0,-90.0,0.01747488350271385,-0.03874615468919375,0.9654947635489177,-1.0674096022271387,-0.0009926501546042507,1.6731169730064848,-1.60905606094857
0.15000000000000008,-0.15000000000000002,0.3,0.2052064310695293,-0.25944062302712523,0.4720000000000001,-75,90.0,-90.0,0.02720428761356069,0.5380750659169539,0.8727993251082631,-0.9077930937980622,0.0001356606891560686,1.6048830672475396,1.8467194284401396
0.15000000000000008,-0.15000000000000002,0.3,0.2316506350946111,-0.24142304845413262,0.472,-60,90.0,-90.0,0.04647331689876932,0.533832730197337,0.6679360689205164,-0.5760972786459377,0.00021517414472271596,1.4786134754281182,1.5800259766372788
0.15000000000000008,-0.15000000000000002,0.3,0.25253048327204947,-0.21717514421272202,0.472,-45,90.0,-90.0,0.0579312350747771,0.5106985845872136,0.5226899730336861,-0.3596082778983384,0.0010756097619019412,1.407089881430708,1.2953186376180608
0.15000000000000008,-0.15000000000000002,0.3,0.2664230484541327,-0.18834936490538903,0.4720000000000001,-30,90.0,-90.0,0.0653403573950725,0.46702497264846454,0.4128286186693555,-0.20670008659289274,-0.00023159966814032296,1.3637997794158254,0.9901389138415285
0.15000000000000008,-0.15000000000000002,0.3,0.27238157528225126,-0.15691013975507578,0.472,-15,90.0,-90.0,0.06975682335134657,0.4034343508822412,0.33831953447315477,-0.10819247114552344,0.00023167092762345863,1.3395381253988832,0.6643601433890026
0.15000000000000008,-0.15000000000000002,0.3,0.2700000000000001,-0.12499999999999999,0.4720000000000001,0,90.0,-90.0,0.07169376736904429,0.32595474620077836,0.3026996608055346,-0.06276414753924825,-0.0007458372669253236,1.330078763595058,0.3260136733159585
0.15000000000000008,-0.15000000000000002,0.3,0.25944062302712523,-0.0947935689304708,0.472,15,90.0,-90.0,0.07136421073198725,0.243803397347555,0.3087745503436467,-0.07064014424993947,0.0010425341386009934,1.3317255094639067,-0.01734149992700514
0.15000000000000008,-0.15000000000000002,0.3,0.24142304845413268,-0.06834936490538901,0.4720000000000001,30,90.0,-90.0,0.06871261105116458,0.16981243254463577,0.35673713686364006,-0.13213051867693182,0.00029455704156670345,1.345379417583011,-0.3529989343996569
0.15000000000000008,-0.15000000000000002,0.3,0.21717514421272205,-0.047469516727950606,0.472,45,90.0,-90.0,0.06345764761957431,0.1115396593601445,0.4424816700702697,-0.24693863075137332,0.0003506115793166788,1.3753484122513069,-0.6742800881756531
0.15000000000000008,-0.15000000000000002,0.3,0.18834936490538912,-0.03357695154586737,0.472,60,90.0,-90.0,0.055042461338557155,0.07422494148547693,0.5616289533417478,-0.41612125419185625,0.00016836957719624048,1.4239986446893833,-0.9722088996264769
0.15000000000000008,-0.15000000000000002,0.3,0.1569101397550758,-0.027618424717748793,0.4720000000000001,75,90.0,-90.0,0.04195508170547643,0.05718483727448942,0.7195495334076056,-0.6568161735661663,-0.0004070606941386155,1.5073266264119773,-1.251937210571662
0.15000000000000008,-0.15000000000000002,0.3,0.12500000000000006,-0.029999999999999985,0.4720000000000001,90,90.0,-90.0,0.01677341466914667,0.05798864451526234,0.9713306370552599,-1.0774717729753798,0.00036546884024491974,1.6762107934580954,-1.512881920218548
0.25000000000000006,-0.15000000000000002,0.2,0.2750000000000001,-0.27,0.3720000000000001,-90,90.0,-90.0,0.07043419882472271,0.6369732005006911,0.5969510831059457,-0.14369921422344115,0.0005459875331236116,1.1170537502559663,2.208029374705131
0.25000000000000006,-0.15000000000000002,0.2,0.30520643106952927,-0.25944062302712523,0.3720000000000001,-75,90.0,-90.0,0.07799958190584676,0.6593530320295444,0.48297549275192225,0.022728768236902782,-0.000876745089098832,1.0648269126482603,1.9697263195401677
0.25000000000000006,-0.15000000000000002,0.2,0.33165063509461107,-0.24142304845413262,0.372,-60,90.0,-90.0,0.08437657724056417,0.6639466999962366,0.36946759272220564,0.17920883231895515,0.0012530296209257146,1.0225587168042036,1.7098596618490907
0.25000000000000006,-0.15000000000000002,0.2,0.35253048327204944,-0.21717514421272202,0.372,-45,90.0,-90.0,0.08947083085960666,0.646855771075878,0.2596286990444393,0.32055709234267465,0.0010761651546865154,0.9911355583241203,1.4307407167809774
0.25000000000000006,-0.15000000000000002,0.2,0.3664230484541327,-0.18834936490538903,0.3720000000000001,-30,90.0,-90.0,0.09313877971421107,0.6032949911854251,0.16118286878946828,0.437917892584225,-0.0015591227911507328,0.9720768104989989,1.1275367939317928
0.25000000000000006,-0.15000000000000002,0.2,0.37238157528225124,-0.15691013975507578,0.372,-15,90.0,-90.0,0.09545848426749337,0.5300226016042485,0.0827131303011629,0.5253490355206011,0.0008292192692366413,0.9624894716088466,0.7920196426981159
0.25000000000000006,-0.15000000000000002,0.2,0.37000000000000005,-0.12499999999999999,0.3720000000000001,0,90.0,-90.0,0.09656334344340174,0.4334143037292833,0.03697621419698543,0.5738209444883523,0.0004553288616027157,0.9587254959126615,0.43282440392812827
0.25000000000000006,-0.15000000000000002,0.2,0.3594406230271252,-0.0947935689304708,0.372,15,90.0,-90.0,0.09668084477960898,0.3257238848769079,0.03181057159324537,0.5791357618473093,0.00035012250086885997,0.9591563030423667,0.06301017056826197
0.25000000000000006,-0.15000000000000002,0.2,0.3414230484541326,-0.06834936490538901,0.3720000000000001,30,90.0,-90.0,0.09580832938757229,0.22459845174063003,0.06903036004668242,0.5399824087321856,0.001177179655323644,0.9617278447914556,-0.3002161899793345
0.25000000000000006,-0.15000000000000002,0.2,0.317175144212722,-0.047469516727950606,0.372,45,90.0,-90.0,0.09381744085500368,0.1457271244479159,0.13989829046050725,0.46204339569516634,0.0010610835229788859,0.9683884595717512,-0.6401286733212446
0.25000000000000006,-0.15000000000000002,0.2,0.2883493649053891,-0.03357695154586737,0.372,60,90.0,-90.0,0.09046494906188884,0.09515285488232006,0.23508419529277114,0.35067320432669,-0.0007204570719514414,0.9849385601276972,-0.9520510866208332
0.25000000000000006,-0.15000000000000002,0.2,0.2569101397550758,-0.027618424717748793,0.3720000000000001,75,90.0,-90.0,0.08571116021315808,0.0719184760466491,0.34262562055476603,0.21452727868965304,-0.0012468000105805672,1.0133728792381425,-1.235483362072669
0.25000000000000006,-0.15000000000000002,0.2,0.22500000000000003,-0.029999999999999985,0.3720000000000001,90,90.0,-90.0,0.07963760230706937,0.07197856537814891,0.45563039752223156,0.06130810097294188,0.0008465094231209703,1.0528523593145551,-1.4993872080359012
0.25000000000000006,0.1,0.2,0.2750000000000001,-0.020000000000000004,0.3720000000000001,-90,90.0,-90.0,0.08912500926637344,0.054539211865725384,0.2781457066092491,0.29747177211286613,0.0002720905880927979,0.9960906501158805,1.6242772922813988
0.25000000000000006,0.1,0.2,0.30520643106952927,-0.009440623027125186,0.3720000000000001,-75,90.0,-90.0,0.09328331402977211,0.028475280179454242,0.17094501680977248,0.4267885079641896,-0.0012602909558286851,0.9736898654767732,1.3372408523643216
0.25000000000000006,0.1,0.2,0.33165063509461107,0.008576951545867406,0.372,-60,90.0,-90.0,0.09608842621104347,-0.027862678973413414,0.0769419758390035,0.5315676241997362,3.188038714816414e-05,0.9634652918813853,1.018778870406494
0.25000000000000006,0.1,0.2,0.35253048327204944,0.03282485578727801,0.372,-45,90.0,-90.0,0.09762300683959324,-0.1137394403501885,0.007013091220048032,0.6042261270311504,0.0011440908604142975,0.9591674927526312,0.6708896583587874
0.25000000000000006,0.1,0.2,0.3664230484541327,0.061650635094610995,0.3720000000000001,-30,90.0,-90.0,0.09746188757217875,-0.2217127313521574,-0.02629390376695118,0.6371463170514976,0.0007930179119215454,0.9593175771767204,0.30073534388277184
0.25000000000000006,0.1,0.2,0.37238157528225124,0.09308986024492424,0.372,-15,90.0,-90.0,0.09798454876536115,-0.335101840974747,-0.015298171112809717,0.6266393521321416,0.0005095904590188384,0.9599471947128688,-0.07405410325780683
0.25000000000000006,0.1,0.2,0.37000000000000005,0.12500000000000003,0.3720000000000001,0,90.0,-90.0,0.09703085749986058,-0.4333304421291978,0.036746971262788974,0.5737423020430026,-0.0006685535249335276,0.9603423054363072,-0.4322292837057666
0.25000000000000006,0.1,0.2,0.3594406230271252,0.15520643106952922,0.372,15,90.0,-90.0,0.0949062287913925,-0.5052248130097156,0.119859053520989,0.484717287893951,0.0009174677601423039,0.9657480282730226,-0.7675194919604854
0.25000000000000006,0.1,0.2,0.3414230484541326,0.18165063509461102,0.3720000000000001,30,90.0,-90.0,0.09141852380076487,-0.5464156836407736,0.2219885098820474,0.36607589288116515,-0.00043627619900485685,0.9837898591774661,-1.0705226986992176
0.25000000000000006,0.1,0.2,0.317175144212722,0.20253048327204942,0.372,45,90.0,-90.0,0.08662077704046382,-0.5603875470447426,0.332393144246476,0.22789012787237112,-0.0004309978584667321,1.010034445968563,-1.344636931345557
0.25000000000000006,0.1,0.2,0.2883493649053891,0.21642304845413265,0.372,60,90.0,-90.0,0.08063694994142112,-0.5519955675713668,0.4452994007388246,0.07608263480940722,0.0010440217363629142,1.050391388561619,-1.6004861760403746
0.25000000000000006,0.1,0.2,0.2569101397550758,0.22238157528225122,0.3720000000000001,75,90.0,-90.0,0.0736929482432437,-0.526035430917209,0.5546740515458094,-0.08104687514731923,0.00012503755111132502,1.0962813779432767,-1.834454963722134
0.25000000000000006,0.1,0.2,0.22500000000000003,0.22000000000000003,0.3720000000000001,90,90.0,-90.0,0.06606254901144946,-0.48741459209889504,0.6593767064204414,-0.2390438570943887,-0.0007877706161997849,1.1501480325585194,-2.057371920092983
0.4,0.0,0.25,0.42500000000000004,-0.12000000000000001,0.42200000000000004,-90,90.0,-90.0,0.09292467332728355,0.5093027679498243,-0.2161791739813381,0.6380038126632029,-0.000559369725600946,1.1497574647664281,2.0794368376778065
0.4,0.0,0.25,0.45520643106952924,-0.10944062302712519,0.42200000000000004,-75,90.0,-90.0,0.08104978013572155,0.5349827987002213,-0.34451792998558617,0.7345230993876506,-0.0009412621054052638,1.1809232213441583,1.8452512150711975
0.4,0.0,0.25,0.48165063509461103,-0.0914230484541326,0.422,-60,90.0,-90.0,0.06889909328764618,0.5243318463882755,-0.48221278962332137,0.8236323927727747,-0.0010579048832083634,1.2284962866607552,1.5712061620698003
0.4,0.0,0.25,0.5025304832720494,-0.067175144212722,0.42200000000000004,-45,90.0,-90.0,0.057474865790719504,0.45440435781509475,-0.6185270676399836,0.8979577723833287,0.00013971252844500266,1.2906852344829478,1.2406151227045266
0.4,0.0,0.25,0.5164230484541327,-0.03834936490538901,0.42200000000000004,-30,90.0,-90.0,0.048267203239860376,0.30112749277359235,-0.7330469128000286,0.9502178648173699,2.686983451862489e-07,1.353464857738119,0.8255304460539779
0.4,0.0,0.25,0.52,0.025000000000000033,0.42200000000000004,0,90.0,-90.0,0.045625161757083754,-0.20495801009247,-0.7664509047508629,0.9637446245792591,-0.0007135588740942891,1.373288439374196,-0.20406432359362825
0.4,0.0,0.25,0.5094406230271252,0.05520643106952922,0.42200000000000004,15,90.0,-90.0,0.05315168344756844,-0.3997822747796013,-0.6719238952217942,0.923520051546249,-0.0005980916740573819,1.3199673650537034,-0.6620073820343213
0.4,0.0,0.25,0.49142304845413265,0.08165063509461101,0.42200000000000004,30,90.0,-90.0,0.06380183188824476,-0.5025707209749444,-0.5422056096395185,0.8582748019981847,-0.0008379667103849294,1.2541692210681425,-1.0264281112685372
0.4,0.0,0.25,0.467175144212722,0.10253048327204942,0.42200000000000004,45,90.0,-90.0,0.07582452318801992,-0.534821292591767,-0.4027586628029224,0.7741927188184651,-0.0007771425397827366,1.1994513140901948,-1.3190470074908571
0.4,0.0,0.25,0.43834936490538906,0.11642304845413265,0.422,60,90.0,-90.0,0.0878890717928561,-0.5239030685400123,-0.2700169902218808,0.6801248959940148,0.0003971296050147694,1.1616290475476296,-1.571052897838992
0.4,0.0,0.25,0.4069101397550758,0.12238157528225123,0.42200000000000004,75,90.0,-90.0,0.09923576892991408,-0.48309579411271003,-0.14984811520067584,0.5819940106704576,-0.0003713783973512758,1.138479664810292,-1.7913590582209926
0.4,0.0,0.25,0.375,0.12000000000000004,0.42200000000000004,90,90.0,-90.0,0.09999432987670641,-0.4251047173080265,-0.04486950788448334,0.4860965978349529,-0.0005178231529599695,1.1291441811465113,-1.9958205745239903
0.30000000000000004,0.10000000000000002,0.2,0.32500000000000007,-0.01999999999999999,0.3720000000000001,-90,90.0,-90.0,0.09685911879893115,0.06318141218304639,0.10222037687883741,0.5042033221120229,0.00044447748435405294,0.9634243267923638,1.633631374136152
0.30000000000000004,0.10000000000000002,0.2,0.35520643106952926,-0.009440623027125172,0.3720000000000001,-75,90.0,-90.0,0.09928832276149416,0.033266251022128726,-0.009654474472789642,0.6209036857189355,0.0008330458165565373,0.9587267147578918,1.3413224199493687
0.30000000000000004,0.10000000000000002,0.2,0.38165063509461106,0.00857695154586742,0.372,-60,90.0,-90.0,0.0919088686376108,-0.03330306964555213,-0.109956641473556,0.7158913168147202,7.557079758442066e-05,0.9643559106625553,1.0138176932189678
0.30000000000000004,0.10000000000000002,0.2,0.40253048327204943,0.03282485578727802,0.372,-45,90.0,-90.0,0.08498963617159376,-0.13740145407037976,-0.18436842306598858,0.7797350718056841,-0.000770923036061728,0.9756610004170461,0.6479004009992746
0.30000000000000004,0.10000000000000002,0.2,0.4164230484541327,0.06165063509461101,0.3720000000000001,-30,90.0,-90.0,0.08203701641875255,-0.26904897930132426,-0.21642425151252342,0.805994555341266,-0.0011379607609898115,0.9811470800160852,0.2556198115240968
0.30000000000000004,0.10000000000000002,0.2,0.4223815752822513,0.09308986024492427,0.372,-15,90.0,-90.0,0.0837778497230386,-0.4047803700788483,-0.19708716040573585,0.7905232353962485,0.0012233027751093154,0.9766885079800639,-0.14458550620902402
0.30000000000000004,0.10000000000000002,0.2,0.42000000000000004,0.12500000000000006,0.3720000000000001,0,90.0,-90.0,0.090005978986868,-0.5169483818945837,-0.13091237839480369,0.7341340373333772,-0.00017347588341606933,0.9685192071554555,-0.5176187908128572
0.30000000000000004,0.10000000000000002,0.2,0.40944062302712525,0.15520643106952925,0.372,15,90.0,-90.0,0.09883400460938677,-0.5924397993325744,-0.03571541035874854,0.6464460468137031,0.00039588402003729365,0.9592347043911955,-0.8547802780497633
0.30000000000000004,0.10000000000000002,0.2,0.39142304845413267,0.18165063509461105,0.3720000000000001,30,90.0,-90.0,0.09762467669972061,-0.6310545937860017,0.07400690970681284,0.5346614414049748,-0.0004630568692184834,0.9614197103556503,-1.1550849030165136
0.30000000000000004,0.10000000000000002,0.2,0.367175144212722,0.20253048327204942,0.372,45,90.0,-90.0,0.09407806331888438,-0.6384713338633575,0.18764205804232956,0.4069301232018325,-0.0005317701466029871,0.9758509645607025,-1.4231848436266368
0.30000000000000004,0.10000000000000002,0.2,0.3383493649053891,0.21642304845413268,0.372,60,90.0,-90.0,0.08954612673811096,-0.6224270487211024,0.2975049007801847,0.27270131157197786,0.0008730307912010704,1.00017114026228,-1.670939821513658
0.30000000000000004,0.10000000000000002,0.2,0.3069101397550758,0.22238157528225125,0.3720000000000001,75,90.0,-90.0,0.08427897277424123,-0.5885451898645028,0.40092726395471245,0.1366844313816091,-0.0008780899092832927,1.0339726493330237,-1.8966870850393627
0.30000000000000004,0.10000000000000002,0.2,0.275,0.22000000000000006,0.3720000000000001,90,90.0,-90.0,0.0788167736822129,-0.5424350115310825,0.4927044976874559,0.00900383988829117,0.000499715529457451,1.069848241870889,-2.11252944123713
0.20000000000000007,-0.05,0.3,0.2250000000000001,-0.17,0.4720000000000001,-90,90.0,-90.0,0.05798841501897355,0.3887815453916058,0.5421182666959622,-0.387962045054966,-4.289905683438003e-05,1.4164721095042958,1.958948358437059
0.20000000000000007,-0.05,0.3,0.2552064310695293,-0.1594406230271252,0.4720000000000001,-75,90.0,-90.0,0.0676697680812747,0.3931532430279205,0.405589626779936,-0.19675632115408923,-0.0008853795960640828,1.361847055400052,1.702877754280313
0.20000000000000007,-0.05,0.3,0.2816506350946111,-0.14142304845413262,0.472,-60,90.0,-90.0,0.07495469726980153,0.3761264157225821,0.28233148623036647,-0.03748342582573419,-0.00022528125966717668,1.325107589499335,1.4237880981111202
0.20000000000000007,-0.05,0.3,0.30253048327204946,-0.117175144212722,0.472,-45,90.0,-90.0,0.08015603276153235,0.33431335658263645,0.17666514145201198,0.08903394228407845,-0.0002895484767838155,1.3041657276411507,1.1205607831362148
0.20000000000000007,-0.05,0.3,0.3164230484541327,-0.08834936490538901,0.4720000000000001,-30,90.0,-90.0,0.08351050825756345,0.26645866008794067,0.09600352767495682,0.17954819144241901,0.0004470837804586952,1.295746041012176,0.7908590730446463
0.20000000000000007,-0.05,0.3,0.3223815752822513,-0.05691013975507576,0.472,-15,90.0,-90.0,0.08524125995648085,0.17718888647721254,0.047978057192912024,0.23056686096872744,7.47616619892526e-05,1.29127772034698,0.4382216011498631
0.20000000000000007,-0.05,0.3,0.32000000000000006,-0.02499999999999997,0.4720000000000001,0,90.0,-90.0,0.0854273880482924,0.07819247347730272,0.0422966964649669,0.23634842750554635,-0.00044033471107871643,1.2919859488776806,0.0791241333582124
0.20000000000000007,-0.05,0.3,0.30944062302712527,0.00520643106952922,0.472,15,90.0,-90.0,0.08418564290219387,-0.016010340111229114,0.07771014090410612,0.1991608107677229,0.00023586691850875402,1.2929926031793444,-0.2777779116472783
0.20000000000000007,-0.05,0.3,0.2914230484541327,0.03165063509461101,0.4720000000000001,30,90.0,-90.0,0.08134938033233771,-0.0907423462092114,0.14945740338800856,0.12028590711848358,-0.0002957196716514335,1.3001262384495225,-0.6135383595319189
0.20000000000000007,-0.05,0.3,0.26717514421272204,0.052530483272049414,0.472,45,90.0,-90.0,0.07669064585185122,-0.13955356533128305,0.24906384329269554,0.003293008503406065,-0.0012717339160057124,1.3183787890146301,-0.924234184463266
0.20000000000000007,-0.05,0.3,0.2383493649053891,0.06642304845413265,0.472,60,90.0,-90.0,0.07003484011993011,-0.1639674504526748,0.36798848752132285,-0.1467713629224023,0.0011709954042272023,1.3498259316658567,-1.210502420105976
0.20000000000000007,-0.05,0.3,0.2069101397550758,0.07238157528225123,0.4720000000000001,75,90.0,-90.0,0.06114746589081854,-0.16569744692924662,0.5003527154000315,-0.32753773998273805,0.00020576355254204454,1.3974683043291984,-1.4753621798414212
0.20000000000000007,-0.05,0.3,0.17500000000000004,0.07000000000000003,0.4720000000000001,90,90.0,-90.0,0.04944853792724612,-0.14934761422877552,0.6471049687588848,-0.5442342168176136,-0.0003433621644960118,1.4687121890512396,-1.720374051812797
0.25000000000000006,0.0,0.10000000000000002,0.2750000000000001,-0.12000000000000001,0.2720000000000001,-90,90.0,-90.0,0.08989124000303134,0.31752884275681553,0.5134113282828768,0.3384635271936819,0.001459903996191993,0.718704480281736,1.8873135831252914
0.25000000000000006,0.0,0.10000000000000002,0.30520643106952927,-0.10944062302712519,0.2720000000000001,-75,90.0,-90.0,0.09446558227959874,0.3160983997956482,0.4171293182966242,0.48173369145849815,-0.0015801569598640174,0.671064055639716,1.6254521152334898
0.25000000000000006,0.0,0.10000000000000002,0.33165063509461107,-0.0914230484541326,0.272,-60,90.0,-90.0,0.09774735834634275,0.28794932328626616,0.3258084322650475,0.6110316583777821,0.0013558042793095399,0.63448362939002,1.3332905821885508
0.25000000000000006,0.0,0.10000000000000002,0.35253048327204944,-0.067175144212722,0.272,-45,90.0,-90.0,0.09718831422409951,0.2293558746441213,0.244440526836661,0.7187159801358952,0.0015852195295166407,0.6076879471026588,1.013289458510188
0.25000000000000006,0.0,0.10000000000000002,0.3664230484541327,-0.03834936490538901,0.2720000000000001,-30,90.0,-90.0,0.09118606057014164,0.13912096088597872,0.18438824221175826,0.7942243162216487,0.00019840540049471456,0.590854465567974,0.6630139257413866
0.25000000000000006,0.0,0.10000000000000002,0.37238157528225124,-0.0069101397550757546,0.272,-15,90.0,-90.0,0.08850741251991745,0.025824780160610666,0.1565549188414123,0.8272582960890813,0.0014188228194849787,0.5862972314017028,0.2857290222211037
0.25000000000000006,0.0,0.10000000000000002,0.37000000000000005,0.025000000000000033,0.2720000000000001,0,90.0,-90.0,0.08971755749503905,-0.09229789455232948,0.16827395560406005,0.8136858792743862,-0.0009850923932589947,0.5889443880655035,-0.0923433465444052
0.25000000000000006,0.0,0.10000000000000002,0.3594406230271252,0.05520643106952922,0.272,15,90.0,-90.0,0.09449392224181678,-0.1945412791481819,0.2151394921343109,0.7556649423100575,0.0014612863253412043,0.6005598778802085,-0.4581826681262519
0.25000000000000006,0.0,0.10000000000000002,0.3414230484541326,0.08165063509461101,0.2720000000000001,30,90.0,-90.0,0.09852873864786915,-0.266756076764083,0.28847932141462146,0.6613409378174739,-0.0015343831030250367,0.6206865976939737,-0.789303411420963
0.25000000000000006,0.0,0.10000000000000002,0.317175144212722,0.10253048327204942,0.272,45,90.0,-90.0,0.09606564962228252,-0.30751265725680704,0.37680641116166685,0.5397211889384617,-0.0017155469394594673,0.654406147851553,-1.092006366178851
0.25000000000000006,0.0,0.10000000000000002,0.2883493649053891,0.11642304845413265,0.272,60,90.0,-90.0,0.0919923092136612,-0.3194443742340879,0.4717665787430058,0.4014878034138244,-0.0016031027004261632,0.697224056022685,-1.3663647857004702
0.25000000000000006,0.0,0.10000000000000002,0.2569101397550758,0.12238157528225123,0.2720000000000001,75,90.0,-90.0,0.08687944945011634,-0.3089881347069782,0.568138405320569,0.2541146659714579,-0.0007157153907187302,0.7477312718334375,-1.6176923760127735
0.25000000000000006,0.0,0.10000000000000002,0.22500000000000003,0.12000000000000004,0.2720000000000001,90,90.0,-90.0,0.08103711716765331,-0.2814573028966126,0.6616267176048062,0.10462857169839819,0.000480770078616524,0.804835604157682,-1.851828666305005
0.30000000000000004,-0.05,0.2,0.32500000000000007,-0.17,0.3720000000000001,-90,90.0,-90.0,0.09186747895669944,0.4948986512993568,0.2512507333983903,0.33055479208221544,0.0005473729610886352,0.989290092590761,2.0649356983510745
0.30000000000000004,-0.05,0.2,0.35520643106952926,-0.1594406230271252,0.3720000000000001,-75,90.0,-90.0,0.09599738138483221,0.5105102369529049,0.14096118324797757,0.46116049682495946,-0.00041174021164390624,0.9690817970462945,1.8188621307688564
0.30000000000000004,-0.05,0.2,0.38165063509461106,-0.14142304845413262,0.372,-60,90.0,-90.0,0.09903617209267654,0.5005227202404802,0.02567632289139058,0.585312352265919,0.001037498766080678,0.959779056095352,1.54813155805164
0.30000000000000004,-0.05,0.2,0.40253048327204943,-0.117175144212722,0.372,-45,90.0,-90.0,0.09471547894879626,0.45851952603662216,-0.0858539080345904,0.6938527672251978,0.0003117718877053362,0.9623447014050946,1.2428539869402953
0.30000000000000004,-0.05,0.2,0.4164230484541327,-0.08834936490538901,0.3720000000000001,-30,90.0,-90.0,0.08578350559094913,0.3763898129463775,-0.18158538036869762,0.7775522650516512,-0.0007364899599220108,0.9753513767943807,0.9002360040324403
0.30000000000000004,-0.05,0.2,0.4223815752822513,-0.05691013975507576,0.372,-15,90.0,-90.0,0.07993273453444942,0.2553310894300962,-0.24576105653765568,0.8289023743484836,0.0009613258971572691,0.9871656165601358,0.5156724508481019
0.30000000000000004,-0.05,0.2,0.42000000000000004,-0.02499999999999997,0.3720000000000001,0,90.0,-90.0,0.07856401749777472,0.11316539548294864,-0.2609900912326918,0.8406335142128945,0.00041682808635039277,0.9901594529698718,0.11313326156654437
0.30000000000000004,-0.05,0.2,0.40944062302712525,0.00520643106952922,0.372,15,90.0,-90.0,0.08203934362330538,-0.022670891173682203,-0.22201525791127852,0.8106624510450811,-0.00015722491466588727,0.9813842600124973,-0.2840329712593483
0.30000000000000004,-0.05,0.2,0.39142304845413267,0.03165063509461101,0.3720000000000001,30,90.0,-90.0,0.08957978392788275,-0.1267601396359866,-0.14094529350293689,0.7426845517083803,0.00084633268114112,0.9696573145861807,-0.6516581039887671
0.30000000000000004,-0.05,0.2,0.367175144212722,0.052530483272049414,0.372,45,90.0,-90.0,0.09928687442497723,-0.1900568645794512,-0.03598651273020179,0.6469022282480806,2.083299486527277e-05,0.9599071927069767,-0.9750933602683765
0.30000000000000004,-0.05,0.2,0.3383493649053891,0.06642304845413265,0.372,60,90.0,-90.0,0.09781988799779208,-0.21625484947733623,0.07824171661534032,0.530106889266947,-0.0010678084837681102,0.9628103465010723,-1.262155261863097
0.30000000000000004,-0.05,0.2,0.3069101397550758,0.07238157528225123,0.3720000000000001,75,90.0,-90.0,0.09422020531258375,-0.2139199912009433,0.19183917377091148,0.40211003776680393,-0.0005204897591679961,0.9769623960746147,-1.5216463299299927
0.30000000000000004,-0.05,0.2,0.275,0.07000000000000003,0.3720000000000001,90,90.0,-90.0,0.08974650907916258,-0.1892330978735224,0.2988862239161817,0.2710556728909085,-0.0008584791658461043,1.0004312249409772,-1.7588711360361213
0.20000000000000007,-0.15000000000000002,0.25,0.2250000000000001,-0.27,0.42200000000000004,-90,90.0,-90.0,0.04860366716691824,0.576830881773736,0.755116429723087,-0.5512343820229856,0.00041894964702497576,1.3658782428904805,2.147099529414283
0.20000000000000007,-0.15000000000000002,0.25,0.2552064310695293,-0.25944062302712523,0.42200000000000004,-75,90.0,-90.0,0.06071516209739398,0.5932002414568616,0.6093921852531973,-0.32540079023503454,-0.0010348921023873201,1.2861939373604792,1.9027770802101953
0.20000000000000007,-0.15000000000000002,0.25,0.2816506350946111,-0.24142304845413262,0.422,-60,90.0,-90.0,0.07005550090173367,0.5926555946121763,0.47733203027969545,-0.13370016385442315,0.000785440070517667,1.2263654200658725,1.6388867514046808
0.20000000000000007,-0.15000000000000002,0.25,0.30253048327204946,-0.21717514421272202,0.42200000000000004,-45,90.0,-90.0,0.07703457245053458,0.5716113162037337,0.36034699776509876,0.02507439113534088,0.0007929835986830938,1.185200854659774,1.3557597318722068
0.20000000000000007,-0.15000000000000002,0.25,0.3164230484541327,-0.18834936490538903,0.42200000000000004,-30,90.0,-90.0,0.08204703457606691,0.5274985771161073,0.2607377631577647,0.15167767179271358,-0.001000371548886372,1.158150274206642,1.0513145795209535
0.20000000000000007,-0.15000000000000002,0.25,0.3223815752822513,-0.15691013975507578,0.42200000000000004,-15,90.0,-90.0,0.08516989203043268,0.458890744967724,0.18790640138936063,0.23900939465894566,-0.00036334253282639494,1.1444936200270306,0.7218229027474832
0.20000000000000007,-0.15000000000000002,0.25,0.32000000000000006,-0.12499999999999999,0.42200000000000004,0,90.0,-90.0,0.08666182499039249,0.3721454906642629,0.14845222619972953,0.2840218648441085,0.0011225130882484974,1.138439118607705,0.37069249545041644
0.20000000000000007,-0.15000000000000002,0.25,0.30944062302712527,-0.0947935689304708,0.42200000000000004,15,90.0,-90.0,0.08660256569491545,0.27927452949,0.1499965761827202,0.28227149150020975,0.0006028673343470369,1.1386001126543672,0.01822105606959106
0.20000000000000007,-0.15000000000000002,0.25,0.2914230484541327,-0.06834936490538901,0.42200000000000004,30,90.0,-90.0,0.08504613520334918,0.19345508768621783,0.190613426860565,0.23553463953134668,-0.00021645626773021784,1.143616761896083,-0.32956072399973196
0.20000000000000007,-0.15000000000000002,0.25,0.26717514421272204,-0.047469516727950606,0.42200000000000004,45,90.0,-90.0,0.0817949400750812,0.12663747120767543,0.2659556182589103,0.14517201152706263,-0.00026234242090569977,1.1585924297540453,-0.6581086179616633
0.20000000000000007,-0.15000000000000002,0.25,0.2383493649053891,-0.03357695154586737,0.422,60,90.0,-90.0,0.07669543679552902,0.08335391004749194,0.3665595548263113,0.01685621103917604,0.0005926535936813795,1.1864758900066639,-0.9640311588455732
0.20000000000000007,-0.15000000000000002,0.25,0.2069101397550758,-0.027618424717748793,0.42200000000000004,75,90.0,-90.0,0.06953332960895627,0.06361763219565034,0.485349075012079,-0.1450852135538189,0.0006652406444310436,1.231018709689713,-1.2447627408585926
0.20000000000000007,-0.15000000000000002,0.25,0.17500000000000004,-0.029999999999999985,0.42200000000000004,90,90.0,-90.0,0.06003381648748062,0.06438075633424031,0.6181758090371329,-0.33874735702131725,0.0002754717855983855,1.2918545040230813,-1.5070532683485756
0.30000000000000004,0.05,0.3,0.32500000000000007,-0.07,0.4720000000000001,-90,90.0,-90.0,0.0888175742158646,0.21890132451434025,0.048264573625442446,0.22994034474071612,-0.0006073943997625267,1.2921960172442168,1.7888901584531194
0.30000000000000004,0.05,0.3,0.35520643106952926,-0.05944062302712519,0.4720000000000001,-75,90.0,-90.0,0.09283913337928172,0.2057633473144306,-0.06948376520965092,0.34689868802782453,0.00013250075800354396,1.2925030002861215,1.513758534101362
0.30000000000000004,0.05,0.3,0.38165063509461106,-0.0414230484541326,0.472,-60,90.0,-90.0,0.09563890025810814,0.1586875652305265,-0.17882047370537368,0.44415795031843613,0.00021560932124792102,1.3062919021762078,1.2067876396852069
0.30000000000000004,0.05,0.3,0.40253048327204943,-0.017175144212721996,0.472,-45,90.0,-90.0,0.087083370122575,0.07244543838652799,-0.26956846217071817,0.5173104312929909,-0.0008160498303810542,1.3229527323165386,0.8572438588060345
0.30000000000000004,0.05,0.3,0.4164230484541327,0.011650635094610992,0.4720000000000001,-30,90.0,-90.0,0.08145091125520106,-0.05185142844453057,-0.3247660812161775,0.5584232915666412,0.000427442137579964,1.3368415757433734,0.47232855792319106
0.30000000000000004,0.05,0.3,0.4223815752822513,0.04308986024492425,0.472,-15,90.0,-90.0,0.08069524754297348,-0.1954542754159217,-0.33226521773344336,0.564147596900885,0.00018728195740013896,1.3394601191969284,0.06702338020995438
0.30000000000000004,0.05,0.3,0.42000000000000004,0.07500000000000004,0.4720000000000001,0,90.0,-90.0,0.08482875834173415,-0.3282735752156533,-0.2914277906484843,0.533938022792712,-0.000742748659832192,1.3273892114114265,-0.32769172165055965
0.30000000000000004,0.05,0.3,0.40944062302712525,0.10520643106952923,0.472,15,90.0,-90.0,0.09311583688645361,-0.4284537196951604,-0.21080409271762549,0.471161005763961,0.0006806592974145401,1.3098273019498818,-0.6911877298753143
0.30000000000000004,0.05,0.3,0.39142304845413267,0.131650635094611,0.4720000000000001,30,90.0,-90.0,0.09384959362976675,-0.4870159925501725,-0.10516689954854519,0.3797942892900909,9.465160194602825e-05,1.2958054221269248,-1.0096956980516327
0.30000000000000004,0.05,0.3,0.367175144212722,0.15253048327204943,0.472,45,90.0,-90.0,0.09022243223788103,-0.5097018264248806,0.010763676144893906,0.26858596265895135,-0.0010544015849958443,1.2912817041791818,-1.2955403376860057
0.30000000000000004,0.05,0.3,0.3383493649053891,0.16642304845413264,0.472,60,90.0,-90.0,0.08545686938735342,-0.5044773440916609,0.12906620701211022,0.14308028603145082,0.0010220218968506852,1.2984663125962974,-1.5512240490228966
0.30000000000000004,0.05,0.3,0.3069101397550758,0.17238157528225123,0.4720000000000001,75,90.0,-90.0,0.07975971885711569,-0.47756170503410167,0.24402455170011383,0.009450495793468095,0.00018592699742171921,1.318081582917505,-1.7859487870474722
0.30000000000000004,0.05,0.3,0.275,0.17000000000000004,0.4720000000000001,90,90.0,-90.0,0.07351623398680009,-0.4355956074232824,0.35035675871890287,-0.12384959780141534,-0.00047378733039009585,1.344135333335976,-2.005311416025389
0.35000000000000003,0.15000000000000002,0.25,0.37500000000000006,0.030000000000000013,0.42200000000000004,-90,90.0,-90.0,0.09789693802040352,-0.11293919944125412,-0.1362759740768467,0.5705150565547292,-0.00015835257698939382,1.1366511099412204,1.456942086839073
0.35000000000000003,0.15000000000000002,0.25,0.40520643106952925,0.04055937697287483,0.42200000000000004,-75,90.0,-90.0,0.08701452381543985,-0.17048658078570558,-0.24815799500956326,0.6633595127603651,-0.0009294412239131387,1.1552833070141775,1.1386409858634188
0.35000000000000003,0.15000000000000002,0.25,0.43165063509461105,0.05857695154586742,0.422,-60,90.0,-90.0,0.07858393871907544,-0.27382113086660664,-0.3374337194436994,0.7298306825210036,-0.000637894338718698,1.177596378741604,0.7739385287329796
0.35000000000000003,0.15000000000000002,0.25,0.4525304832720494,0.08282485578727802,0.42200000000000004,-45,90.0,-90.0,0.07416500510801972,-0.4159042194311027,-0.3858227775050099,0.763039953653701,-0.0005094381493390412,1.1946531288960827,0.369388996321064
0.35000000000000003,0.15000000000000002,0.25,0.4664230484541327,0.11165063509461101,0.42200000000000004,-30,90.0,-90.0,0.07465368396999321,-0.5714211867742798,-0.3800738619047101,0.7589540316878839,-0.0007260924183263668,1.19097386011259,-0.04702148501377404
0.35000000000000003,0.15000000000000002,0.25,0.4723815752822512,0.14308986024492426,0.42200000000000004,-15,90.0,-90.0,0.08014842342192385,-0.7066865690416662,-0.3208104799733349,0.7177082003723886,0.0006024301332709223,1.173689504292756,-0.44419642486762867
0.35000000000000003,0.15000000000000002,0.25,0.47000000000000003,0.17500000000000004,0.42200000000000004,0,90.0,-90.0,0.08922609171433238,-0.8004744668289483,-0.22526150902491074,0.6450312479061063,0.0014153557807679601,1.1510284822267647,-0.8003729388874957
0.35000000000000003,0.15000000000000002,0.25,0.4594406230271252,0.20520643106952924,0.42200000000000004,15,90.0,-90.0,0.0989953848565186,-0.8487936352601487,-0.11102415289020541,0.5478904963031674,-0.0008218732210449552,1.1339714349479304,-1.1093194637231363
0.35000000000000003,0.15000000000000002,0.25,0.4414230484541326,0.23165063509461103,0.42200000000000004,30,90.0,-90.0,0.09608804647270533,-0.8622035238827656,0.007749490256912364,0.4345631083798477,0.0009234267362731038,1.1275508228451405,-1.3853524615650994
0.35000000000000003,0.15000000000000002,0.25,0.417175144212722,0.2525304832720494,0.42200000000000004,45,90.0,-90.0,0.09209695187497216,-0.8478571015785086,0.12403829960421346,0.31116514798922823,-0.00040361395893615047,1.135200783168868,-1.6339648737526618
0.35000000000000003,0.15000000000000002,0.25,0.38834936490538907,0.26642304845413267,0.422,60,90.0,-90.0,0.08740731889708313,-0.8139625900492211,0.23200596075750754,0.18645110229097955,-0.00022445032514408023,1.1514572151701445,-1.8602726763322177
0.35000000000000003,0.15000000000000002,0.25,0.3569101397550758,0.27238157528225126,0.42200000000000004,75,90.0,-90.0,0.08238138408429772,-0.7658934651308679,0.3287383716419685,0.06599758380133527,-0.0005016727780673138,1.1756573589755355,-2.0738856021738417
0.35000000000000003,0.15000000000000002,0.25,0.325,0.2700000000000001,0.42200000000000004,90,90.0,-90.0,0.07745386992111238,-0.7088662951172873,0.4112958768687952,-0.04302165440931733,0.0008465422305926892,1.2019202392076047,-2.2807629039194084
0.10000000000000007,-0.05,0.25,0.1250000000000001,-0.17,0.42200000000000004,-90,90.0,-90.0,0.005137567405263153,0.3189573994093535,1.254528480988038,-1.4244145548281506,-0.0005755574307931642,1.7412149283116807,1.8889953149990562
0.10000000000000007,-0.05,0.25,0.15520643106952928,-0.1594406230271252,0.42200000000000004,-75,90.0,-90.0,0.0395056824990267,0.31763198345673715,0.8416408358665591,-0.6919551790465116,0.0005306513676396633,1.4219790788559894,1.6274290983358548
0.10000000000000007,-0.05,0.25,0.18165063509461107,-0.14142304845413262,0.422,-60,90.0,-90.0,0.053588231702715275,0.299547654007987,0.6800364382048667,-0.43309870815768725,-0.0011793910747408109,1.32441807070948,1.3474861310490873
0.10000000000000007,-0.05,0.25,0.20253048327204948,-0.117175144212722,0.42200000000000004,-45,90.0,-90.0,0.062479307595519076,0.261904348548578,0.5614304746381149,-0.2543163543609452,-0.0004000036726963625,1.2628937078046687,1.046924668937317
0.10000000000000007,-0.05,0.25,0.21642304845413274,-0.08834936490538901,0.42200000000000004,-30,90.0,-90.0,0.06782374543652278,0.2056565329470121,0.48060603237892036,-0.13827959238965584,0.0002896253283620597,1.228915149604922,0.7281739225025048
0.10000000000000007,-0.05,0.25,0.22238157528225128,-0.05691013975507576,0.42200000000000004,-15,90.0,-90.0,0.07048898914531297,0.13571349044970088,0.43673557570789984,-0.07725019105099297,-0.0009372067436424116,1.2114720466408848,0.39764718521451803
0.10000000000000007,-0.05,0.25,0.22000000000000008,-0.02499999999999997,0.42200000000000004,0,90.0,-90.0,0.07065587770121208,0.0595107013787889,0.4334673832786913,-0.07327224124524968,-0.0004827482975190097,1.209738372860705,0.06064595459718
0.10000000000000007,-0.05,0.25,0.20944062302712524,0.00520643106952922,0.42200000000000004,15,90.0,-90.0,0.06838086002774767,-0.012293881446454635,0.4717522463531773,-0.1257540730602741,0.0005705629007247921,1.2240103560419004,-0.27463579585255316
0.10000000000000007,-0.05,0.25,0.19142304845413266,0.03165063509461101,0.42200000000000004,30,90.0,-90.0,0.06336528548289792,-0.07033491792587546,0.5485358261115253,-0.23559495957250642,0.0005966002066301666,1.2574732868398961,-0.5937510197981534
0.10000000000000007,-0.05,0.25,0.16717514421272206,0.052530483272049414,0.42200000000000004,45,90.0,-90.0,0.05507565474619681,-0.1106427336113213,0.6611285487624244,-0.4041214937389788,0.00036071412549315085,1.3131035501050083,-0.8960951822991461
0.10000000000000007,-0.05,0.25,0.1383493649053891,0.06642304845413265,0.422,60,90.0,-90.0,0.04195448276526715,-0.1317761319058917,0.8153583685189454,-0.6484886577071834,0.000304089602454932,1.4036479992048265,-1.1789076861072967
0.10000000000000007,-0.05,0.25,0.10691013975507582,0.07238157528225123,0.42200000000000004,75,90.0,-90.0,0.01592282208548143,-0.13516513136677424,1.0720833945955712,-1.0882364343472337,0.0007768766428563802,1.5874349898285565,-1.4435086959205494
