fryumbla/Robot-Manipulability/log/abbrobot_manip_2021-04-05_20-45-08.csv
TCP x,TCP y,TCP z,eef x,eef y,eef z,Cr(rzyz),Pitch(rzyz),Roll(rzyz),Manipulability,joint_1,joint_2,joint_3,joint_4,joint_5,joint_6
0.5,0,0.2,0.53,-0.08,0.3800000000000001,-90,90.0,-90.0,0.07029023121041275,0.4402315891495275,-0.4218691802377813,0.9250088656751996,0.00011019678565157587,1.0665645602589124,2.011917746940293
0.5,0,0.2,0.5496832983968737,-0.06950949475004985,0.3800000000000001,-75,90.0,-90.0,0.06201967688613671,0.4324056351671672,-0.528757989059009,0.9878231862078799,0.0006564021475298486,1.1106871932298785,1.7406809089391442
0.5,0,0.2,0.5659807621135332,-0.05428203230275507,0.38,-60,90.0,-90.0,0.05419136859434483,0.3838370548495875,-0.6361108958136727,1.0428945509342131,0.0008398019444962032,1.164470327167921,1.4297742075454525
0.5,0,0.2,0.4917277488195296,0.08503863745620109,0.3800000000000001,75,90.0,-90.0,0.08405920780360071,-0.3878047349662495,-0.2571227631216573,0.8104030109344896,9.248164149813505e-05,1.0178580681327194,-1.6965212100146636
0.45,0.05,0.2,0.48000000000000004,-0.03,0.3800000000000001,-90,90.0,-90.0,0.08176734353255606,0.13524764441033962,-0.27014061080626317,0.8202375422577114,0.0009107073890608091,1.0210520808912584,-4.576922158035077
0.45,0.05,0.2,0.49968329839687375,-0.019509494750049844,0.3800000000000001,-75,90.0,-90.0,0.07399046412174248,0.0974888289400138,-0.3609637050781857,0.8851950217607476,-0.0006730750931562819,1.045632197474753,-4.8759768183906615
0.45,0.05,0.2,0.5159807621135332,-0.004282032302755069,0.38,-60,90.0,-90.0,0.06759001232071346,0.02350696130757771,-0.4393468169764071,0.935957190169876,-0.0006069742460942641,1.0732854205922226,-5.211313631213785
0.45,0.05,0.2,0.5195094947500498,0.09968329839687373,0.38,15,90.0,-90.0,0.07588698410380137,-0.5052801407931746,-0.33837287524570026,0.8699827257563408,0.0010464262471607175,1.03885924801775,5.514617670001303
0.45,0.05,0.2,0.4853553390593274,0.12778174593052027,0.38,45,90.0,-90.0,0.09202980481226464,-0.5371336047976699,-0.15614235678864288,0.7281753562759619,0.0012414935670283923,0.9992830263975887,4.959792081921446
0.5,-0.05,0.2,0.53,-0.13,0.3800000000000001,-90,90.0,-90.0,0.0798034078145487,0.652892043428814,-0.30489512069595653,0.845823922038601,0.00015609755111368345,1.02861204812189,-4.059310296448889
0.5,-0.05,0.2,0.5659807621135332,-0.10428203230275507,0.38,-60,90.0,-90.0,0.06350951715609629,0.6617339109629476,-0.5075874012838435,0.9764571534877486,-0.00045888669140218614,1.1016565677418884,-4.5737163792435895
0.5,-0.05,0.2,0.5695094947500499,-0.0003167016031262737,0.38,15,90.0,-90.0,0.04862551707710744,0.0019292502190629032,-0.7137080818278261,1.0777155954354969,0.00012501270547557163,1.2060354054655449,-6.542262417254569
0.5,-0.05,0.2,0.5542820323027551,0.015980762113533192,0.3800000000000001,30,90.0,-90.0,0.05480761206004229,-0.10932248545325234,-0.6257619963194175,1.0377949709605998,0.00024007960606765258,1.159327764073715,-6.9153311746300306
0.5,-0.05,0.2,0.5140192378864669,0.0342820323027551,0.38,60,90.0,-90.0,0.07070674061198219,-0.18298267011069355,-0.41566764308837467,0.9210233037472658,0.0010641837322249391,1.0653976735514634,-1.2308967869822194
0.45,-0.1,0.2,0.48000000000000004,-0.18,0.3800000000000001,-90,90.0,-90.0,0.10121819238404842,0.6856148256602229,-0.023769950435994235,0.6070468900366929,-0.0005147374853723577,0.9866145021405816,-4.025695293148565
0.45,-0.1,0.2,0.49968329839687375,-0.16950949475004984,0.3800000000000001,-75,90.0,-90.0,0.09619236320000377,0.7021705096984792,-0.1067932576927802,0.6852447196363257,0.0010414698156119618,0.9919683899799545,-4.272292809498561
0.45,-0.1,0.2,0.5159807621135332,-0.15428203230275508,0.38,-60,90.0,-90.0,0.0880570129071959,0.6977657677087985,-0.19463395595041907,0.7609081762143833,0.00048780173545177544,1.0043795359672345,-4.538302973185096
0.45,-0.1,0.2,0.5277817459305203,-0.13535533905932737,0.38,-45,90.0,-90.0,0.08022994134978402,0.6664682793223334,-0.2824523635739176,0.8296535899082124,-0.0010445327013249655,1.0228165144818429,-4.830107173024924
0.45,-0.1,0.2,0.504282032302755,-0.03401923788646681,0.3800000000000001,30,90.0,-90.0,0.07262044641273055,0.1715707018093963,-0.3721239892945998,0.8927226154231067,0.0009486567452094228,1.049655939894249,-6.635208272226317
0.45,-0.15000000000000002,0.2,0.49968329839687375,-0.21950949475004988,0.3800000000000001,-75,90.0,-90.0,0.09972397935562852,0.8310939422591708,0.024302437214972796,0.5589765007264074,0.0005158809475528752,0.9868974268725751,-4.142470868381584
0.45,-0.15000000000000002,0.2,0.5159807621135332,-0.2042820323027551,0.38,-60,90.0,-90.0,0.10003814390472698,0.8375832328062865,-0.05893845577062005,0.6411316043728209,0.0004625751529742074,0.9876174463086447,-4.39770076713794
0.45,-0.15000000000000002,0.2,0.5350386374562011,-0.1417277488195296,0.38,-15,90.0,-90.0,0.0789439287401166,0.7094011195431673,-0.2888272684716825,0.8342335345549658,0.0009514030266968431,1.0256729139905765,-5.311473168036078
0.45,-0.15000000000000002,0.2,0.53,-0.12,0.3800000000000001,0,90.0,-90.0,0.07536538756813282,0.6146627926923162,-0.33003829854766803,0.8637306811910135,0.0005239248740296266,1.0364808191605632,-5.668691673567029
0.45,-0.15000000000000002,0.2,0.5195094947500498,-0.1003167016031263,0.38,15,90.0,-90.0,0.07476795220251549,0.5074379269331101,-0.3369020848060882,0.8688487577129863,-7.347947717004479e-05,1.0382741379995295,-6.036742028583179
0.45,-0.15000000000000002,0.2,0.4417277488195296,-0.06496136254379893,0.3800000000000001,75,90.0,-90.0,0.09701682760275074,0.24634991384609997,-0.09166048154289172,0.6712054789988777,-0.0003650538374504738,0.9921199011345999,-1.0619613510467107
0.45,-0.15000000000000002,0.2,0.42,-0.06999999999999999,0.3800000000000001,90,90.0,-90.0,0.10037097166090281,0.24501900643718547,-0.006985045748594689,0.5904069465261979,-0.0005396401410325173,0.9881544837297311,-1.3261138815955595
0.45,0.1,0.2,0.49968329839687375,0.03049050524995016,0.3800000000000001,-75,90.0,-90.0,0.07413168807166075,-0.1518088539103296,-0.3540322910513158,0.8805281341610154,0.0013131912751259238,1.0440397055640842,-5.126847091947831
0.45,0.1,0.2,0.5159807621135332,0.045717967697244934,0.38,-60,90.0,-90.0,0.06923822172911014,-0.24361364937747096,-0.41308640977640243,0.919602293506474,0.00020875023918324358,1.063622301914934,-5.478720874451221
0.45,0.1,0.2,0.5277817459305203,0.06464466094067264,0.38,-45,90.0,-90.0,0.06704068862349757,-0.3589111913833603,-0.4402299917247531,0.9365182210663279,8.806054459181668e-06,1.0734692052360855,-5.8557998338023936
0.45,0.1,0.2,0.5342820323027551,0.08598076211353319,0.3800000000000001,-30,90.0,-90.0,0.0681602271001171,-0.47853568765332394,-0.4265338698729807,0.9280195872212549,0.0006717189569383601,1.0691243559141235,-6.238087429215805
0.45,0.1,0.2,0.5350386374562011,0.10827225118047042,0.38,-15,90.0,-90.0,0.07212917397278482,-0.5814316442338866,-0.3778973485898141,0.8969121516762939,0.0010189683443527348,1.0513301789584513,-6.602479679901
0.45,0.1,0.2,0.5195094947500498,0.14968329839687372,0.38,15,90.0,-90.0,0.0859721766717411,-0.6928507580850201,-0.21794171215489255,0.7795747440616789,0.0014061676203208219,1.00916293754703,5.328410143208077
0.45,0.1,0.2,0.504282032302755,0.1659807621135332,0.3800000000000001,30,90.0,-90.0,0.09413850919174163,-0.7032495934622729,-0.12907762377718918,0.7048953629550754,0.0007124897813696351,0.9953263968386621,5.0562963602520865
0.45,0.1,0.2,0.4640192378864668,0.1842820323027551,0.38,60,90.0,-90.0,0.10011050407245765,-0.6633003445170929,0.03241936256037252,0.5508409856848455,0.000995115951226464,0.9879779507798068,4.572069573757902
0.45,0.1,0.2,0.4417277488195296,0.18503863745620108,0.3800000000000001,75,90.0,-90.0,0.0982968954199395,-0.621644348136931,0.09879801712109927,0.48000819145937323,-0.0008505939514759531,0.9926946117706171,4.3523689340384655
0.45,0.1,0.2,0.42,0.18000000000000005,0.3800000000000001,90,90.0,-90.0,0.09650541238472798,-0.571458304497191,0.15267151071251542,0.42014403810262324,0.0014482457388837273,0.9978011183456404,4.141125218976877
0.5,-0.1,0.2,0.53,-0.18,0.3800000000000001,-90,90.0,-90.0,0.09183877579535943,0.8137596738585944,-0.16502731720109845,0.7360128318690708,0.00011776525256497299,0.9990280340634319,-3.8980348887694234
0.5,-0.1,0.2,0.5659807621135332,-0.15428203230275508,0.38,-60,90.0,-90.0,0.07594203261976407,0.855704111197341,-0.34699984452809995,0.8756810371832338,-0.00020019412157108957,1.0413137886091146,-4.379193983624418
0.5,-0.1,0.2,0.5777817459305202,-0.13535533905932737,0.38,-45,90.0,-90.0,0.067854154814411,0.8364531359321383,-0.44684339953967034,0.9405623417055394,0.0002134996520884874,1.076953319425156,-4.661313739806592
0.5,-0.1,0.2,0.5542820323027551,-0.03401923788646681,0.3800000000000001,30,90.0,-90.0,0.0555332714483881,0.22893802052680548,-0.6097216024849523,1.0299336440861815,0.0009961760782935905,1.1505565449008401,-6.578061402180035
0.5,-0.1,0.2,0.5140192378864669,-0.0157179676972449,0.38,60,90.0,-90.0,0.06942505528308612,0.08421042800835893,-0.42724544742595716,0.9282411978967401,0.0010262414744993962,1.0697804792090249,-0.9633144174870879
0.45,-0.10000000000000002,0.2,0.49968329839687375,-0.16950949475004987,0.3800000000000001,-75,90.0,-90.0,0.09617286372340621,0.7020920097616242,-0.10676508798701494,0.6848876743437233,0.00042657592763893377,0.9914631061026006,-4.271782289085914
0.45,-0.10000000000000002,0.2,0.5159807621135332,-0.15428203230275508,0.38,-60,90.0,-90.0,0.08799134315888561,0.6981050180471187,-0.19519811905136147,0.7612131530991723,-0.0003211430776878745,1.0039331860369656,-4.537080817389154
0.45,-0.10000000000000002,0.2,0.5342820323027551,-0.11401923788646684,0.3800000000000001,-30,90.0,-90.0,0.07356385877405434,0.6022085146792664,-0.36092580913269573,0.8850413169196716,0.0005280403597689834,1.0463355776515095,-5.156852525026289
0.45,-0.10000000000000002,0.2,0.5350386374562011,-0.09172774881952961,0.38,-15,90.0,-90.0,0.06889590096509106,0.507270529756302,-0.41730761306357567,0.9221892216410544,-0.000643316742196429,1.0651059274884263,-5.513205999979282
0.45,-0.10000000000000002,0.2,0.53,-0.06999999999999998,0.3800000000000001,0,90.0,-90.0,0.06709481642584596,0.39026770637615266,-0.44003830312935405,0.9363794604626573,0.000849506854022265,1.0751395763374334,-5.893884416316987
0.45,-0.10000000000000002,0.2,0.4853553390593274,-0.022218254069479762,0.38,45,90.0,-90.0,0.07902762233618099,0.10323704905012261,-0.29674917495302755,0.8398753199686422,0.0002247468773363681,1.0276543751960012,-6.9647828075619325
0.45,-0.10000000000000002,0.2,0.4640192378864668,-0.015717967697244914,0.38,60,90.0,-90.0,0.08671952697367476,0.06603218904448785,-0.20977717010155103,0.7731079935383822,0.0012156081261217437,1.007788018665688,-0.9827932393681563
0.45,-0.10000000000000002,0.2,0.4417277488195296,-0.014961362543798928,0.3800000000000001,75,90.0,-90.0,0.09490203973486723,0.057790411153772446,-0.12074088734608684,0.6976216508614537,0.00038263807554580044,0.9939499429473835,-1.2518388547186725
0.45,-0.10000000000000002,0.2,0.42,-0.01999999999999999,0.3800000000000001,90,90.0,-90.0,0.10141349602933909,0.0710810313256481,-0.03649017162182218,0.6195987868763935,0.00040738601651639094,0.9880436186772428,-1.4991331714368623
0.45,-0.05,0.2,0.48000000000000004,-0.13,0.3800000000000001,-90,90.0,-90.0,0.0940584296331631,0.5334427310453789,-0.13373318322139857,0.7090170849034397,0.0008292428114494245,0.9952368722331189,2.104060976551449
0.45,-0.05,0.2,0.49968329839687375,-0.11950949475004985,0.3800000000000001,-75,90.0,-90.0,0.08590194037691529,0.5385914321909364,-0.22298072487686843,0.7837381163217685,-0.0012832632455367175,1.0095551944881977,1.8484328201620561
0.45,-0.05,0.2,0.5159807621135332,-0.10428203230275507,0.38,-60,90.0,-90.0,0.07784097028146718,0.5151477755254391,-0.3150450289876261,0.8533602778867148,0.0009182224300803824,1.03152993112481,1.5614846460233098
0.45,-0.05,0.2,0.5277817459305203,-0.08535533905932736,0.38,-45,90.0,-90.0,0.07070460663358409,0.45944317696242865,-0.4009360722583751,0.9119344344946463,0.001116941244583071,1.0598990791549978,1.2452503027357276
0.45,-0.05,0.2,0.5342820323027551,-0.06401923788646682,0.3800000000000001,-30,90.0,-90.0,0.06522393955255992,0.3684647698849996,-0.4692194981890093,0.9541461642799965,0.0002704776201171607,1.0856339426435613,0.8910805492189959
0.45,-0.05,0.2,0.5350386374562011,-0.04172774881952959,0.38,-15,90.0,-90.0,0.06240271443631019,0.24724185422626416,-0.5054837632058958,0.9750368750000941,0.000779231940080871,1.1012315868563936,0.5092781951130471
0.45,-0.05,0.2,0.53,-0.01999999999999997,0.3800000000000001,0,90.0,-90.0,0.0627194725751685,0.1168361881031273,-0.5011402362496163,0.9728451932077976,0.0008490320369093834,1.0983286328535162,0.11550679862603071
0.45,-0.05,0.2,0.504282032302755,0.015980762113533192,0.3800000000000001,30,90.0,-90.0,0.07225320956243662,-0.08181801617921161,-0.3820336262345847,0.8995366566517948,0.001363432649343156,1.0531064649499808,-0.6062715567325628
0.4,-0.1,0.2,0.43000000000000005,-0.18,0.3800000000000001,-90,90.0,-90.0,0.09635837082205795,0.5876645259136055,0.12270489767022173,0.45401790382255025,0.000823238076560452,0.9933144225432458,2.157866390418091
0.4,-0.1,0.2,0.4842820323027551,-0.11401923788646683,0.3800000000000001,-30,90.0,-90.0,0.0877750486221765,0.48594004877659036,-0.1797486743824135,0.7483782363904695,0.0013837406131278962,1.0021425437145066,1.0085689268174787
0.4,-0.1,0.2,0.4850386374562011,-0.0917277488195296,0.38,-15,90.0,-90.0,0.08399659322700728,0.4035218956344945,-0.2210299745548979,0.7821321694592556,0.0006263136449027679,1.0099378425470218,0.6658071858391555
0.4,-0.1,0.2,0.4542820323027551,-0.03401923788646681,0.3800000000000001,30,90.0,-90.0,0.08929303491586124,0.1372824747736133,-0.16305547919328375,0.7344440362583539,0.001046589913295907,0.9987959532392666,-0.3859462680390667
0.4,-0.1,0.2,0.41401923788646683,-0.0157179676972449,0.38,60,90.0,-90.0,0.0998596022664761,0.05502097675032223,-0.015460460599550037,0.5988500916638271,-0.0004106113714233764,0.9886153635238566,-0.9914470820211018
0.4,-0.1,0.2,0.3917277488195296,-0.014961362543798915,0.3800000000000001,75,90.0,-90.0,0.0980338669979903,0.048466328926157674,0.06630282650681228,0.5153135529426351,0.0005384860338546698,0.9893015060839294,-1.261372540676613
0.4,0.05,0.2,0.43000000000000005,-0.03,0.3800000000000001,-90,90.0,-90.0,0.0984324471833097,0.11034322888160718,-0.07127358683816418,0.6525425210917132,0.0008189634313460478,0.988505924152838,-4.601596115723908
0.4,0.05,0.2,0.44968329839687377,-0.019509494750049844,0.3800000000000001,-75,90.0,-90.0,0.09082442065931477,0.078148444856201,-0.15169073958586873,0.7245962572115734,-0.0006859710577780038,0.9968941559619406,-4.895611221392654
0.4,0.05,0.2,0.46598076211353323,-0.004282032302755069,0.38,-60,90.0,-90.0,0.08451996729361637,0.018476389242566577,-0.2203595846955942,0.781313963648184,-0.00030590955864649196,1.0087024298182063,-5.216502116670236
0.4,0.05,0.2,0.37,0.13000000000000003,0.3800000000000001,90,90.0,-90.0,0.09266522127807478,-0.3752844877470732,0.22990198689135247,0.32918863545728216,0.0003788930551945881,1.0120416673511705,-1.9457519236492737
0.4,-0.15000000000000002,0.2,0.43000000000000005,-0.23000000000000004,0.3800000000000001,-90,90.0,-90.0,0.09188767545147221,0.7053940412022478,0.22962799048205623,0.32956830273787,0.0004094352254647543,1.0105270204370707,2.2753185701474954
0.4,-0.15000000000000002,0.2,0.44968329839687377,-0.21950949475004988,0.3800000000000001,-75,90.0,-90.0,0.09481539020536262,0.7199932861419751,0.15316219601109843,0.4195596853328676,0.0008559542309405883,0.9981891295269438,2.0275704926703
0.4,-0.15000000000000002,0.2,0.46598076211353323,-0.2042820323027551,0.38,-60,90.0,-90.0,0.09730081395381111,0.71776372297051,0.07335434420781727,0.507638784121926,-0.0011008359954617338,0.9894692919752992,1.7664072085125406
0.4,-0.15000000000000002,0.2,0.47778174593052025,-0.18535533905932738,0.38,-45,90.0,-90.0,0.09910581227628826,0.6952459354913989,-0.00434397195512859,0.5878389842593564,0.0009839335662497335,0.9876069553677357,1.479258582281011
0.4,-0.15000000000000002,0.2,0.48000000000000004,-0.12,0.3800000000000001,0,90.0,-90.0,0.08936656075548617,0.4993308611515541,-0.15334179176977114,0.726161000853364,-0.00010451293342110153,0.9972854202006962,0.4998357958925189
0.4,-0.15000000000000002,0.2,0.4695094947500499,-0.1003167016031263,0.38,15,90.0,-90.0,0.08966192326789767,0.4103703891232104,-0.1502636431259974,0.7235848650924653,0.0006078689247090626,0.9969997252527146,0.14881990874697948
0.4,-0.15000000000000002,0.2,0.4542820323027551,-0.08401923788646683,0.3800000000000001,30,90.0,-90.0,0.09278508462304783,0.3296618303643569,-0.11738496636232577,0.6945458319039387,0.00044899207756903225,0.9931491392045537,-0.19494132803418895
0.4,-0.15000000000000002,0.2,0.4353553390593274,-0.07221825406947976,0.38,45,90.0,-90.0,0.09830474316704019,0.2664342832736684,-0.06040732780686939,0.6424014201527882,0.00046653579243444957,0.989646002126115,-0.5192667881103233
0.4,-0.15000000000000002,0.2,0.41401923788646683,-0.06571796769724492,0.38,60,90.0,-90.0,0.0988157426756728,0.2259443428234393,0.010378371802969282,0.5730807569994053,0.0002641733971062499,0.9869186773460965,-0.8208128221860974
0.4,-0.15000000000000002,0.2,0.37,-0.06999999999999999,0.3800000000000001,90,90.0,-90.0,0.09425862491571232,0.2089374831492921,0.1688479683840818,0.4014016939373635,0.000792256304779725,1.0002856028399842,-1.3632741105131663
0.35000000000000003,0.1,0.2,0.38000000000000006,0.020000000000000004,0.3800000000000001,-90,90.0,-90.0,0.09542078108440172,-0.06241505885673912,0.10936050891667076,0.4687754417968084,-0.0002361914776903686,0.9917138536645084,-4.774801348388932
0.35000000000000003,0.1,0.2,0.4159807621135332,0.045717967697244934,0.38,-60,90.0,-90.0,0.09838220028057952,-0.1599974560342917,-0.01069074069239724,0.5943867251580502,0.0012358368400438057,0.9868809569400517,-5.3957829930800045
0.35000000000000003,0.15000000000000002,0.2,0.3996832983968738,0.08049050524995018,0.3800000000000001,-75,90.0,-90.0,0.09591569852028704,-0.2616835377631764,0.07445238378307739,0.5066116400027607,0.0003559242041919846,0.9903002066787867,1.0473784002861015
0.35000000000000003,0.15000000000000002,0.2,0.42778174593052026,0.11464466094067266,0.38,-45,90.0,-90.0,0.09729349915763029,-0.39907750142798926,0.01785530217170132,0.5656634807893917,0.0012719769794855434,0.9873320566344684,0.3850705023329401
0.35000000000000003,0.15000000000000002,0.2,0.43503863745620114,0.15827225118047045,0.38,-15,90.0,-90.0,0.09614127121225258,-0.5385811190435533,0.0659299469079852,0.515769904839138,0.0007475694531016368,0.9882670841918184,-0.27780459139814184
0.35000000000000003,0.15000000000000002,0.2,0.43000000000000005,0.18000000000000005,0.3800000000000001,0,90.0,-90.0,0.09448840487889146,-0.5884182272373264,0.12307316132464072,0.4533134296096008,0.0011012852687120724,0.9938997856965454,-0.5887144540542789
0.35000000000000003,0.15000000000000002,0.2,0.4042820323027551,0.21598076211353323,0.3800000000000001,30,90.0,-90.0,0.0889188038662561,-0.6306767778979099,0.27089620721940805,0.2789848763074615,-0.0001355141794123607,1.021625524961134,-1.1551305531621656
0.35000000000000003,0.15000000000000002,0.2,0.36401923788646684,0.23428203230275513,0.38,60,90.0,-90.0,0.08109010851845169,-0.6087769674098338,0.42477425263105567,0.07735879137226995,0.00037095154811014945,1.0694259110396567,-1.6569640232397544
0.35000000000000003,0.15000000000000002,0.2,0.32,0.23000000000000004,0.3800000000000001,90,90.0,-90.0,0.07297536071916648,-0.5441093361927315,0.5525031075011678,-0.10437689382245853,-0.0007134897938446543,1.1232125100846677,-2.114797853793412
0.30000000000000004,0.1,0.2,0.3496832983968738,0.03049050524995016,0.3800000000000001,-75,90.0,-90.0,0.09015949841463357,-0.0869783551796695,0.21914392184100265,0.34249789617800275,0.0009503819200261786,1.008390307825603,1.2215582006590726
0.30000000000000004,0.1,0.2,0.3777817459305203,0.06464466094067264,0.38,-45,90.0,-90.0,0.09302756967902998,-0.19832983472396887,0.13812541044645033,0.43640625093112023,0.0015300193830241476,0.9965736483297787,0.5868040286037183
0.30000000000000004,0.1,0.2,0.38503863745620115,0.10827225118047042,0.38,-15,90.0,-90.0,0.09252282645363932,-0.33140210492946615,0.1537007788960999,0.418787764024092,0.0009398322727888862,0.9986998764962269,-0.07103916188354296
0.30000000000000004,0.1,0.2,0.3542820323027551,0.1659807621135332,0.3800000000000001,30,90.0,-90.0,0.08521850224702006,-0.4477106495531344,0.3318201016376993,0.2013373668108092,0.00016167241985845732,1.0386150184139897,-0.9711560087524933
0.30000000000000004,0.1,0.2,0.27,0.18000000000000005,0.3800000000000001,90,90.0,-90.0,0.06607214548560847,-0.39658361635570805,0.6391441602413666,-0.23376247376180484,0.00048100527078333397,1.1653245851618146,-1.9685413459222787
0.30000000000000004,0.15000000000000002,0.2,0.33000000000000007,0.07000000000000002,0.3800000000000001,-90,90.0,-90.0,0.08596251404547008,-0.18729533366197648,0.3073223933597029,0.23301270466134125,0.0009883749827507239,1.030786508236997,1.3830318478554866
0.30000000000000004,0.15000000000000002,0.2,0.36598076211353325,0.09571796769724494,0.38,-60,90.0,-90.0,0.09025272979905431,-0.27905526712745005,0.20456034240750315,0.35963283016559916,0.0006475391128867263,1.005988455194517,0.7674437008084164
0.30000000000000004,0.15000000000000002,0.2,0.3777817459305203,0.11464466094067266,0.38,-45,90.0,-90.0,0.09096207813931773,-0.3420283067339847,0.18532321022666426,0.3824357451208768,0.0008768397302006457,1.0024873174956535,0.44387733855811634
0.30000000000000004,0.15000000000000002,0.2,0.38428203230275515,0.13598076211353322,0.3800000000000001,-30,90.0,-90.0,0.09075782443679214,-0.40681122988135754,0.19107954340071645,0.37563688418099395,0.0005994092550342305,1.0036482870376193,0.11618286537100246
0.30000000000000004,0.15000000000000002,0.2,0.38000000000000006,0.18000000000000005,0.3800000000000001,0,90.0,-90.0,0.08746934266099243,-0.5125794617407382,0.2738775481727397,0.27526059027856337,0.00042501718189087636,1.0225441367511583,-0.5137800918822221
0.30000000000000004,0.15000000000000002,0.2,0.3695094947500499,0.19968329839687377,0.38,15,90.0,-90.0,0.08438499641125938,-0.5436148296562692,0.3406239535707706,0.19013754543608322,0.0003144255731324218,1.0401428230672363,-0.8049623678457566
0.30000000000000004,0.15000000000000002,0.2,0.3353553390593274,0.22778174593052028,0.38,45,90.0,-90.0,0.07553744958965447,-0.5583692015568895,0.4985412769410556,-0.025820843765783547,0.0009045338806610132,1.0976119401253115,-1.3439487200560698
0.30000000000000004,0.05,0.2,0.38503863745620115,0.058272251180470414,0.38,-15,90.0,-90.0,0.09425475020143566,-0.18284710728018128,0.10818945814971422,0.4700261002363074,0.0006851574506583937,0.9926514377559185,0.07834891550160138
0.30000000000000004,0.05,0.2,0.38000000000000006,0.08000000000000004,0.3800000000000001,0,90.0,-90.0,0.09318919194935252,-0.24510384697356163,0.14210611334297252,0.43193438649216975,0.0012697491026680333,0.9960267578338673,-0.24632376477784035
0.30000000000000004,0.05,0.2,0.3695094947500499,0.09968329839687373,0.38,15,90.0,-90.0,0.09129663697449183,-0.2930606739743774,0.1963089729374641,0.36929132965991723,0.000838463919235435,1.0046358131183053,-0.5543764336010354
0.30000000000000004,0.2,0.2,0.33000000000000007,0.12000000000000001,0.3800000000000001,-90,90.0,-90.0,0.0833406458661666,-0.31386238398578525,0.35041643237981784,0.17739250459696962,0.0012786944241155614,1.0424203069429079,1.2553941289168478
0.30000000000000004,0.2,0.2,0.36598076211353325,0.14571796769724493,0.38,-60,90.0,-90.0,0.08726755206335338,-0.41160159020364545,0.26448809131871,0.28704706927194107,0.0005108868328330499,1.0194832843575574,0.6351678170917973
0.30000000000000004,0.2,0.2,0.3777817459305203,0.16464466094067265,0.38,-45,90.0,-90.0,0.08766718197687205,-0.4725027485788668,0.2549421976950228,0.29895524531403717,0.0005682919668308542,1.015768483716383,0.31279044758608526
0.30000000000000004,0.2,0.2,0.38000000000000006,0.23000000000000004,0.3800000000000001,0,90.0,-90.0,0.08240840473206239,-0.6234174288994985,0.3689397107391662,0.15279351505749422,0.0015898744952497132,1.0488293902230872,-0.6235891354609667
0.30000000000000004,0.2,0.2,0.3353553390593274,0.2777817459305203,0.38,45,90.0,-90.0,0.06765170845426138,-0.6510039526719146,0.6081875978529561,-0.18713336997153177,0.0008805495920467258,1.1502886141719737,-1.4373926791706644
0.30000000000000004,0.2,0.2,0.31401923788646685,0.2842820323027551,0.38,60,90.0,-90.0,0.06112082700581264,-0.6348039556549613,0.6938624629592752,-0.3186834117375657,-0.00010216055420072937,1.1956588980158849,-1.6821662752156583
0.45,-0.05000000000000002,0.2,0.48000000000000004,-0.13,0.3800000000000001,-90,90.0,-90.0,0.09407100834500355,0.5334614275387226,-0.13347983059825946,0.7088395710194375,-0.0004952586358855831,0.9949181165282655,-4.178076128448826
0.45,-0.05000000000000002,0.2,0.49968329839687375,-0.11950949475004986,0.3800000000000001,-75,90.0,-90.0,0.08594415087999015,0.5377748781818518,-0.22262592557022043,0.7835247124036411,0.0009619131582897945,1.0099697532713319,-4.4364843713128925
0.45,-0.05000000000000002,0.2,0.5159807621135332,-0.1042820323027551,0.38,-60,90.0,-90.0,0.07781433439076095,0.5152933750127444,-0.31564873162943063,0.8534609187161393,0.00024744734573575023,1.0321646465211973,-4.720163341929461
0.45,-0.05000000000000002,0.2,0.5277817459305203,-0.08535533905932738,0.38,-45,90.0,-90.0,0.07064240472386783,0.45973263072492254,-0.40158918081308304,0.9123077438901062,0.0012079995883234212,1.0596669760381574,-5.038318230227579
0.45,-0.05000000000000002,0.2,0.5350386374562011,-0.041727748819529606,0.38,-15,90.0,-90.0,0.06238785543426157,0.24716334930554074,-0.5055870798462931,0.9752885321260364,0.0011501505577588206,1.1010175683175119,-5.774707609259741
0.45,-0.05000000000000002,0.2,0.5195094947500498,-0.0003167016031262876,0.38,15,90.0,-90.0,0.06625421167406807,0.0016832301977542903,-0.45598904845995614,0.9464149333387425,0.0003586985864506935,1.0796389320547142,-6.542473724671941
0.45,-0.05000000000000002,0.2,0.504282032302755,0.01598076211353318,0.3800000000000001,30,90.0,-90.0,0.07225361599458618,-0.08181456797635968,-0.3822659651024497,0.8994285538058735,0.0007726601646693292,1.0538442049087169,-6.887989244081689
0.45,-0.05000000000000002,0.2,0.4853553390593274,0.02778174593052024,0.38,45,90.0,-90.0,0.07973696713055067,-0.12874172248847374,-0.29358840070987335,0.837537225131063,0.0002654224091691596,1.0271382593947314,-0.9148179729097816
0.45,-0.05000000000000002,0.2,0.4640192378864668,0.03428203230275509,0.38,60,90.0,-90.0,0.08788125463731544,-0.1445395364086212,-0.2013127168703984,0.7664824386024004,0.0005001346709995739,1.006291690629675,-1.1924977617655854
0.45,-0.05000000000000002,0.2,0.4417277488195296,0.035038637456201074,0.3800000000000001,75,90.0,-90.0,0.0960067129637939,-0.1347705119042332,-0.11316162703019897,0.6908767838475847,0.0004706891921885089,0.9933730570287881,-1.4439847294051216
0.4,-0.05,0.2,0.44968329839687377,-0.11950949475004985,0.3800000000000001,-75,90.0,-90.0,0.10041830073019505,0.4455540203228026,-0.04934681888034355,0.6319817389202684,0.00016490411985439145,0.9875350655623184,1.7552525985855891
0.4,-0.05,0.2,0.47778174593052025,-0.08535533905932736,0.38,-45,90.0,-90.0,0.08600678414629073,0.3667207537746615,-0.20373178380575024,0.7684760846979733,-0.0005125961468624522,1.0050351068724985,1.1526014919710266
0.4,-0.05,0.2,0.4842820323027551,-0.06401923788646682,0.3800000000000001,-30,90.0,-90.0,0.08122735397412234,0.2878734323261393,-0.25735286111020483,0.8104801173623668,0.0008263319204187978,1.0177589969331031,0.8103232782433605
0.4,-0.05,0.2,0.4850386374562011,-0.04172774881952959,0.38,-15,90.0,-90.0,0.07894221324059385,0.19147379853718513,-0.2831262968256583,0.8298514286362735,6.900560005237305e-05,1.023784583236273,0.45324419329033017
0.4,-0.05,0.2,0.4695094947500499,-0.0003167016031262737,0.38,15,90.0,-90.0,0.08327459457927279,0.0013077717865140137,-0.23460321638384357,0.792671786492588,0.0008943022007592483,1.0128158818863116,-0.26194476773358405
0.45,0.15000000000000002,0.2,0.49968329839687375,0.08049050524995018,0.3800000000000001,-75,90.0,-90.0,0.07822869926561746,-0.382209452817301,-0.29665592021817033,0.8398257939149372,-2.8740240514733427e-05,1.0264533685547894,-5.355654239604147
0.45,0.15000000000000002,0.2,0.5159807621135332,0.09571796769724494,0.38,-60,90.0,-90.0,0.07505316427084491,-0.47959990919004536,-0.33350284241955125,0.8664736270088724,-3.1839697396548826e-05,1.0368969468399447,-5.715710020058419
0.45,0.15000000000000002,0.2,0.5277817459305203,0.11464466094067266,0.38,-45,90.0,-90.0,0.07497180552788409,-0.587219648294647,-0.33512055240512734,0.8675272706201562,-0.00022260857722719975,1.0394081258187629,-6.084841138287575
0.45,0.15000000000000002,0.2,0.5350386374562011,0.15827225118047045,0.38,-15,90.0,-90.0,0.08307217945489408,-0.7643798832347383,-0.24211807425499488,0.798981512378923,-9.774699831798677e-05,1.0145139820494722,-6.784906869443358
0.45,0.15000000000000002,0.2,0.53,0.18000000000000005,0.3800000000000001,0,90.0,-90.0,0.09009934373932967,-0.8135581294786222,-0.1650024062714336,0.735989554601994,-0.0007385260134788777,1.0004027586392004,-0.8132522618099718
0.45,0.15000000000000002,0.2,0.5195094947500498,0.19968329839687377,0.38,15,90.0,-90.0,0.09803981533178077,-0.83586074161186,-0.08074982123624866,0.6613217327572846,0.0003152895489163233,0.9908162970470502,-1.0969027277726398
0.45,0.15000000000000002,0.2,0.4417277488195296,0.23503863745620113,0.3800000000000001,75,90.0,-90.0,0.09375537342083798,-0.738008358802273,0.2109571630306332,0.35220530010978934,-0.0012494365499564053,1.0081822038604484,-2.0454583015874235
0.25000000000000006,0.15000000000000002,0.2,0.2800000000000001,0.07000000000000002,0.3800000000000001,-90,90.0,-90.0,0.07533589113028208,-0.16509192809023154,0.4829566281460516,-0.0037464466497703804,8.379916176555691e-05,1.090805770130488,1.406054614685822
0.25000000000000006,0.15000000000000002,0.2,0.2996832983968738,0.08049050524995018,0.3800000000000001,-75,90.0,-90.0,0.07895152767399088,-0.19852795268021237,0.42027524616838047,0.08373085607362306,0.00044461945930633135,1.0673493191172911,1.109739722505439
0.25000000000000006,0.15000000000000002,0.2,0.33428203230275516,0.13598076211353322,0.3800000000000001,-30,90.0,-90.0,0.08235626008735243,-0.3560958444709885,0.35481030695845617,0.17171669503968368,0.0006689210100973892,1.0432708853895125,0.16624380388487164
0.25000000000000006,0.15000000000000002,0.2,0.33503863745620116,0.15827225118047045,0.38,-15,90.0,-90.0,0.08098107984033487,-0.40909585947321553,0.3819566008113253,0.13540351086317207,0.000818084037731622,1.052747298252059,-0.14831239213340872
0.25000000000000006,0.15000000000000002,0.2,0.33000000000000007,0.18000000000000005,0.3800000000000001,0,90.0,-90.0,0.07835548112640098,-0.4529133883189755,0.43117161674152665,0.06882707200423249,0.0009848505549567067,1.0709421811437942,-0.4537925302795198
0.25000000000000006,0.15000000000000002,0.2,0.2853553390593274,0.22778174593052028,0.38,45,90.0,-90.0,0.06267723784110815,-0.5023401519550578,0.6673046838761788,-0.27731295229029906,0.0006125577407998012,1.1806700895361744,-1.287044124882213
0.5,-0.15000000000000002,0.2,0.5496832983968737,-0.21950949475004988,0.3800000000000001,-75,90.0,-90.0,0.09799839218931104,0.9703732348437204,-0.09286628882325908,0.6722315682656743,0.0002829751405578236,0.9903829481244648,-4.00362985255454
0.5,-0.15000000000000002,0.2,0.5777817459305202,-0.18535533905932738,0.38,-45,90.0,-90.0,0.08188252314784097,0.9881800431178852,-0.2698740565138529,0.8202525101401086,-0.0012168618316978478,1.0197895506965216,-4.508420646328334
0.5,-0.15000000000000002,0.2,0.5850386374562011,-0.1417277488195296,0.38,-15,90.0,-90.0,0.06712917131028659,0.8898014809528558,-0.4468579777625766,0.9407564286139525,-0.0006558688839835478,1.0757566124580467,-5.131454419077308
0.5,-0.15000000000000002,0.2,0.58,-0.12,0.3800000000000001,0,90.0,-90.0,0.06235791745095704,0.7857822865592868,-0.5080600769371837,0.9763311768221906,-0.0007048532888336727,1.1018690285658868,-5.496873471773967
0.5,-0.15000000000000002,0.2,0.5140192378864669,-0.06571796769724492,0.38,60,90.0,-90.0,0.07270590936401415,0.33914045693261624,-0.3781698644733861,0.8970384506369133,0.0008674798398220591,1.0514482880770655,-0.7092364706301548
0.5,-0.15000000000000002,0.2,0.4917277488195296,-0.06496136254379893,0.3800000000000001,75,90.0,-90.0,0.08049328817203938,0.3023346169319388,-0.2863963159578686,0.8325058296475788,0.000455929918103666,1.0253381180135477,-1.0061013474562126
0.35000000000000003,-0.2,0.2,0.38000000000000006,-0.28,0.3800000000000001,-90,90.0,-90.0,0.07717739950236337,0.7187240754276367,0.48111058585001215,-0.0012641335805107525,0.00039548552571906496,1.0899525376371642,2.289771305798976
0.35000000000000003,-0.2,0.2,0.43428203230275514,-0.21401923788646682,0.3800000000000001,-30,90.0,-90.0,0.0917978297718687,0.6777995473323846,0.18284483307357058,0.3853973938329956,0.0010250831433903798,1.0028774163673038,-5.082100699919329
0.35000000000000003,-0.2,0.2,0.43503863745620114,-0.1917277488195296,0.38,-15,90.0,-90.0,0.09353147579754896,0.6262715791718381,0.1318528262336793,0.44391658067747786,0.00036595107466390266,0.9942023127124207,-5.395875627604581
0.35000000000000003,-0.2,0.2,0.4195094947500499,-0.15031670160312627,0.38,15,90.0,-90.0,0.0944847050882209,0.4919271390650074,0.1004083927998665,0.4786466031215615,0.0007023179573819225,0.9910227549902689,-6.052863979889108
0.35000000000000003,-0.2,0.2,0.36401923788646684,-0.1157179676972449,0.38,60,90.0,-90.0,0.08992310793690401,0.3314964931580199,0.23205666320447083,0.32678681103260065,0.0008019730646948392,1.0114725100948838,-0.7163068014926476
0.35000000000000003,-0.2,0.2,0.3417277488195296,-0.11496136254379892,0.3800000000000001,75,90.0,-90.0,0.08670772667034377,0.31036729000660745,0.3060623458832302,0.2347931944913515,0.0013151430336688784,1.029845150352228,-0.9985558655826285
0.35000000000000003,-0.25,0.2,0.38000000000000006,-0.33,0.3800000000000001,-90,90.0,-90.0,0.06766298004600563,0.8011228544099852,0.612951562669492,-0.19425583097539717,-0.001149193441913431,1.151961656556919,-3.9102389288874453
0.35000000000000003,-0.25,0.2,0.3996832983968738,-0.31950949475004986,0.3800000000000001,-75,90.0,-90.0,0.07336110700062187,0.8162496996460509,0.5310626561367855,-0.07286972024400089,0.00044449395468045667,1.112212624526856,-4.157303093991282
0.35000000000000003,-0.25,0.2,0.4159807621135332,-0.3042820323027551,0.38,-60,90.0,-90.0,0.07850082525719657,0.8199200839087094,0.4484823659897866,0.044633297642773545,-5.937402659016275e-05,1.0768405128742968,-4.4153765213913525
0.35000000000000003,-0.25,0.2,0.43428203230275514,-0.2640192378864668,0.3800000000000001,-30,90.0,-90.0,0.0862245518081764,0.7820053011551595,0.29993141737736445,0.2425898963283325,-0.0002784822914046692,1.027560874981592,-4.976540291747957
0.35000000000000003,-0.25,0.2,0.43503863745620114,-0.24172774881952958,0.38,-15,90.0,-90.0,0.08863278681132568,0.7396258850944697,0.24397750356479894,0.3123936181646868,6.632248943576921e-06,1.0132587939906745,-5.280901211260238
0.35000000000000003,-0.25,0.2,0.4195094947500499,-0.20031670160312626,0.38,15,90.0,-90.0,0.09053874610285136,0.6200765054941008,0.19447789500502208,0.37161438583513334,0.0005151607814463815,1.0039126467177961,-5.924734062685208
0.35000000000000003,-0.25,0.2,0.3417277488195296,-0.1649613625437989,0.3800000000000001,75,90.0,-90.0,0.0828198813056853,0.43142256435078236,0.3700127710258183,0.15117900457184913,0.0009829242772801303,1.0497341850033866,-0.8788180662820281
0.45,0.2,0.2,0.48000000000000004,0.12000000000000001,0.3800000000000001,-90,90.0,-90.0,0.09005623737603431,-0.49958162537363376,-0.15335785528563806,0.7258921649631097,0.0009985839256598083,0.9978418465763654,1.0700878306405848
0.45,0.2,0.2,0.5159807621135332,0.14571796769724493,0.38,-60,90.0,-90.0,0.08416211172835214,-0.6696699638349992,-0.2171052853624746,0.7791400382738728,0.000826216064390711,1.0085337835946824,0.37621251261771
0.45,0.2,0.2,0.5350386374562011,0.20827225118047044,0.38,-15,90.0,-90.0,0.09568764120378628,-0.9010779212726763,-0.09393552385864574,0.6733268993430985,0.0009189790388780405,0.9910830185696129,-0.6399132796264078
0.45,0.2,0.2,0.53,0.23000000000000004,0.3800000000000001,0,90.0,-90.0,0.0997804666744896,-0.9347736425838449,-0.01699752675644557,0.6006655362912091,0.000984145174316723,0.9870633569567733,-0.9360328115551207
0.45,0.2,0.2,0.504282032302755,0.2659807621135332,0.3800000000000001,30,90.0,-90.0,0.09557222008133617,-0.9367132658649497,0.14358611183535336,0.43069640064901576,0.0011324058512979579,0.9970050969876182,-1.460068785669149
0.45,0.2,0.2,0.4640192378864668,0.2842820323027551,0.38,60,90.0,-90.0,0.0899827456778973,-0.8778217719295782,0.2818262908136216,0.2653857522722129,-0.0009128680938778806,1.0237190074633247,-1.9239975308223995
0.45,0.2,0.2,0.4417277488195296,0.2850386374562011,0.3800000000000001,75,90.0,-90.0,0.08733969777003107,-0.8347093297813716,0.33599215617339245,0.19611548566959106,0.00041366329215923174,1.039712135823967,-2.1439118223826155
0.45,0.2,0.2,0.42,0.28,0.3800000000000001,90,90.0,-90.0,0.0852320859269534,-0.7854628577828021,0.3757729784235674,0.14385721864278653,0.0006466901577854212,1.051357500977663,-2.3569973032509393
0.25000000000000006,0.05,0.2,0.2800000000000001,-0.03,0.3800000000000001,-90,90.0,-90.0,0.07686982801016322,0.07108174216951356,0.4664856221253754,0.019504858988947313,0.0009975421393348413,1.0854756735517523,1.6404916029345893
0.25000000000000006,0.05,0.2,0.3159807621135332,-0.004282032302755069,0.38,-60,90.0,-90.0,0.08402029142122364,0.010881720106962731,0.3333504600195035,0.19986833696574752,0.0013792996342875093,1.0374566012779092,1.0573310662025102
0.25000000000000006,0.05,0.2,0.3195094947500499,0.09968329839687373,0.38,15,90.0,-90.0,0.08239535424629049,-0.25651657376023074,0.36609019227909323,0.15638603685656638,0.0012019007686993011,1.0483788769796605,-0.5194265903747946
0.25000000000000006,0.05,0.2,0.26401923788646686,0.1342820323027551,0.38,60,90.0,-90.0,0.06816532125345788,-0.2989661759202392,0.5993507229012276,-0.17380809646813583,0.001097337786276067,1.1451716397417893,-1.346150936682457
0.25000000000000006,0.05,0.2,0.24172774881952963,0.1350386374562011,0.3800000000000001,75,90.0,-90.0,0.06153336230719907,-0.28676128584590205,0.6875895174281624,-0.30859767739105537,0.0002655281674641877,1.1927983590847349,-1.59610596108664
0.25000000000000006,0.05,0.2,0.22000000000000003,0.13000000000000003,0.3800000000000001,90,90.0,-90.0,0.054253424375858915,-0.26455423518879745,0.7749705764977741,-0.4474973488899562,0.0007449142960593518,1.2441011936823707,-1.8348276791636802
0.25000000000000006,0.0,0.2,0.2800000000000001,-0.08,0.3800000000000001,-90,90.0,-90.0,0.07551929167211995,0.18817420319230868,0.4896351956929751,-0.013528113862099945,0.0008540359990999104,1.0936655365234271,1.7580883754772456
0.25000000000000006,0.0,0.2,0.3159807621135332,-0.05428203230275507,0.38,-60,90.0,-90.0,0.08343544920338306,0.14040952757044184,0.34674798137234614,0.1820239112752002,0.0011703009082733174,1.041608749917294,1.1870315228385366
0.25000000000000006,0.0,0.2,0.3195094947500499,0.04968329839687373,0.38,15,90.0,-90.0,0.08415299662139114,-0.13009912239561938,0.33210127432706377,0.20115887841799393,0.0007555290591177622,1.0381177826785086,-0.3912905694504032
0.25000000000000006,0.0,0.2,0.30428203230275513,0.0659807621135332,0.3800000000000001,30,90.0,-90.0,0.08102453380812491,-0.1652949019271004,0.39414738309375164,0.11901658204917961,0.0006886192830996259,1.0584615907195984,-0.6901215458029905
0.25000000000000006,0.0,0.2,0.26401923788646686,0.0842820323027551,0.38,60,90.0,-90.0,0.07151745504685349,-0.19088415004100748,0.5521023560918984,-0.10347603607711349,-0.0005051540639972341,1.1233254380908642,-1.2372834882269717
0.4,0.2,0.2,0.43000000000000005,0.12000000000000001,0.3800000000000001,-90,90.0,-90.0,0.09790825403802533,-0.41855151706274735,0.017880914715549805,0.5653985954344803,0.0011255105408107876,0.987444237028722,1.1514756992667197
0.4,0.2,0.2,0.4842820323027551,0.1859807621135332,0.3800000000000001,-30,90.0,-90.0,0.09867425740888996,-0.7116535648394849,-0.021688851869840133,0.6048499027268079,0.0004317868639656058,0.9873415427888678,-0.1874211420639185
0.4,0.2,0.2,0.4850386374562011,0.20827225118047044,0.38,-15,90.0,-90.0,0.09758729765441473,-0.7696362099396507,0.03229982054721179,0.5505971861314692,0.0001653581803966555,0.9879375165868496,-0.5086726378712073
0.4,0.2,0.2,0.4542820323027551,0.2659807621135332,0.3800000000000001,30,90.0,-90.0,0.0900949881755627,-0.8250352956586631,0.25662650143964433,0.29671048274716655,-0.00036222739788370397,1.0184624665335957,-1.349183255875011
0.35000000000000003,0.25,0.2,0.38000000000000006,0.16999999999999998,0.3800000000000001,-90,90.0,-90.0,0.08808985001930011,-0.48865568312020763,0.2570405581943069,0.2962168750263084,0.001032532503977935,1.0171685337681395,1.081500210435685
0.35000000000000003,0.25,0.2,0.4159807621135332,0.19571796769724492,0.38,-60,90.0,-90.0,0.09049461356666073,-0.603547723568906,0.1959031363566123,0.37006359293218205,-9.28651172035854e-05,1.005817596129123,0.44283366587015216
0.35000000000000003,0.25,0.2,0.43503863745620114,0.2582722511804704,0.38,-15,90.0,-90.0,0.08692763886397535,-0.7727501998075927,0.284248971455738,0.2622502448723056,0.0002747113092327634,1.0253519890114675,-0.5119013391572803
0.35000000000000003,0.25,0.2,0.43000000000000005,0.28,0.3800000000000001,0,90.0,-90.0,0.08378556528769246,-0.8035918794695294,0.35092490376834695,0.1764933875013265,0.0007589533030174595,1.0427614794647482,-0.8048579921929665
0.30000000000000004,0.25,0.2,0.33000000000000007,0.16999999999999998,0.3800000000000001,-90,90.0,-90.0,0.07924865793193678,-0.4307490147590872,0.41600879859149564,0.0893944200961547,0.0009664441608042218,1.0657862195557066,1.1386079844451944
0.30000000000000004,0.25,0.2,0.3496832983968738,0.18049050524995014,0.3800000000000001,-75,90.0,-90.0,0.08174721370895163,-0.4757195182118284,0.3685010859800663,0.15348786951364596,0.00014992296849652953,1.0481433341758617,0.8328914079814047
0.30000000000000004,0.25,0.2,0.36598076211353325,0.19571796769724492,0.38,-60,90.0,-90.0,0.08294649716253315,-0.530301918583358,0.3440418834958111,0.18551898521616225,0.0009807088409411727,1.0409655729946725,0.5171439940653646
0.30000000000000004,0.25,0.2,0.3777817459305203,0.21464466094067264,0.38,-45,90.0,-90.0,0.08292443365556115,-0.5876129813010664,0.3446222032214469,0.18498223681424095,0.00046428650638844773,1.0411634173737463,0.1984607651518707
0.30000000000000004,0.25,0.2,0.3542820323027551,0.3159807621135332,0.3800000000000001,30,90.0,-90.0,0.0641889240226186,-0.7405976405627422,0.6480757282038413,-0.24785119886635726,0.0008964958676503092,1.171076897115101,-1.2638093019475454
0.30000000000000004,0.25,0.2,0.2917277488195296,0.3350386374562011,0.3800000000000001,75,90.0,-90.0,0.03852170393023148,-0.687110134368362,0.9407515015274662,-0.7221348917009527,-0.0012001409025312261,1.3526994149982525,-1.9968055194513803
0.35000000000000003,0.2,0.2,0.38000000000000006,0.12000000000000001,0.3800000000000001,-90,90.0,-90.0,0.09173526368727067,-0.35895461626060227,0.18480892911386493,0.3832146545400603,0.0005390537277334797,1.0037251123291817,-5.071459819872977
0.35000000000000003,0.2,0.2,0.43000000000000005,0.23000000000000004,0.3800000000000001,0,90.0,-90.0,0.09001492116326841,-0.7056940835713463,0.22996789106107207,0.329389269652936,0.0002625879801871233,1.0123372981431116,-0.7061802071802097
0.35000000000000003,0.2,0.2,0.32,0.28,0.3800000000000001,90,90.0,-90.0,0.06437469286913118,-0.6351333931966969,0.6631064711605636,-0.27092499703318046,0.0003841711677630811,1.1790487291849696,-2.2057231493908125
0.30000000000000004,-0.25,0.2,0.3496832983968738,-0.31950949475004986,0.3800000000000001,-75,90.0,-90.0,0.06237472424421957,0.7392777135545194,0.6717527618919273,-0.28439257766207715,0.000889542460411246,1.1828691624704097,-4.235402018326648
0.30000000000000004,-0.25,0.2,0.36598076211353325,-0.3042820323027551,0.38,-60,90.0,-90.0,0.06898545547422015,0.7389110344228853,0.5819752313809826,-0.1475115069190121,0.0002979877281223444,1.1362076812683315,-4.49652768228453
0.30000000000000004,-0.25,0.2,0.3777817459305203,-0.28535533905932736,0.38,-45,90.0,-90.0,0.07432354794808349,0.7249730526019402,0.5004105792078292,-0.02883003595716053,-0.0009664699200719358,1.098606435623538,-4.7721058223459325
0.30000000000000004,-0.25,0.2,0.38503863745620115,-0.24172774881952958,0.38,-15,90.0,-90.0,0.08118784079076918,0.6544961669962307,0.37925264274361714,0.13892062997409968,-0.00033115150527610965,1.0515914888243956,-5.366213523805505
0.30000000000000004,-0.25,0.2,0.38000000000000006,-0.21999999999999997,0.3800000000000001,0,90.0,-90.0,0.08272615031285722,0.6022869115654115,0.34845692768640485,0.17962444635351102,4.5015725654674514e-05,1.0422878936869449,-5.680360508690613
0.30000000000000004,-0.25,0.2,0.3542820323027551,-0.1840192378864668,0.3800000000000001,30,90.0,-90.0,0.08215164087403651,0.4892392040964806,0.3602515937102752,0.16426799316754995,0.0005886989562421648,1.0457761793293479,-6.317006995628504
0.30000000000000004,-0.25,0.2,0.31401923788646685,-0.1657179676972449,0.38,60,90.0,-90.0,0.07663137150787908,0.40542523620036686,0.46220011625459856,0.025279257640186195,0.0011613112980839884,1.0834437653169984,-6.924640612985333
0.30000000000000004,-0.25,0.2,0.2917277488195296,-0.1649613625437989,0.3800000000000001,75,90.0,-90.0,0.07194208048118436,0.3837646110237704,0.5378868516263806,-0.0829117567126882,0.0008577199599107291,1.1161888841091256,-0.9262218021361126
0.30000000000000004,-0.25,0.2,0.27,-0.16999999999999998,0.3800000000000001,90,90.0,-90.0,0.06603112294090259,0.37624431263586594,0.6232065817660096,-0.20988022823776126,0.0008348493429189408,1.1567347102606778,-1.194322858264947
0.4,0.10000000000000002,0.2,0.4850386374562011,0.10827225118047043,0.38,-15,90.0,-90.0,0.08655652089416892,-0.4667359552994801,-0.19258541424234368,0.7591949517474579,0.001054527789150102,1.0035257631883063,-6.488429518265087
0.4,0.10000000000000002,0.2,0.48000000000000004,0.13000000000000006,0.3800000000000001,0,90.0,-90.0,0.09213867199230703,-0.5336606966218983,-0.13343686604315672,0.7084863219636397,0.00043977488047652755,0.9963663977823547,-6.816617710563019
0.4,0.10000000000000002,0.2,0.4695094947500499,0.14968329839687375,0.38,15,90.0,-90.0,0.09921801276960134,-0.5763644593237982,-0.0590177121125056,0.640724441864335,0.0009528657755681934,0.9892818837265445,5.443983343717752
0.4,0.10000000000000002,0.2,0.41401923788646683,0.18428203230275514,0.38,60,90.0,-90.0,0.09438802471606925,-0.5724078306086622,0.17937195880287285,0.38947915306377734,0.000595408283703772,1.002348886335122,4.6626251640461716
0.4,0.10000000000000002,0.2,0.3917277488195296,0.1850386374562011,0.3800000000000001,75,90.0,-90.0,0.09165207128648466,-0.5406837081560715,0.24691558682961978,0.30877982584402874,0.0010851320602537726,1.0148807127559376,4.433198266880448
0.4,0.10000000000000002,0.2,0.37,0.18000000000000005,0.3800000000000001,90,90.0,-90.0,0.08897836194013178,-0.4995801755815094,0.304843356375828,0.23606653165184335,0.0007769476984076584,1.030656633087744,4.213077612907287
0.35000000000000003,0.3,0.2,0.42778174593052026,0.2646446609406726,0.38,-45,90.0,-90.0,0.08450532638973059,-0.7714261154976235,0.3177907760946597,0.2196079104902337,0.001099453217592481,1.033911435348099,0.013345491473199259
0.35000000000000003,0.3,0.2,0.43428203230275514,0.2859807621135332,0.3800000000000001,-30,90.0,-90.0,0.08266700946375821,-0.8221259866920312,0.35609163093623863,0.16973465590430378,-0.00023222831065885315,1.0457655831311004,-0.2985375311202738
0.35000000000000003,0.3,0.2,0.43503863745620114,0.3082722511804704,0.38,-15,90.0,-90.0,0.07968971963033825,-0.8610221455514574,0.4132393015860308,0.09308427369566673,0.0007539377216653733,1.064288914232216,-0.5997155980209644
0.35000000000000003,0.3,0.2,0.43000000000000005,0.33,0.3800000000000001,0,90.0,-90.0,0.0755047878777533,-0.8850885547366307,0.4855893082652672,-0.007735267448334215,0.0010487317575014318,1.0927182354416922,-0.8864216290412636
0.35000000000000003,0.3,0.2,0.4042820323027551,0.3659807621135332,0.3800000000000001,30,90.0,-90.0,0.06375829274697638,-0.8911353151073876,0.6568085912553124,-0.26108860738206024,-0.0007677410398979347,1.1761524330198934,-1.4142353090363826
0.35000000000000003,0.3,0.2,0.3417277488195296,0.3850386374562011,0.3800000000000001,75,90.0,-90.0,0.039998822669440104,-0.8213300570545274,0.9269244791737749,-0.699002900004346,-0.0007826212509934444,1.3430726271588778,-2.131020627067276
0.35000000000000003,0.3,0.2,0.32,0.38,0.3800000000000001,90,90.0,-90.0,0.032068440739062974,-0.7852824260100169,1.004927158631491,-0.8325764326673194,-0.000464748659860793,1.3985252392805687,-2.3551309816478314
0.25000000000000006,0.1,0.2,0.2800000000000001,0.020000000000000004,0.3800000000000001,-90,90.0,-90.0,0.07682273481829725,-0.04770533828969589,0.4637199838812588,0.02337903735689499,0.0010028745469136044,1.0831197469150382,1.5223274320296072
0.25000000000000006,0.1,0.2,0.3277817459305203,0.06464466094067264,0.38,-45,90.0,-90.0,0.08479105459003466,-0.17225235294589694,0.311402373040014,0.2277499667587592,0.0005876558447313355,1.0315954852197655,0.6120257329600914
0.25000000000000006,0.1,0.2,0.33428203230275516,0.08598076211353319,0.3800000000000001,-30,90.0,-90.0,0.0851428818570846,-0.2310023936627542,0.303867741997873,0.23769652992631665,0.0007283909188367749,1.0281902725162506,0.29182890135005246
0.25000000000000006,0.1,0.2,0.3195094947500499,0.14968329839687372,0.38,15,90.0,-90.0,0.07920128394628836,-0.37477764043919515,0.42206560633911266,0.0809710462275827,-0.00021603216017116342,1.0683393266833092,-0.6354994666414641
0.25000000000000006,0.1,0.2,0.30428203230275513,0.1659807621135332,0.3800000000000001,30,90.0,-90.0,0.07487772195168985,-0.3973423658968215,0.4958537624180319,-0.02233723214626056,0.0007839687732973166,1.0979886765783682,-0.9218002109609483
0.25000000000000006,0.1,0.2,0.2853553390593274,0.17778174593052026,0.38,45,90.0,-90.0,0.06940570185931594,-0.40495794319196166,0.5792689524530816,-0.14368827949064017,0.0005153278895642369,1.1348912218861351,-1.191459951225255
0.25000000000000006,0.1,0.2,0.22000000000000003,0.18000000000000005,0.3800000000000001,90,90.0,-90.0,0.047283355468359926,-0.35882728427835825,0.851179596478347,-0.5718347167733037,-0.0007142800353364839,1.2922495624315213,4.354623553387564
0.25000000000000006,-0.3,0.2,0.3159807621135332,-0.35428203230275507,0.38,-60,90.0,-90.0,0.041004272538397016,0.7450657755206477,0.905991432999559,-0.6633859895154489,0.0008496242589197465,1.327782859300032,1.7924918456863506
0.25000000000000006,-0.3,0.2,0.33428203230275516,-0.3140192378864668,0.3800000000000001,-30,90.0,-90.0,0.05831465070813424,0.7093455220480687,0.706013240945628,-0.337776827044426,0.001057825445516222,1.2027672918892993,1.2335452287926782
0.25000000000000006,-0.3,0.2,0.33503863745620116,-0.29172774881952956,0.38,-15,90.0,-90.0,0.06307386001532167,0.6745092044946147,0.6429798534757992,-0.24002515308030045,-0.00042493276095948546,1.1667897114160097,0.9368411700213033
0.25000000000000006,-0.3,0.2,0.33000000000000007,-0.26999999999999996,0.3800000000000001,0,90.0,-90.0,0.06569756983442579,0.630206369534003,0.6061670195438345,-0.18401760991959698,0.0004662719413083701,1.1477696175166745,0.629717918212763
0.25000000000000006,-0.3,0.2,0.3195094947500499,-0.25031670160312625,0.38,15,90.0,-90.0,0.06636908881654476,0.5817681462029259,0.5964742159123518,-0.16942644978616628,0.0008137918847319007,1.1437005414585637,0.3202831334310199
0.25000000000000006,-0.3,0.2,0.30428203230275513,-0.23401923788646678,0.3800000000000001,30,90.0,-90.0,0.06525739159927509,0.5341310827132328,0.6126880857180181,-0.19357618305121527,0.0001071042935020367,1.1507907953332217,0.0097976818916801
0.25000000000000006,-0.3,0.2,0.26401923788646686,-0.21571796769724488,0.38,60,90.0,-90.0,0.056812212804529076,0.45925326987052845,0.7252552431116864,-0.36776278624554865,0.0011576626924942662,1.2133115738861329,-0.5889276655554252
0.25000000000000006,-0.3,0.2,0.22000000000000003,-0.21999999999999997,0.3800000000000001,90,90.0,-90.0,0.037737965432245765,0.42954980200740556,0.9400612406797204,-0.7210718025993549,0.0006008242254007938,1.3519520444150706,-1.141845650548848
0.30000000000000004,0.3,0.2,0.3542820323027551,0.3659807621135332,0.3800000000000001,30,90.0,-90.0,0.0508945484500089,-0.8138382904584563,0.8045007229067456,-0.49529227489443606,-0.0002641575625172307,1.2624413732511803,-1.336630094224322
0.30000000000000004,-0.15000000000000002,0.2,0.33000000000000007,-0.23000000000000004,0.3800000000000001,-90,90.0,-90.0,0.07414070958553959,0.5562794436744202,0.5202341808113443,-0.05711579553415916,0.0005946030731438284,1.1076336228282178,2.126355421759724
0.30000000000000004,-0.15000000000000002,0.2,0.3496832983968738,-0.21950949475004988,0.3800000000000001,-75,90.0,-90.0,0.0791561507760603,0.5594810988659051,0.43826808421464475,0.058639437394041,0.0008574224303044938,1.073227315778381,1.8671764550715726
0.30000000000000004,-0.15000000000000002,0.2,0.36598076211353325,-0.2042820323027551,0.38,-60,90.0,-90.0,0.08341044505314107,0.5489188834553487,0.36001048547148334,0.16459586237479867,-0.0007588524966340877,1.0458057445119078,1.5963847197223526
0.30000000000000004,-0.15000000000000002,0.2,0.3777817459305203,-0.18535533905932738,0.38,-45,90.0,-90.0,0.08674930513511044,0.5219672262307089,0.29007905591215355,0.25497577863035764,0.0010326686557182636,1.0260989962461675,1.3059574119964035
0.30000000000000004,-0.15000000000000002,0.2,0.38428203230275515,-0.16401923788646683,0.3800000000000001,-30,90.0,-90.0,0.08912768459344333,0.47873881340491997,0.23390740358787598,0.3246097860137579,0.0009313021171252127,1.0124947803294935,1.0008995147344175
0.30000000000000004,-0.15000000000000002,0.2,0.38503863745620115,-0.1417277488195296,0.38,-15,90.0,-90.0,0.09052514322430345,0.4228174532458787,0.19708861814880646,0.36831761789855416,-0.00012363578334353867,1.0046687982306588,0.683838227159281
0.30000000000000004,-0.15000000000000002,0.2,0.3695094947500499,-0.1003167016031263,0.38,15,90.0,-90.0,0.09052636141979753,0.29484379711556025,0.1972579070801853,0.36833560889700234,0.00031219749953018117,1.0045471684446003,0.032153425371989924
0.30000000000000004,-0.15000000000000002,0.2,0.31401923788646685,-0.06571796769724492,0.38,60,90.0,-90.0,0.08342015455668408,0.16853285623764755,0.3600466366580144,0.1647253745501687,0.0013549156350596615,1.045940070303791,-0.8801868650249817
0.30000000000000004,-0.15000000000000002,0.2,0.27,-0.06999999999999999,0.3800000000000001,90,90.0,-90.0,0.0741671092379772,0.16120197088960303,0.5196837171124621,-0.056561901260885034,0.0008941050539436968,1.1065908735423422,-1.410807538828308
0.35000000000000003,0.35,0.2,0.38000000000000006,0.26999999999999996,0.3800000000000001,-90,90.0,-90.0,0.07632297229935456,-0.7007525130601931,0.4570964647385177,0.032673014858635364,5.79136174043031e-05,1.0801066940583353,-5.412360014551851
0.35000000000000003,0.35,0.2,0.43000000000000005,0.38,0.3800000000000001,0,90.0,-90.0,0.06439891578291938,-0.9530767682497537,0.638837635463984,-0.23340894917909435,0.0011500490444284884,1.1654316338391264,-0.9533253106687315
0.35000000000000003,0.35,0.2,0.4042820323027551,0.4159807621135332,0.3800000000000001,30,90.0,-90.0,0.047884004124535855,-0.952703355363693,0.8390432207317549,-0.5519544675813687,-0.00023936141315275512,1.2840863312462052,-1.4755083380440936
0.35000000000000003,0.35,0.2,0.36401923788646684,0.4342820323027551,0.38,60,90.0,-90.0,0.020254484695437818,-0.9123266941767189,1.1119942390527366,-1.0214806336700988,-0.00039740352117702304,1.4804086982189342,-1.9593417247799785
0.45,0.25,0.2,0.5159807621135332,0.19571796769724492,0.38,-60,90.0,-90.0,0.09531196752053565,-0.816356672145326,-0.082445288035887,0.662749192318702,0.0008184713153911969,0.9903817604334262,-6.052568398333521
0.45,0.25,0.2,0.5350386374562011,0.2582722511804704,0.38,-15,90.0,-90.0,0.09716796020680071,-1.0023930891673298,0.058232950500908875,0.5236662850774287,0.000709977387574408,0.9884004585848875,-0.7418708719279034
0.45,0.25,0.2,0.4640192378864668,0.3342820323027551,0.38,60,90.0,-90.0,0.08182300040275732,-0.9561102647413036,0.4230024186951508,0.07993302594764418,0.000746732550383242,1.0679071376203064,-2.0041711376732434
0.45,0.25,0.2,0.4417277488195296,0.3350386374562011,0.3800000000000001,75,90.0,-90.0,0.07877725833803156,-0.9138535180378147,0.47323315118233444,0.009884636545040985,-0.00114062210516548,1.088025696826375,-2.222352047553901
0.20000000000000007,-0.05,0.2,0.2496832983968738,-0.11950949475004985,0.3800000000000001,-75,90.0,-90.0,0.06431593240575544,0.2592992068660039,0.6377958604434243,-0.23163368027105677,0.0003423177171367887,1.1637096868066825,1.568433904323027
0.20000000000000007,-0.05,0.2,0.2659807621135333,-0.10428203230275507,0.38,-60,90.0,-90.0,0.06971127298295486,0.23591958462581097,0.5606569401392641,-0.11590613907628515,-0.0002824267328580853,1.1250231854770096,1.2822850173750202
0.20000000000000007,-0.05,0.2,0.2777817459305203,-0.08535533905932736,0.38,-45,90.0,-90.0,0.07346339507949184,0.19932489429926636,0.5017908842265036,-0.03068953478117339,0.0002222097557449155,1.0994407881082857,0.9837082230396107
0.20000000000000007,-0.05,0.2,0.28503863745620117,-0.04172774881952959,0.38,-15,90.0,-90.0,0.07643012340799993,0.10010653417250162,0.45165387740050084,0.04023304189624736,0.0008806277749408943,1.0785971731550201,0.3624945187245726
0.20000000000000007,-0.05,0.2,0.25428203230275515,0.015980762113533192,0.3800000000000001,30,90.0,-90.0,0.06979137575766717,-0.0358837887130204,0.5591673893269562,-0.11421971941806125,0.0011658649800985797,1.1253554987459562,-0.559487685180005
0.20000000000000007,-0.05,0.2,0.23535533905932743,0.027781745930520255,0.38,45,90.0,-90.0,0.06441541290758684,-0.05998639327125252,0.6362169984532812,-0.22966103267049617,0.0006449855055242538,1.164586970615286,-0.8446562570143583
0.20000000000000007,-0.05,0.2,0.19172774881952964,0.03503863745620109,0.3800000000000001,75,90.0,-90.0,0.0481401760488477,-0.06878880689571479,0.8349481418492404,-0.5451786420116518,-0.0007350338689163866,1.2819348665926749,-1.3769323862948606
0.20000000000000007,-0.05,0.2,0.17000000000000004,0.030000000000000027,0.3800000000000001,90,90.0,-90.0,0.03635783397554783,-0.05663520706221364,0.9585871044078489,-0.7529951010744744,0.00010815865767291116,1.3653202219644307,-1.6264939802239418
0.45,0.3,0.2,0.49968329839687375,0.23049050524995013,0.3800000000000001,-75,90.0,-90.0,0.09613594422921765,-0.8555001723017159,0.054448050256713475,0.5280692225576236,0.0008327938433276279,0.9885472481641542,-5.829194275050242
0.45,0.3,0.2,0.5342820323027551,0.2859807621135332,0.3800000000000001,-30,90.0,-90.0,0.09351466080902679,-1.045651411199284,0.14450423419189912,0.4294360007644691,0.0003613558245221897,0.9977157590127216,-6.805531113635878
0.45,0.3,0.2,0.5350386374562011,0.3082722511804704,0.38,-15,90.0,-90.0,0.09108387879348362,-1.0796653145397765,0.21224163674896607,0.3508601710682692,0.0010243727036281225,1.0072439884470565,5.464140158958338
0.45,0.3,0.2,0.504282032302755,0.3659807621135332,0.3800000000000001,30,90.0,-90.0,0.07970686443036851,-1.0798387402842742,0.4444850496033484,0.050129630537405476,0.00012079543864449853,1.0769105054594106,4.6787144624618
0.45,0.3,0.2,0.4640192378864668,0.3842820323027551,0.38,60,90.0,-90.0,0.07092313333967365,-1.0199434259526698,0.5788650123894263,-0.14334779291857916,-0.0007730382875423344,1.1357882853382752,4.216804268156046
0.4,0.25,0.2,0.43000000000000005,0.16999999999999998,0.3800000000000001,-90,90.0,-90.0,0.09479360306319287,-0.5620466543518151,0.1033894234972175,0.47528346025818224,0.0009804905428780395,0.9920686699258163,1.0080878538347053
0.4,0.25,0.2,0.44968329839687377,0.18049050524995014,0.3800000000000001,-75,90.0,-90.0,0.09583296212996449,-0.6249884780312134,0.06601990195915813,0.5157396697406414,0.0003730452980882528,0.988443533463666,0.6840738840069241
0.4,0.25,0.2,0.46598076211353323,0.19571796769724492,0.38,-60,90.0,-90.0,0.09615048610064982,-0.6967518520036786,0.05352605183885762,0.5287998448859484,0.0012121336924092849,0.9886033430874727,0.35007307277805666
0.4,0.25,0.2,0.47778174593052025,0.21464466094067264,0.38,-45,90.0,-90.0,0.09579991070620704,-0.7683070889466348,0.06713269624058858,0.5144040318993945,0.0004912499326479808,0.9882705910302672,0.016556916317723543
0.4,0.25,0.2,0.4850386374562011,0.2582722511804704,0.38,-15,90.0,-90.0,0.09285187805687499,-0.8771026181954618,0.16408381816096138,0.40715655263029576,0.0015291566999751309,0.999377615557833,-0.6168653891439083
0.35000000000000003,-0.3,0.2,0.38000000000000006,-0.38,0.3800000000000001,-90,90.0,-90.0,0.05439418426594084,0.8709273367048525,0.7719044950674091,-0.4422430563126044,-0.0003303260931434405,1.24049522620636,2.4409497802673474
0.35000000000000003,-0.3,0.2,0.42778174593052026,-0.33535533905932735,0.38,-45,90.0,-90.0,0.07424269768792938,0.8890512847553027,0.506183200376619,-0.03674631848148407,-0.00020176114488572707,1.1009154788452216,-4.608477930585263
0.35000000000000003,-0.3,0.2,0.43428203230275514,-0.3140192378864668,0.3800000000000001,-30,90.0,-90.0,0.07874719713081962,0.8684588374272012,0.4303418302740816,0.06978898582775891,0.0011104626857990963,1.0699014914569838,-4.891062308343557
0.35000000000000003,-0.3,0.2,0.43000000000000005,-0.26999999999999996,0.3800000000000001,0,90.0,-90.0,0.08415421719192334,0.7851819519634189,0.3253591681971073,0.21008529120859762,7.671368744589023e-05,1.0341795615086364,-5.4974102067078885
0.35000000000000003,-0.3,0.2,0.4195094947500499,-0.25031670160312625,0.38,15,90.0,-90.0,0.08511512531981795,0.7284849630867757,0.3045531918994294,0.23688549199353498,0.00034007352342872374,1.028116548602742,-5.8158946217775895
0.35000000000000003,-0.3,0.2,0.3853553390593274,-0.22221825406947973,0.38,45,90.0,-90.0,0.08358356581794005,0.6147877518055934,0.3373849918588924,0.19443603154510156,0.0007274666862666124,1.0382704746606732,-6.454225753061273
0.35000000000000003,-0.3,0.2,0.3417277488195296,-0.21496136254379888,0.3800000000000001,75,90.0,-90.0,0.07737212686213182,0.5402840508024415,0.45425530275649484,0.03634078909429729,0.0013133971029480412,1.0802271820663565,5.513370534301114
0.35000000000000003,-0.3,0.2,0.32,-0.21999999999999997,0.3800000000000001,90,90.0,-90.0,0.07252907534354236,0.5244600137210451,0.5330696268309569,-0.0755569545736094,0.0013695863962560765,1.1135988188082866,5.235594486015004
0.5,0.05,0.2,0.5659807621135332,-0.004282032302755069,0.38,-60,90.0,-90.0,0.05002880899379218,0.031080498357843288,-0.6934647895199494,1.068852527838382,0.0009336583780720632,1.1952765356518005,1.0779100411912697
0.35000000000000003,-0.05,0.2,0.38000000000000006,-0.13,0.3800000000000001,-90,90.0,-90.0,0.09270066734486547,0.385782068606399,0.19718606344866924,0.368434012189945,0.0006223790676050224,1.0043509054926572,1.9558483488028557
0.35000000000000003,-0.05,0.2,0.3996832983968738,-0.11950949475004985,0.3800000000000001,-75,90.0,-90.0,0.09543858539328881,0.3784363774512099,0.11868248173642486,0.4583208276749514,0.0010810741140724214,0.9938862559030279,1.6859296589581145
0.35000000000000003,-0.05,0.2,0.4159807621135332,-0.10428203230275507,0.38,-60,90.0,-90.0,0.09752140440286002,0.3517634287661809,0.044100193285458236,0.5387804419309721,0.001196403039596403,0.9871040494302031,1.3982796656501124
0.35000000000000003,-0.05,0.2,0.42778174593052026,-0.08535533905932736,0.38,-45,90.0,-90.0,0.09884193239738351,0.3037725526055058,-0.019611019530950815,0.6030193150142694,0.0005932719898294441,0.9866316109301265,1.087913329235368
0.35000000000000003,-0.05,0.2,0.43428203230275514,-0.06401923788646682,0.3800000000000001,-30,90.0,-90.0,0.0970501287727051,0.23595580605679603,-0.06471671502040911,0.6464546562147028,0.001119954945075889,0.9895000783257577,0.7580402307488849
0.35000000000000003,-0.05,0.2,0.43503863745620114,-0.04172774881952959,0.38,-15,90.0,-90.0,0.09517647991232929,0.15570002644197406,-0.08427228991764307,0.6643831883420129,0.0010569229090685794,0.9913685682425839,0.4176226847337574
0.35000000000000003,-0.05,0.2,0.43000000000000005,-0.01999999999999997,0.3800000000000001,0,90.0,-90.0,0.09606125058994536,0.07370361935331217,-0.07486437829268987,0.6556331669846622,0.0010782833034403364,0.9899566035169638,0.07222466197230051
0.35000000000000003,-0.05,0.2,0.3417277488195296,0.03503863745620109,0.3800000000000001,75,90.0,-90.0,0.09063382873538059,-0.09778778853510253,0.24860651317928734,0.3068141345493837,0.0009717897557220561,1.0153628554519616,-1.4074275430254546
0.30000000000000004,-0.05,0.2,0.33000000000000007,-0.13,0.3800000000000001,-90,90.0,-90.0,0.08396517753878349,0.33784598975219327,0.3618893615181427,0.16217661547802315,0.0007468990394232934,1.0464566764442003,-4.3741181443767
0.30000000000000004,-0.05,0.2,0.3496832983968738,-0.11950949475004985,0.3800000000000001,-75,90.0,-90.0,0.08771364561101762,0.32858002537932635,0.28396460499645076,0.2626971277035126,0.0005783856503066126,1.0233964665695479,-4.645402538860322
0.30000000000000004,-0.05,0.2,0.36598076211353325,-0.10428203230275507,0.38,-60,90.0,-90.0,0.09066100847711786,0.3021915980652143,0.21321413452763716,0.349558149150819,0.0012381513034990263,1.0073528472718722,-4.934909663563337
0.30000000000000004,-0.05,0.2,0.3777817459305203,-0.08535533905932736,0.38,-45,90.0,-90.0,0.09278700540456519,0.25889727497354403,0.1545202382613071,0.41823665887684053,-0.00048518763687671504,0.996781920511002,-5.238225676367559
0.30000000000000004,-0.05,0.2,0.38428203230275515,-0.06401923788646682,0.3800000000000001,-30,90.0,-90.0,0.09406539995608869,0.1997615635478487,0.1145446763309656,0.4630104813767511,0.000607434889095396,0.9935109685324698,-5.560802451013686
0.30000000000000004,-0.05,0.2,0.3542820323027551,0.015980762113533192,0.3800000000000001,30,90.0,-90.0,0.0911820743062408,-0.04652227022612512,0.19942500551591005,0.36556202686116296,0.0011033629586804361,1.0055455575048817,-6.853412949433954
0.30000000000000004,-0.05,0.2,0.31401923788646685,0.0342820323027551,0.38,60,90.0,-90.0,0.08478658709912745,-0.0889575699315583,0.34563694544393375,0.18339124601835075,0.0011763606724085975,1.0416491481957626,-1.1371700560695719
0.30000000000000004,-0.05,0.2,0.27,0.030000000000000027,0.3800000000000001,90,90.0,-90.0,0.0757897947403862,-0.06980099350586899,0.5030807590735111,-0.03263553638515885,0.0009924504194891166,1.1001034115391881,-1.64075394603447
0.35000000000000003,-0.10000000000000002,0.2,0.38000000000000006,-0.18000000000000002,0.3800000000000001,-90,90.0,-90.0,0.08923188176364596,0.5124553429107735,0.27380497079141575,0.2753803121436708,-4.350907332316672e-05,1.0205166813846498,2.0824803313171416
0.35000000000000003,-0.10000000000000002,0.2,0.3996832983968738,-0.16950949475004987,0.3800000000000001,-75,90.0,-90.0,0.09247832685862993,0.5136723929895197,0.19550116397280026,0.37055604773910317,-0.00019662102778024863,1.0043674842092847,1.82187739857028
0.35000000000000003,-0.10000000000000002,0.2,0.4159807621135332,-0.15428203230275508,0.38,-60,90.0,-90.0,0.09514809460733863,0.4974653765145529,0.1184562346428657,0.4588614184530706,0.0008117386002645314,0.9929096652118317,1.5446972496868774
0.35000000000000003,-0.10000000000000002,0.2,0.42778174593052026,-0.1353553390593274,0.38,-45,90.0,-90.0,0.09706871092659387,0.46123728755096105,0.04958109412283041,0.5329069748516246,0.0003787026984584729,0.9880512491725983,1.2455768939004455
0.35000000000000003,-0.10000000000000002,0.2,0.43503863745620114,-0.09172774881952961,0.38,-15,90.0,-90.0,0.09882795928815818,0.33311706989458867,-0.038135706650946406,0.6211415620824822,0.0010003737451789783,0.9875300392137663,0.5947227958506383
0.35000000000000003,-0.10000000000000002,0.2,0.4195094947500499,-0.05031670160312629,0.38,15,90.0,-90.0,0.09856308980354374,0.1773011869665798,-0.020366098720520656,0.6040253301832814,0.0011013582147585514,0.9880859585031446,-0.08596068186428309
0.35000000000000003,-0.10000000000000002,0.2,0.36401923788646684,-0.015717967697244914,0.38,60,90.0,-90.0,0.09359157440155891,0.04628793919024016,0.16535790975896156,0.4056022504414998,0.0012067658518126563,1.0001137953000536,-1.0023647574529557
0.20000000000000007,0.10000000000000002,0.2,0.2300000000000001,0.020000000000000018,0.3800000000000001,-90,90.0,-90.0,0.06277912568323586,-0.0424101857142684,0.6561411141565063,-0.2601680129151348,-0.0005095972773170614,1.1742137126594017,1.5279861933703072
0.20000000000000007,0.10000000000000002,0.2,0.2496832983968738,0.030490505249950173,0.3800000000000001,-75,90.0,-90.0,0.06825616536577275,-0.06740585669239858,0.579489130883418,-0.14413710694545182,-0.0007226799156127361,1.134376162408993,1.2417885517394553
0.20000000000000007,0.10000000000000002,0.2,0.2659807621135333,0.04571796769724495,0.38,-60,90.0,-90.0,0.07195545486583456,-0.10496485519593644,0.5232797894981507,-0.06129455713494849,0.0004946755712997033,1.108948404406208,0.9426381906928678
0.20000000000000007,0.10000000000000002,0.2,0.2777817459305203,0.06464466094067266,0.38,-45,90.0,-90.0,0.0741080473958285,-0.152109440557336,0.4881068941317679,-0.011087426468564436,0.0005650192726563481,1.0935342250490476,0.6321842914377043
0.20000000000000007,0.10000000000000002,0.2,0.28503863745620117,0.10827225118047043,0.38,-15,90.0,-90.0,0.07368486079058938,-0.2552679962902258,0.49497978205386345,-0.02109748010636305,0.00025216065356116913,1.097554942071,0.007165155892253231
0.20000000000000007,0.10000000000000002,0.2,0.19172774881952964,0.1850386374562011,0.3800000000000001,75,90.0,-90.0,0.028791998148246407,-0.34917047985483873,1.031851127662173,-0.8795111863203285,0.0004020827807655761,1.4182036457792504,-1.6588495030671853
0.35000000000000003,-0.1,0.2,0.38000000000000006,-0.18,0.3800000000000001,-90,90.0,-90.0,0.08924652183338379,0.5124269719653526,0.27375047342860354,0.27557920988406076,-0.0010868565005008463,1.0209108401763076,-4.199446646460752
0.35000000000000003,-0.1,0.2,0.3996832983968738,-0.16950949475004984,0.3800000000000001,-75,90.0,-90.0,0.09249474854589666,0.5138024684147092,0.19507391171877572,0.37095302662705465,-0.00047980742757487184,1.0039492217231483,-4.4598761174021
0.35000000000000003,-0.1,0.2,0.4159807621135332,-0.15428203230275508,0.38,-60,90.0,-90.0,0.0951508586352977,0.4978352057934861,0.11855438480678696,0.45884788864165016,-0.0009645543721853967,0.992656742112588,-4.736701023679601
0.35000000000000003,-0.1,0.2,0.3853553390593274,-0.022218254069479748,0.38,45,90.0,-90.0,0.09598092502018078,0.07019512662063249,0.09053077053342927,0.48922791886801,6.845285798856809e-06,0.9911398762902891,-0.7152564574416933
0.30000000000000004,-0.3,0.2,0.3496832983968738,-0.36950949475004985,0.3800000000000001,-75,90.0,-90.0,0.04838774641113826,0.8119061685334747,0.8325507218377856,-0.5413049193396816,0.0002129037921210469,1.2788701547334913,-4.163095451051624
0.30000000000000004,-0.3,0.2,0.36598076211353325,-0.35428203230275507,0.38,-60,90.0,-90.0,0.05747642942707923,0.8150370350207449,0.726740826752687,-0.3702202848501497,-0.00027720110291681616,1.2133219683546999,-4.420836684822376
0.30000000000000004,-0.3,0.2,0.3777817459305203,-0.33535533905932735,0.38,-45,90.0,-90.0,0.06464611579073601,0.8053210754856079,0.63399646936028,-0.22593758971883707,5.147448799516807e-05,1.161786056573408,-4.6922254684607365
0.30000000000000004,-0.3,0.2,0.38503863745620115,-0.29172774881952956,0.38,-15,90.0,-90.0,0.07386789539125259,0.7472206087022261,0.4964180547281483,-0.022704472102873,-0.0005860546148484474,1.096242980401664,-5.274226682267453
0.30000000000000004,-0.3,0.2,0.38000000000000006,-0.26999999999999996,0.3800000000000001,0,90.0,-90.0,0.07617299113313084,0.70087407933674,0.4572282209017963,0.032274509491121706,0.0002814208705203662,1.0808288110274953,-5.581689149136031
0.30000000000000004,-0.3,0.2,0.3695094947500499,-0.25031670160312625,0.38,15,90.0,-90.0,0.07702345912790066,0.6481081874627036,0.44234563688794487,0.05316564494119436,0.000246126780232737,1.0744651750716494,-5.896276296551014
0.30000000000000004,-0.3,0.2,0.3542820323027551,-0.23401923788646678,0.3800000000000001,30,90.0,-90.0,0.0764394641371215,0.5951747191450514,0.45275636616513054,0.03876943138379435,0.00023401637920815116,1.0787921888256553,-6.211013767374811
0.30000000000000004,-0.3,0.2,0.27,-0.21999999999999997,0.3800000000000001,90,90.0,-90.0,0.05881259546164501,0.47296340857133157,0.7102297422920154,-0.3441392570854106,0.0006639788041808263,1.2052001257179037,5.184375254654122
0.4,-0.2,0.2,0.43000000000000005,-0.28,0.3800000000000001,-90,90.0,-90.0,0.08561568812234849,0.8034962327338456,0.35066599910917,0.1768178589424457,-0.0005419132491177997,1.0426957923743407,2.373636543493395
0.4,-0.2,0.2,0.44968329839687377,-0.26950949475004987,0.3800000000000001,-75,90.0,-90.0,0.0892392252539377,0.8223680508812384,0.2759423754119935,0.27273819565648105,-0.0005013135109349315,1.0218278018101135,2.1322104746465986
0.4,-0.2,0.2,0.47778174593052025,-0.23535533905932737,0.38,-45,90.0,-90.0,0.09519205414940411,0.814252823052691,0.11983837826614803,0.4567747724278525,-0.0008510310854740689,0.9932187778115809,1.5996500874350417
0.4,-0.2,0.2,0.4842820323027551,-0.21401923788646682,0.3800000000000001,-30,90.0,-90.0,0.09720590080014699,0.7816712837173462,0.04848269873155382,0.5341602711297619,-0.0003000054027584672,0.9871783871871829,1.3044845657173347
0.4,-0.2,0.2,0.4850386374562011,-0.1917277488195296,0.38,-15,90.0,-90.0,0.09845961793194213,0.7278201585285127,-0.009589246076625499,0.5930492078246583,0.0009359337470808366,0.9869377037197632,0.9889016422164782
0.4,-0.2,0.2,0.48000000000000004,-0.16999999999999998,0.3800000000000001,0,90.0,-90.0,0.09832026554270872,0.6578988284914313,-0.04727970863891998,0.6300734525560349,0.0001614369343023649,0.9866400972523452,0.6570339527997613
0.4,-0.2,0.2,0.4695094947500499,-0.15031670160312627,0.38,15,90.0,-90.0,0.09730958176997297,0.5774726152886624,-0.057915864097001515,0.6399362091861356,0.0007275644329008016,0.987598390719035,0.3146830482010125
0.4,-0.2,0.2,0.4542820323027551,-0.1340192378864668,0.3800000000000001,30,90.0,-90.0,0.09888566877102917,0.49900477678068034,-0.04006245650611669,0.6231682418275373,0.000904873355695067,0.9869598560411593,-0.024277923818635395
0.4,-0.2,0.2,0.4353553390593274,-0.12221825406947975,0.38,45,90.0,-90.0,0.09821113997096546,0.43221152148292846,0.003467930884541629,0.5799553128118208,0.0013791108170147256,0.9870616900655933,-0.35461630144889855
0.4,-0.2,0.2,0.3917277488195296,-0.11496136254379892,0.3800000000000001,75,90.0,-90.0,0.09459272158368272,0.3569176292316593,0.1390546973314828,0.4358769008702598,0.000777744982110422,0.9951537495971803,-0.9528346252169991
0.4,-0.2,0.2,0.37,-0.11999999999999998,0.3800000000000001,90,90.0,-90.0,0.09171436815951997,0.34875906559789416,0.21742058275446163,0.3442547855668698,0.0008721796898811352,1.0084111891306158,-1.221663459885603
0.5,-0.2,0.2,0.53,-0.28,0.3800000000000001,-90,90.0,-90.0,0.09683476194088624,1.0248875205739734,0.13381756300755132,0.4412790718209091,0.0002527990697762338,0.9955635108542565,2.5947230350023807
0.5,-0.2,0.2,0.5496832983968737,-0.26950949475004987,0.3800000000000001,-75,90.0,-90.0,0.09892418549237522,1.0622859883094553,0.06546546596965065,0.5159682123744663,-0.0006678471447583457,0.9885645317302847,2.3717248487723532
0.5,-0.2,0.2,0.5842820323027551,-0.21401923788646682,0.3800000000000001,-30,90.0,-90.0,0.08872774523647455,1.0756175707378577,-0.18251851492939827,0.7506617786893937,-0.0008678331267937936,1.0018206668850635,1.5989561253133533
0.5,-0.2,0.2,0.5695094947500499,-0.15031670160312627,0.38,15,90.0,-90.0,0.07227975967779501,0.8559371386177733,-0.3702256725358725,0.891679165669517,0.0002890100654400865,1.0484986779546839,0.5949318484875484
0.5,-0.2,0.2,0.5353553390593273,-0.12221825406947975,0.38,45,90.0,-90.0,0.07452289264366033,0.6384930786823408,-0.34369578448966487,0.8732659805266436,1.8528385926591543e-05,1.0402670119534094,-0.14743792947516327
0.5,-0.2,0.2,0.47,-0.11999999999999998,0.3800000000000001,90,90.0,-90.0,0.09476162451910651,0.480565597779486,-0.11811766336131373,0.6955063614183029,0.0005124166719315642,0.9940209371580082,-1.091428747346773
0.4,0.3,0.2,0.48000000000000004,0.33,0.3800000000000001,0,90.0,-90.0,0.0825481721955387,-0.9826560549247131,0.37840584550983103,0.14037485025266513,-0.0005975282583499308,1.0525150437339006,-0.9817673181434031
0.4,0.3,0.2,0.41401923788646683,0.3842820323027551,0.38,60,90.0,-90.0,0.06162945695972301,-0.9311012067916918,0.6928930782462206,-0.3169578120229483,-0.0002698089433371858,1.1949242090266938,-1.9786161272183853
0.35000000000000003,-0.35,0.2,0.38000000000000006,-0.43,0.3800000000000001,-90,90.0,-90.0,0.03290783332464908,0.9309046126628889,0.9935801059458252,-0.812964913782787,0.0005227475055353445,1.389824797317164,2.5010817664940728
0.35000000000000003,-0.35,0.2,0.3996832983968738,-0.41950949475004984,0.3800000000000001,-75,90.0,-90.0,0.045186180855046866,0.9493142510592798,0.8683634777616511,-0.6004684050859364,0.0011152891046069023,1.302839182924914,2.2576414570219034
0.35000000000000003,-0.35,0.2,0.42778174593052026,-0.38535533905932734,0.38,-45,90.0,-90.0,0.06264373805989565,0.9557515782212752,0.662172433374079,-0.26939455459425055,-0.00029793427683711966,1.1779498854040371,1.7406411494520435
0.35000000000000003,-0.35,0.2,0.43503863745620114,-0.34172774881952955,0.38,-15,90.0,-90.0,0.07327999072816299,0.911016129371116,0.508061980630277,-0.03945086206647143,0.0010705774172751138,1.1024402033295808,1.172832985198369
0.35000000000000003,-0.35,0.2,0.4042820323027551,-0.28401923788646677,0.3800000000000001,30,90.0,-90.0,0.078083821724559,0.7651603319573735,0.4258931897663422,0.07612154235073139,-1.3681562972483281e-05,1.0681822466871291,0.24237395684953547
0.35000000000000003,-0.35,0.2,0.36401923788646684,-0.2657179676972449,0.38,60,90.0,-90.0,0.07418352296285226,0.6689318667218604,0.493146924117212,-0.01832303772898415,0.0010341622185382163,1.0954669107618618,-0.3783452975203365
0.35000000000000003,-0.35,0.2,0.32,-0.26999999999999996,0.3800000000000001,90,90.0,-90.0,0.06439629950357242,0.6178079432781532,0.6388480037697368,-0.23338508991004048,0.0006958651563258333,1.1648651599215187,-0.9527916714436782
0.20000000000000007,0.0,0.2,0.2300000000000001,-0.08,0.3800000000000001,-90,90.0,-90.0,0.06096254636450789,0.16864678583604548,0.6828381230160596,-0.30130306683535174,0.00014235948352385355,1.1892434175878859,1.738620087718184
0.20000000000000007,0.0,0.2,0.2496832983968738,-0.06950949475004985,0.3800000000000001,-75,90.0,-90.0,0.06730739703156248,0.15334570019830787,0.5964961943216762,-0.16967242090880064,-0.0007947375481552551,1.1430339336314708,1.4629471598477366
0.20000000000000007,0.0,0.2,0.2659807621135333,-0.05428203230275507,0.38,-60,90.0,-90.0,0.07198284911414403,0.12445119458673114,0.526590937944702,-0.0663199593505508,-8.783164890445005e-05,1.1099712268153803,1.1723511167675404
0.20000000000000007,0.0,0.2,0.2777817459305203,-0.03535533905932736,0.38,-45,90.0,-90.0,0.07509269726925939,0.08330383652083848,0.4759466025576005,0.0061873812322760955,0.0005043929412292755,1.0893934141973098,0.8679748384604675
0.20000000000000007,0.0,0.2,0.28503863745620117,0.008272251180470414,0.38,-15,90.0,-90.0,0.07693212467815391,-0.0198612362365506,0.4441424779045001,0.050823716698582946,0.00019455589141746763,1.0760083516960717,0.24233550444255567
0.20000000000000007,0.0,0.2,0.2695094947500499,0.04968329839687373,0.38,15,90.0,-90.0,0.07291482124496687,-0.11491911138450528,0.5117947098663327,-0.044930311002786744,0.0008520086943261118,1.1038485473444581,-0.37754690283168457
0.20000000000000007,0.0,0.2,0.25428203230275515,0.0659807621135332,0.3800000000000001,30,90.0,-90.0,0.06866495947042237,-0.14704035241781457,0.5769800851765733,-0.14029417042987818,0.0005809950472082603,1.1339664921596042,-0.6701564836258643
0.20000000000000007,0.0,0.2,0.23535533905932743,0.07778174593052026,0.38,45,90.0,-90.0,0.06271477207743782,-0.16578380849003554,0.6597374540678478,-0.2657896636068098,-0.000257244775949342,1.1773396010744155,-0.9503875981083598
0.20000000000000007,0.0,0.2,0.2140192378864669,0.0842820323027551,0.38,60,90.0,-90.0,0.055116060021396046,-0.17166685519245173,0.755244447499075,-0.4158139553826391,0.00019201449305105187,1.231218207924617,-1.2181972662582221
0.20000000000000007,0.0,0.2,0.19172774881952964,0.08503863745620109,0.3800000000000001,75,90.0,-90.0,0.04537967548193952,-0.1659954194367667,0.8654546897141767,-0.5956698857345435,0.0007636811220788584,1.3003464010683534,-1.474418237011123
0.20000000000000007,0.2,0.2,0.2777817459305203,0.16464466094067265,0.38,-45,90.0,-90.0,0.06704573519434265,-0.37191217689164086,0.5875315148371401,-0.15585613289155958,0.0005479167961676935,1.1395437050909332,-5.870170865065276
0.20000000000000007,0.2,0.2,0.28503863745620117,0.20827225118047044,0.38,-15,90.0,-90.0,0.06395571674900266,-0.4652095127324536,0.6315611830836413,-0.2225367426524368,0.00046040232883482206,1.162112833723296,-6.486208079293165
0.20000000000000007,0.2,0.2,0.25428203230275515,0.2659807621135332,0.3800000000000001,30,90.0,-90.0,0.04291052820617909,-0.5381707945969304,0.88607321890642,-0.6299712767576297,0.0009486585223373253,1.31493723700173,5.220442308665663
0.45,-1.3877787807814457e-17,0.2,0.5159807621135332,-0.054282032302755086,0.38,-60,90.0,-90.0,0.07072262546789258,0.2864987610887365,-0.40259860475677506,0.9128316491516443,0.00032897568101297985,1.0606763102852539,1.3335390463085595
0.45,-1.3877787807814457e-17,0.2,0.5277817459305203,-0.035355339059327376,0.38,-45,90.0,-90.0,0.06466230340279916,0.20193451996764278,-0.47837792308092836,0.9593090430622385,0.00088495131462185,1.0893620851030463,0.9863928283243808
0.45,-1.3877787807814457e-17,0.2,0.5342820323027551,-0.01401923788646683,0.3800000000000001,-30,90.0,-90.0,0.061042006515293505,0.08350517693805665,-0.5252582505509913,0.9860551294902131,0.001109923067587118,1.1096975652435697,0.6057875587202753
0.45,-1.3877787807814457e-17,0.2,0.5350386374562011,0.0082722511804704,0.38,-15,90.0,-90.0,0.060586234017848774,-0.04973490194357389,-0.5310163041408912,0.9893465009380161,5.138559172292948e-05,1.1114662215211102,0.21198425464045692
0.45,-1.3877787807814457e-17,0.2,0.5195094947500498,0.049683298396873715,0.38,15,90.0,-90.0,0.06901495161778023,-0.26812881113460174,-0.42396507046351717,0.9263322959684996,-0.00027810329165032144,1.0692684401652004,-0.5306393234663895
0.45,-1.3877787807814457e-17,0.2,0.4853553390593274,0.07778174593052024,0.38,45,90.0,-90.0,0.08427053324749548,-0.3478295706351359,-0.24340651886484438,0.7994795163855042,0.0005939591543409796,1.0153270802695038,-1.1344655703763522
0.45,-1.3877787807814457e-17,0.2,0.4417277488195296,0.08503863745620108,0.3800000000000001,75,90.0,-90.0,0.10021247984822045,-0.31850278933533244,-0.07013595568828825,0.651411104135413,0.0007645526868800725,0.9895637678980714,-1.6287498917259098
0.30000000000000004,-0.10000000000000002,0.2,0.33000000000000007,-0.18000000000000002,0.3800000000000001,-90,90.0,-90.0,0.07997100080062913,0.4529465160584252,0.43091267684010087,0.06903403544207466,-0.0010142459925046423,1.0701885981540105,-4.258604054821894
0.30000000000000004,-0.10000000000000002,0.2,0.3496832983968738,-0.16950949475004987,0.3800000000000001,-75,90.0,-90.0,0.08424979805512708,0.45088263765502706,0.35146415757206595,0.17593045816959962,-0.0006213812034092259,1.043000036284739,-4.523540850411825
0.30000000000000004,-0.10000000000000002,0.2,0.3777817459305203,-0.1353553390593274,0.38,-45,90.0,-90.0,0.09046056880042545,0.3977516386662954,0.2115407914545595,0.35173085719469926,-0.0003568044434859446,1.006917003074524,-5.100149437654391
0.30000000000000004,-0.10000000000000002,0.2,0.38428203230275515,-0.11401923788646684,0.3800000000000001,-30,90.0,-90.0,0.09221853884524567,0.3467884950112259,0.1625869729537889,0.40867662643696706,-2.7059436814305606e-06,0.9983804541831222,-5.413259379373597
0.30000000000000004,-0.10000000000000002,0.2,0.38000000000000006,-0.06999999999999998,0.3800000000000001,0,90.0,-90.0,0.09317413230702444,0.21546849053009906,0.13386406592937156,0.441597108524115,0.0003157939036908578,0.994314145019506,-6.067122237040548
0.30000000000000004,-0.10000000000000002,0.2,0.3695094947500499,-0.05031670160312629,0.38,15,90.0,-90.0,0.09238478600874922,0.15080709014825106,0.1580995403069149,0.41418481044802674,0.0008777437248317956,0.9983706209700677,-6.39369035210668
0.30000000000000004,-0.10000000000000002,0.2,0.3353553390593274,-0.022218254069479762,0.38,45,90.0,-90.0,0.08817566548458192,0.06068673005734997,0.26731680981306916,0.2832673215805242,0.0007903394053588805,1.019772338525977,-0.7258412902502654
0.30000000000000004,-0.10000000000000002,0.2,0.2917277488195296,-0.014961362543798928,0.3800000000000001,75,90.0,-90.0,0.08056819200654074,0.03644700598328898,0.42058373150979494,0.08327246716271633,0.0009756634036004173,1.067303089978871,-1.273994953956079
0.30000000000000004,-0.10000000000000002,0.2,0.27,-0.01999999999999999,0.3800000000000001,90,90.0,-90.0,0.07573036797978452,0.046332300301195416,0.5007857435278757,-0.029399027776726004,0.00037994733095906815,1.1001184019114554,-1.5240196568290192
0.25000000000000006,-0.05000000000000002,0.2,0.2800000000000001,-0.13,0.3800000000000001,-90,90.0,-90.0,0.07256437327920597,0.2998746307497928,0.5352995673438719,-0.07894014168197731,0.0005881934344910487,1.1143201398172045,1.8713245052456438
0.25000000000000006,-0.05000000000000002,0.2,0.3159807621135332,-0.1042820323027551,0.38,-60,90.0,-90.0,0.0815374560761215,0.2648314585092533,0.38266402878495476,0.13443115970177547,0.0012819777757377472,1.053059624929417,1.3107300102332047
0.25000000000000006,-0.05000000000000002,0.2,0.3277817459305203,-0.08535533905932738,0.38,-45,90.0,-90.0,0.08438762881000507,0.22541225331523357,0.3255566488984258,0.20981926693742875,0.0005821749864570363,1.0355478353463392,1.009990391029107
0.25000000000000006,-0.05000000000000002,0.2,0.33503863745620116,-0.041727748819529606,0.38,-15,90.0,-90.0,0.08667481767506903,0.11378389027167445,0.27465944775010653,0.27461152365510927,0.0003707805054323834,1.021076588834711,0.37597779107125634
0.25000000000000006,-0.05000000000000002,0.2,0.3195094947500499,-0.0003167016031262876,0.38,15,90.0,-90.0,0.0845940124975429,0.000691522843020753,0.32083819513003303,0.2156641457232528,0.00017823349422107062,1.033314160820351,-0.2611070178446281
0.25000000000000006,-0.05000000000000002,0.2,0.2853553390593274,0.02778174593052024,0.38,45,90.0,-90.0,0.07805171865739274,-0.0670102046509248,0.4463623504617364,0.04765517648075662,0.0009054761354326328,1.0768165359978912,-0.8522100798713396
0.25000000000000006,-0.05000000000000002,0.2,0.24172774881952963,0.035038637456201074,0.3800000000000001,75,90.0,-90.0,0.06720095268476732,-0.07610678196930425,0.6129147598394766,-0.19404594596442157,-0.0005869341361781118,1.1526485409433553,-1.3855902052590174
0.25000000000000006,-0.05000000000000002,0.2,0.22000000000000003,0.030000000000000013,0.3800000000000001,90,90.0,-90.0,0.06041897052725635,-0.062438599094676465,0.7013553723992039,-0.33037263008122897,-0.00036272853737732784,1.200792031147647,-1.6330875193391536
0.45,0.04999999999999999,0.2,0.48000000000000004,-0.030000000000000013,0.3800000000000001,-90,90.0,-90.0,0.08173549333102371,0.13552770719767246,-0.270242081667792,0.8203745476642706,0.0007617246448670934,1.0204878917895641,1.7050897634897255
0.45,0.04999999999999999,0.2,0.49968329839687375,-0.019509494750049858,0.3800000000000001,-75,90.0,-90.0,0.07403550020679658,0.09751713901181469,-0.36041408771870803,0.8848198981446679,-0.00015856625617057524,1.045572934850863,1.4070104739236249
0.45,0.04999999999999999,0.2,0.5159807621135332,-0.004282032302755083,0.38,-60,90.0,-90.0,0.06759071586380103,0.0234678656259328,-0.43917680843455753,0.9361593671108451,-0.0005476416636844591,1.0729138635952755,1.07078383033135
0.45,0.04999999999999999,0.2,0.5277817459305203,0.014644660940672627,0.38,-45,90.0,-90.0,0.06338759876844402,-0.0849241577055317,-0.4929306334792464,0.9676662718521977,0.0010943700317723399,1.0960961717217126,0.7003374901882191
0.45,0.04999999999999999,0.2,0.5342820323027551,0.03598076211353317,0.3800000000000001,-30,90.0,-90.0,0.06219158259169309,-0.21386577092132672,-0.5085374229423953,0.976561632297008,0.0007549933833037654,1.1035484191324634,0.3085193697790675
0.45,0.04999999999999999,0.2,0.53,0.08000000000000002,0.3800000000000001,0,90.0,-90.0,0.06905245019138855,-0.4399354876784939,-0.42121163343106677,0.9247523004407789,0.0013307860513033743,1.0667960950170783,-0.4399868755211342
0.45,0.04999999999999999,0.2,0.4853553390593274,0.12778174593052025,0.38,45,90.0,-90.0,0.09205542562357473,-0.5369181037410863,-0.15572320724702118,0.7283349387003119,-0.0006906811891138522,0.9991371130176294,-1.3216216891172472
0.45,0.04999999999999999,0.2,0.4640192378864668,0.1342820323027551,0.38,60,90.0,-90.0,0.10001563808310471,-0.5174598900900258,-0.0713383171042503,0.6525609954221623,-0.00034201312503971687,0.9905003390853193,-1.5653976480417635
0.45,0.04999999999999999,0.2,0.4417277488195296,0.1350386374562011,0.3800000000000001,75,90.0,-90.0,0.10106934822153107,-0.48157083302708986,0.0036391312855644734,0.5801234007580864,-0.0009595218437104873,0.9876729428250599,-1.78983488164005
0.45,0.04999999999999999,0.2,0.42,0.13,0.3800000000000001,90,90.0,-90.0,0.09958010792769978,-0.4347216421175583,0.06637169001034425,0.5154737870773366,0.0007525981716511956,0.989018551466961,-2.005018741222328
0.30000000000000004,-0.39999999999999997,0.2,0.3777817459305203,-0.43535533905932733,0.38,-45,90.0,-90.0,0.027606935095383048,0.9335302153282783,1.03813715066612,-0.8906667596426806,0.0008001120454556467,1.4232111029287189,1.7180810583424329
0.30000000000000004,-0.39999999999999997,0.2,0.38428203230275515,-0.4140192378864668,0.3800000000000001,-30,90.0,-90.0,0.041647836467670125,0.9190196825961942,0.895410137544622,-0.6455406825972279,0.0008877004212797626,1.3209805054631245,1.4421953042388949
0.30000000000000004,-0.39999999999999997,0.2,0.38503863745620115,-0.39172774881952954,0.38,-15,90.0,-90.0,0.05011012804308378,0.8933977122050237,0.8004758085538588,-0.4887430602854472,0.0009764656800238735,1.258504213604306,1.1541777459458373
0.30000000000000004,-0.39999999999999997,0.2,0.38000000000000006,-0.36999999999999994,0.3800000000000001,0,90.0,-90.0,0.055386102738546765,0.8578322112985486,0.7367628309442185,-0.3863073592729261,7.926767568287013e-05,1.2194583840858308,0.857793493868718
0.30000000000000004,-0.39999999999999997,0.2,0.3695094947500499,-0.3503167016031262,0.38,15,90.0,-90.0,0.05801523469979532,0.814728102811848,0.7035180616183255,-0.3335580386813686,-0.0005233847485749827,1.2001490475231182,0.553891496259372
0.30000000000000004,-0.39999999999999997,0.2,0.3542820323027551,-0.33401923788646676,0.3800000000000001,30,90.0,-90.0,0.058286903715468026,0.7681839214781238,0.7000179233720045,-0.32807741750342573,0.00044546970991831715,1.1993637563449409,0.2454275055599601
0.30000000000000004,-0.39999999999999997,0.2,0.2917277488195296,-0.31496136254379886,0.3800000000000001,75,90.0,-90.0,0.0442701366645651,0.657138431489794,0.8669198565821903,-0.5978549029805219,0.0005900443477911146,1.3011728413615218,-0.6521679853509813
0.30000000000000004,-0.39999999999999997,0.2,0.27,-0.31999999999999995,0.3800000000000001,90,90.0,-90.0,0.03217747337583341,0.6396482766470345,0.9932818067598488,-0.8125132736764827,0.0004408906371285769,1.389109329222472,-0.93135725399849
0.15000000000000008,0.05,0.2,0.19968329839687382,-0.019509494750049844,0.3800000000000001,-75,90.0,-90.0,0.05120794699671492,0.03916020689598713,0.7903636243371424,-0.47242659501534456,-0.0005835035330122858,1.251851923763184,1.349154766602181
0.15000000000000008,0.05,0.2,0.2277817459305203,0.01464466094067264,0.38,-45,90.0,-90.0,0.061238665750349565,-0.031014569785235695,0.6647166026847718,-0.27318462139377525,0.0013396666392621929,1.1792205063770593,0.7532916601510453
0.15000000000000008,0.05,0.2,0.23428203230275518,0.03598076211353318,0.3800000000000001,-30,90.0,-90.0,0.06283806232539496,-0.0773099769706316,0.6427759217651767,-0.23961001528800766,0.0007306505998157873,1.1667255312918514,0.44639208686939913
0.15000000000000008,0.05,0.2,0.2300000000000001,0.08000000000000004,0.3800000000000001,0,90.0,-90.0,0.05987217802872656,-0.16850643643250296,0.682821791182256,-0.30133340213622034,0.0004812831724616847,1.1883852703758992,-0.16792040120159582
0.15000000000000008,0.05,0.2,0.21950949475004994,0.09968329839687373,0.38,15,90.0,-90.0,0.055047173123568674,-0.20464489239529718,0.7441353484543041,-0.39814567464527795,0.0010030380583815493,1.2242614217525802,-0.46679958321666226
0.15000000000000008,0.05,0.2,0.20428203230275516,0.1159807621135332,0.3800000000000001,30,90.0,-90.0,0.04756489372777602,-0.22997254988414043,0.8326062668365939,-0.5410173340742305,0.0010563520240162905,1.2789881628888762,-0.7541989779551131
0.15000000000000008,0.05,0.2,0.1640192378864669,0.1342820323027551,0.38,60,90.0,-90.0,0.015035881424689871,-0.24545215052166192,1.156104099528742,-1.1009500724769408,-7.658645540040946e-05,1.5158046963418246,-1.291961687236376
0.45,0.09999999999999999,0.2,0.49968329839687375,0.030490505249950145,0.3800000000000001,-75,90.0,-90.0,0.07411651597155108,-0.15170712644205392,-0.35428139210932036,0.8805243521891924,0.0013269685725888763,1.0442394658845515,1.1556945186367429
0.45,0.09999999999999999,0.2,0.5277817459305203,0.06464466094067263,0.38,-45,90.0,-90.0,0.0670574728254937,-0.35939420704650044,-0.4398302324046006,0.9365557395700087,0.0006203301880433484,1.072929896720538,0.42569240551290966
0.45,0.09999999999999999,0.2,0.5342820323027551,0.08598076211353317,0.3800000000000001,-30,90.0,-90.0,0.06813485498180545,-0.4788142642172129,-0.42700329948018234,0.9280241702882661,0.0002679379616636448,1.069542407760714,0.04412817012564357
0.45,0.09999999999999999,0.2,0.4417277488195296,0.18503863745620108,0.3800000000000001,75,90.0,-90.0,0.09828283521676112,-0.6217294742620962,0.099219283903908,0.4798120258391323,-0.0004693670364753783,0.9919955998490598,-1.9298464953062813
0.45,0.09999999999999999,0.2,0.42,0.18000000000000002,0.3800000000000001,90,90.0,-90.0,0.09648665780726598,-0.5713424967087983,0.15346754720448785,0.41947040666772667,0.00044278362132219045,0.99876602547497,-2.1413870557540235
0.15000000000000008,0.1,0.2,0.1800000000000001,0.020000000000000004,0.3800000000000001,-90,90.0,-90.0,0.04193855613111165,-0.03834620571362127,0.8932113391264137,-0.6420369089272201,-0.0002331800458913614,1.3186823576019766,1.5326593416494563
0.15000000000000008,0.1,0.2,0.21598076211353326,0.045717967697244934,0.38,-60,90.0,-90.0,0.05659775332858848,-0.09421654833504595,0.7232432897514314,-0.3648451406093669,0.0005512901731708072,1.21185212539647,0.9531814692965357
0.15000000000000008,0.1,0.2,0.23428203230275518,0.08598076211353319,0.3800000000000001,-30,90.0,-90.0,0.06074444749699904,-0.18256588164637458,0.6694401225483287,-0.28039700128417394,0.00045415842342464737,1.1810062349870556,0.3418618515786178
0.15000000000000008,0.1,0.2,0.21950949475004994,0.14968329839687372,0.38,15,90.0,-90.0,0.04997081202441948,-0.301906379872647,0.8035022641340508,-0.4937416147692027,-3.1585206141157356e-05,1.262174344479746,-0.5630901352164281
0.15000000000000008,0.1,0.2,0.20428203230275516,0.1659807621135332,0.3800000000000001,30,90.0,-90.0,0.0406091240405923,-0.3232502515660616,0.907465734663339,-0.6659460897725783,0.0005225216743992025,1.3289792758743308,-0.8473760284805822
0.25000000000000006,0.25,0.2,0.2800000000000001,0.16999999999999998,0.3800000000000001,-90,90.0,-90.0,0.06766989771422571,-0.38470456549972676,0.5863890623454905,-0.15442650669702726,-8.142413894256093e-05,1.1377385489668923,-5.096101755208686
0.25000000000000006,0.25,0.2,0.2996832983968738,0.18049050524995014,0.3800000000000001,-75,90.0,-90.0,0.07121223616194676,-0.4234351207249632,0.5329424674106453,-0.0755148285795302,-0.00015346074935460008,1.112666702252264,-5.39688872539335
0.25000000000000006,0.25,0.2,0.3277817459305203,0.21464466094067264,0.38,-45,90.0,-90.0,0.0733825339523545,-0.5230796439404234,0.4980374193652068,-0.025214040876078085,0.0006822261736765517,1.0981465353328386,-6.020271667316066
0.25000000000000006,0.25,0.2,0.33428203230275516,0.2359807621135332,0.3800000000000001,-30,90.0,-90.0,0.07207586727608596,-0.5731823616985771,0.5192689633611748,-0.055716930497978476,0.0009073223332975806,1.10827066229974,-6.333173614180076
0.25000000000000006,0.25,0.2,0.33000000000000007,0.28,0.3800000000000001,0,90.0,-90.0,0.06460644899875988,-0.647863758737028,0.630088737352425,-0.22002191140967609,0.0010162505038236087,1.1608627640666005,-6.930817995072421
0.45,0.10000000000000002,0.2,0.48000000000000004,0.020000000000000018,0.3800000000000001,-90,90.0,-90.0,0.08092108080718984,-0.09024470813755503,-0.2747519854162851,0.8236424815631378,-0.00012729529635616566,1.0213975270542068,-4.8018472924355775
0.45,0.10000000000000002,0.2,0.5159807621135332,0.04571796769724495,0.38,-60,90.0,-90.0,0.06923623397261731,-0.24391230064573105,-0.41321807226553114,0.9197093839270267,0.0011202056775876195,1.064028629298553,-5.480108519097691
0.45,0.10000000000000002,0.2,0.5195094947500498,0.14968329839687375,0.38,15,90.0,-90.0,0.08595672776535344,-0.6928006108265894,-0.21826601289115827,0.7796016040097019,0.0014089042295769327,1.009485920835432,5.328223560476937
0.45,0.10000000000000002,0.2,0.4640192378864668,0.18428203230275514,0.38,60,90.0,-90.0,0.10010621539782909,-0.6633344917776064,0.03240710898439874,0.5507062101585026,0.0005360560871642136,0.9878449591339582,4.57165670784956
0.45,0.10000000000000002,0.2,0.42,0.18000000000000005,0.3800000000000001,90,90.0,-90.0,0.0964861374031357,-0.5710773638452014,0.15320851743944386,0.41958127416844415,-0.000587601014874449,0.998336726140829,4.1425107168247415
0.25000000000000006,-0.05,0.2,0.2800000000000001,-0.13,0.3800000000000001,-90,90.0,-90.0,0.07256624767427919,0.30009554502358576,0.5351786512488508,-0.07887229687868147,0.0006991874014573651,1.1141671543195102,-4.412204016662985
0.25000000000000006,-0.05,0.2,0.2996832983968738,-0.11950949475004985,0.3800000000000001,-75,90.0,-90.0,0.07762132732477048,0.29033405181316757,0.45375572213630855,0.03725968902848408,-0.0005207432684839121,1.0791624469844097,-4.682723211345634
0.25000000000000006,-0.05,0.2,0.33503863745620116,-0.04172774881952959,0.38,-15,90.0,-90.0,0.08667867317505036,0.1139676181034717,0.2743585968278267,0.2747188737959802,0.000206747161289959,1.0209429691901393,-5.90802342170912
0.25000000000000006,-0.05,0.2,0.2853553390593274,0.027781745930520255,0.38,45,90.0,-90.0,0.0780535623654764,-0.06704885937527673,0.44626552007037784,0.04761497951019843,0.0003561360506315653,1.0770851899475238,-0.8535469935701906
0.25000000000000006,-0.05,0.2,0.26401923788646686,0.0342820323027551,0.38,60,90.0,-90.0,0.07312859069210417,-0.07870706144365085,0.526594489333141,-0.06648552720858711,0.00044341652688476024,1.1115108159928029,-1.1256591098289817
0.25000000000000006,-0.05,0.2,0.24172774881952963,0.03503863745620109,0.3800000000000001,75,90.0,-90.0,0.06721190154368677,-0.07612389125236876,0.6127889451951873,-0.19380834823580603,-0.0002863700484263071,1.1527670401124839,-1.3841842980143455
0.35000000000000003,0.05000000000000002,0.2,0.3996832983968738,-0.01950949475004983,0.3800000000000001,-75,90.0,-90.0,0.09766136312857666,0.06456017772727661,0.03824680244011048,0.544839464037159,0.0008400768408366255,0.9871691865296015,1.3722137354360975
