fryumbla/Robot-Manipulability/log/abbrobot_manip_2021-04-09_15-50-40.csv
TCP x,TCP y,TCP z,eef x,eef y,eef z,Cr(rzyz),Pitch(rzyz),Roll(rzyz),Manipulability,joint_1,joint_2,joint_3,joint_4,joint_5,joint_6
0.5,0,0.1,0.53,-0.08,0.2800000000000001,-90,90.0,-90.0,0.06726392055559717,0.43993238570960885,-0.16932602126829444,1.1155041085455295,-0.0006012833261660284,0.6249027718479051,2.0115687678280443
0.5,0,0.1,0.5496832983968737,-0.06950949475004985,0.2800000000000001,-75,90.0,-90.0,0.059664465887586345,0.43265649382327237,-0.2738191423694936,1.1941288507149177,0.001429330687657904,0.65094304026935,1.7404740059357577
0.5,0,0.1,0.5542820323027551,0.0659807621135332,0.2800000000000001,30,90.0,-90.0,0.057768880592087624,-0.42471855945962583,-0.30222045683564547,1.213275005357004,-0.0006847450232733157,0.6605213045769156,-0.9471855534033041
0.5,0,0.1,0.5353553390593273,0.07778174593052026,0.28,45,90.0,-90.0,0.06526516881325999,-0.44097453144512827,-0.19535368906799572,1.1361343477488235,-0.001489937702846472,0.6296966833766009,-1.2247027353661826
0.5,0,0.1,0.5140192378864669,0.0842820323027551,0.28,60,90.0,-90.0,0.07281973229753909,-0.42497462289853344,-0.09940318460443685,1.0568265469836746,-0.0009633732477802019,0.6140182264895714,-1.4711938865430163
0.5,0,0.1,0.4917277488195296,0.08503863745620109,0.2800000000000001,75,90.0,-90.0,0.07968590307017684,-0.38752127747913234,-0.018422431312319226,0.9815023502465912,-0.0015511997564260035,0.6075817596546707,-1.69426537604941
0.5,0,0.1,0.47,0.08000000000000003,0.2800000000000001,90,90.0,-90.0,0.08602439575117263,-0.3347824218420352,0.049811655074213625,0.9118441851642106,0.0007050416555281764,0.6100915789562407,-1.9054051914329684
0.45,0.05,0.1,0.48000000000000004,-0.03,0.2800000000000001,-90,90.0,-90.0,0.07766173581530143,0.13484484693479565,-0.029524766654267762,0.992375652269956,0.0016329420879032143,0.6076013213363896,1.705115223429859
0.45,0.05,0.1,0.49968329839687375,-0.019509494750049844,0.2800000000000001,-75,90.0,-90.0,0.07080875097406018,0.09724086808201034,-0.11128215444503504,1.06768965889954,-0.0006508108071873202,0.6152883102465903,1.4072834921332156
0.45,0.05,0.1,0.5159807621135332,-0.004282032302755069,0.28,-60,90.0,-90.0,0.0649200367500287,0.022721498470984,-0.18649612512039726,1.1292313310822621,0.0018588747422509093,0.6279915721848183,1.0678294584585881
0.45,0.05,0.1,0.5277817459305203,0.01464466094067264,0.28,-45,90.0,-90.0,0.06108121144448706,-0.08510669350738805,-0.23785096369755548,1.16857795174165,0.0004226044556758788,0.6395743124154543,0.7001108000894415
0.45,0.05,0.1,0.5342820323027551,0.03598076211353318,0.2800000000000001,-30,90.0,-90.0,0.05992363083721605,-0.2138170142824921,-0.25402403769200066,1.1800649590722927,-4.794112751337418e-05,0.6437810962858985,0.30982454023324724
0.45,0.05,0.1,0.5350386374562011,0.058272251180470414,0.28,-15,90.0,-90.0,0.061745508428055026,-0.33938571551477414,-0.22888212053058882,1.161596976715816,1.2934565180300274e-05,0.637336135600937,-0.07672547527518028
0.45,0.05,0.1,0.53,0.08000000000000004,0.2800000000000001,0,90.0,-90.0,0.06622754753025084,-0.43967038356316923,-0.1691710304017232,1.1156446050135889,0.0012368210530713018,0.6244799320826983,-0.4408727065232116
0.45,0.05,0.1,0.5195094947500498,0.09968329839687373,0.28,15,90.0,-90.0,0.07239689201468291,-0.5047664426392978,-0.09198450200838425,1.050010657537115,0.0007351559060045492,0.6129093246874718,-0.7679230926441054
0.45,0.05,0.1,0.504282032302755,0.1159807621135332,0.2800000000000001,30,90.0,-90.0,0.07954697621395118,-0.5352400802527995,-0.008651120496593034,0.9718680226765031,0.001868453229927011,0.6079820029829038,-1.0600437729684349
0.45,0.05,0.1,0.4853553390593274,0.12778174593052027,0.28,45,90.0,-90.0,0.08697166829810177,-0.5363659655559031,0.07168864767106645,0.8885837997261578,-0.001430418741043537,0.61075133957319,-1.319937616062427
0.45,0.05,0.1,0.4640192378864668,0.1342820323027551,0.28,60,90.0,-90.0,0.09415251870708799,-0.5168766891408215,0.14528691014706369,0.8056588480463839,-0.0013737580953624223,0.6197719200758133,-1.562044749000369
0.45,0.05,0.1,0.4417277488195296,0.1350386374562011,0.2800000000000001,75,90.0,-90.0,0.10031214699994642,-0.4814292348017391,0.21009767451276543,0.7276216167382356,-0.0010110681363599645,0.6337608431365908,-1.7891241974794876
0.45,0.05,0.1,0.42,0.13000000000000003,0.2800000000000001,90,90.0,-90.0,0.10073517796893902,-0.4346889243688348,0.26513746206212446,0.6576971689720935,0.0003725993294643612,0.6488503727408332,-2.005939736136666
0.5,-0.05,0.1,0.53,-0.13,0.2800000000000001,-90,90.0,-90.0,0.07602139348478472,0.6526461186545681,-0.06050554627530474,1.0213817297137253,0.0003853469838149212,0.6108835782259524,2.223032380397475
0.5,-0.05,0.1,0.5496832983968737,-0.11950949475004985,0.2800000000000001,-75,90.0,-90.0,0.06859766205775913,0.6710463311173125,-0.15077275914657978,1.1006566225027514,0.0019639979661341825,0.621281822878133,1.9781630859231925
0.5,-0.05,0.1,0.5659807621135332,-0.10428203230275507,0.28,-60,90.0,-90.0,0.061027746605081146,0.6611281349486823,-0.2529401129794768,1.179188325755094,0.00033599704633245,0.6449638378006004,1.7076647840274333
0.5,-0.05,0.1,0.5353553390593273,0.027781745930520255,0.28,45,90.0,-90.0,0.06002758290858172,-0.16647138746028814,-0.2669177660450984,1.189404316971413,-0.001655559714291207,0.6486064100228194,-0.9498022613829434
0.5,-0.05,0.1,0.5140192378864669,0.0342820323027551,0.28,60,90.0,-90.0,0.06754667206358875,-0.18195161891991274,-0.1633967023607178,1.1111746999327314,-0.0017911247355828532,0.6224699147372722,-1.227881095056778
0.5,-0.05,0.1,0.4917277488195296,0.03503863745620109,0.2800000000000001,75,90.0,-90.0,0.07492165555781972,-0.1671544187396201,-0.0715019083831792,1.0318945025964068,0.0012623991494493266,0.6096121365980226,-1.4780624479819888
0.5,-0.05,0.1,0.47,0.030000000000000027,0.2800000000000001,90,90.0,-90.0,0.08198517371528383,-0.13000558343743465,0.007992657088108602,0.9555784853792906,0.001065902486350792,0.607936586022709,-1.702466817295354
0.45,-0.1,0.1,0.48000000000000004,-0.18,0.2800000000000001,-90,90.0,-90.0,0.09795400345558128,0.6856981079979019,0.1871329538375515,0.7558661199023226,-0.0014626309804743089,0.6278858002455896,2.2567255459417077
0.45,-0.1,0.1,0.49968329839687375,-0.16950949475004984,0.2800000000000001,-75,90.0,-90.0,0.0907747543046448,0.7027463688766128,0.1148374932417702,0.8407083292539222,-0.001182452018348894,0.6151917870819168,2.0128357154600267
0.45,-0.1,0.1,0.5159807621135332,-0.15428203230275508,0.28,-60,90.0,-90.0,0.08346531016915149,0.6978097250693973,0.03773074124117557,0.9247245462265532,0.00011011628312037865,0.6088997742819915,1.7441331171033378
0.45,-0.1,0.1,0.5277817459305203,-0.13535533905932737,0.28,-45,90.0,-90.0,0.07633750555231494,0.6667048280010919,-0.041201854242490704,1.0033640902418075,-0.0016861072454871832,0.6085314729329363,1.4531919687236885
0.45,-0.1,0.1,0.5342820323027551,-0.11401923788646683,0.2800000000000001,-30,90.0,-90.0,0.07041829628204054,0.6025370997715154,-0.1123165914936589,1.0681656881355173,-7.303560237244397e-05,0.6155399234091944,1.1260146067464523
0.45,-0.1,0.1,0.5350386374562011,-0.0917277488195296,0.28,-15,90.0,-90.0,0.0661665321528963,0.5070477646490338,-0.16557280207065372,1.1127294675474961,0.0020515614538870433,0.6234725910558298,0.7674313040594414
0.45,-0.1,0.1,0.53,-0.06999999999999998,0.2800000000000001,0,90.0,-90.0,0.06446032094951482,0.39090751641647814,-0.18682803073900206,1.1301247942613921,-0.00043366734790054994,0.6266000747223736,0.3919504821131622
0.45,-0.1,0.1,0.5195094947500498,-0.050316701603126276,0.28,15,90.0,-90.0,0.06581542716666942,0.2721952000399331,-0.1710533444404298,1.1169581403355047,-0.0007993020320332121,0.6257774521733456,0.011297255106241324
0.45,-0.1,0.1,0.504282032302755,-0.03401923788646681,0.2800000000000001,30,90.0,-90.0,0.0695302846581763,0.1728427089275478,-0.12277009737513442,1.07719603170431,-0.0013263776791071912,0.6162363118700487,-0.3500122197109454
0.45,-0.1,0.1,0.4853553390593274,-0.022218254069479748,0.28,45,90.0,-90.0,0.07541156598291675,0.1029521103369488,-0.053059237134239275,1.0146665395121526,2.3995670049532423e-05,0.6104506955431804,-0.6816316018657256
0.45,-0.1,0.1,0.4640192378864668,-0.0157179676972449,0.28,60,90.0,-90.0,0.08223928166423203,0.06649202900514174,0.0243287253483448,0.9383575297400483,-0.000962455047738785,0.6084460286969138,-0.9790144614223935
0.45,-0.1,0.1,0.4417277488195296,-0.014961362543798915,0.2800000000000001,75,90.0,-90.0,0.08951771298260809,0.0583918928230906,0.1020472957457335,0.8549112263108768,-0.0018214980926535406,0.6132743831747017,-1.2487013993299219
0.45,-0.1,0.1,0.42,-0.019999999999999976,0.2800000000000001,90,90.0,-90.0,0.09694796135117456,0.07151525458443309,0.17572957317852309,0.7695551068075789,-0.0012969009373348345,0.6265192368555997,-1.4975320155266363
0.45,-0.15000000000000002,0.1,0.48000000000000004,-0.23000000000000004,0.2800000000000001,-90,90.0,-90.0,0.09960581973169354,0.8073593728425073,0.29466703261975535,0.6191873941066485,-3.312338334818298e-05,0.6562616780786711,-3.9043858877444313
0.45,-0.15000000000000002,0.1,0.49968329839687375,-0.21950949475004988,0.2800000000000001,-75,90.0,-90.0,0.10022836556125782,0.8309520025712153,0.22832606277013195,0.7046450833213311,0.002170536817124315,0.6380932127282288,2.138302391154264
0.45,-0.15000000000000002,0.1,0.5159807621135332,-0.2042820323027551,0.28,-60,90.0,-90.0,0.09439615171124953,0.8377430981756304,0.1565044696242055,0.7924283526204104,-0.0014338495980108375,0.6224652879011625,1.8863799240928558
0.45,-0.15000000000000002,0.1,0.5277817459305203,-0.18535533905932738,0.28,-45,90.0,-90.0,0.08705701728836404,0.822474873834769,0.0828451069858018,0.8766057105628906,-0.000721555551375804,0.610912815998283,1.6075598016947115
0.45,-0.15000000000000002,0.1,0.5342820323027551,-0.16401923788646683,0.2800000000000001,-30,90.0,-90.0,0.08056013070528716,0.779976130198781,0.012314392648813823,0.9507561289504425,0.0012188358214328269,0.6078161991800027,1.3017153262846892
0.45,-0.15000000000000002,0.1,0.5350386374562011,-0.1417277488195296,0.28,-15,90.0,-90.0,0.07526648234423104,0.7093556824531179,-0.047116441686014664,1.0089171958635963,0.0013996057198212705,0.6085201662303169,0.969541703633438
0.45,-0.15000000000000002,0.1,0.53,-0.12,0.2800000000000001,0,90.0,-90.0,0.07219607571749069,0.6141150603656664,-0.08390947977375603,1.0429297850131596,0.0013256781580840244,0.6121193962170582,0.6138777465986164
0.45,-0.15000000000000002,0.1,0.5195094947500498,-0.1003167016031263,0.28,15,90.0,-90.0,0.07169038318684304,0.5070876630665985,-0.08993297658196603,1.0485392341203892,0.001830768328832973,0.6127811796736228,0.2430897965800617
0.45,-0.15000000000000002,0.1,0.504282032302755,-0.08401923788646683,0.2800000000000001,30,90.0,-90.0,0.07386780937033499,0.4059454516943951,-0.06407149134220617,1.0248664380866859,-0.0007368646872418607,0.6104513787599931,-0.11618887368213994
0.45,-0.15000000000000002,0.1,0.4853553390593274,-0.07221825406947976,0.28,45,90.0,-90.0,0.07822120709427735,0.3244083263212733,-0.012648002077539529,0.9761924655771307,0.0009755165797620606,0.6066932270353688,-0.46114414535441683
0.45,-0.15000000000000002,0.1,0.4640192378864668,-0.06571796769724492,0.28,60,90.0,-90.0,0.08448317941790426,0.2716926802608933,0.05474207096180185,0.9067056958568103,-0.0019371592011913222,0.609498113342167,-0.7734753944538156
0.45,-0.15000000000000002,0.1,0.4417277488195296,-0.06496136254379893,0.2800000000000001,75,90.0,-90.0,0.09143433842653642,0.24654861260677108,0.12762476069862294,0.8259777882739595,-0.0005281467774881813,0.6165546563400297,-1.0611450573399028
0.45,-0.15000000000000002,0.1,0.42,-0.06999999999999999,0.2800000000000001,90,90.0,-90.0,0.09862643044073001,0.244723562945005,0.20101523274995153,0.7391056490028768,0.0016540275844452988,0.6305121161921421,-1.3282770457083075
0.45,0.1,0.1,0.48000000000000004,0.020000000000000004,0.2800000000000001,-90,90.0,-90.0,0.07698086914606306,-0.09114906431938744,-0.033803619155165096,0.9964603243772407,0.001276246633654742,0.6080282390965944,1.4780013061106663
0.45,0.1,0.1,0.49968329839687375,0.03049050524995016,0.2800000000000001,-75,90.0,-90.0,0.0708600021013457,-0.15144881451223227,-0.10606929959930013,1.06296424688836,0.001921519431506571,0.6136585230401538,1.1565946588375853
0.45,0.1,0.1,0.5159807621135332,0.045717967697244934,0.28,-60,90.0,-90.0,0.06647884962781572,-0.2431029253816211,-0.16128775157350025,1.1093673599352831,-0.0004731453549304003,0.6224881859322232,0.8053244513009684
0.45,0.1,0.1,0.5277817459305203,0.06464466094067264,0.28,-45,90.0,-90.0,0.06455297095616958,-0.35899867586927897,-0.18625977768972826,1.1295983579397992,-0.0005873601335428381,0.6273265834971111,0.42653208420585137
0.45,0.1,0.1,0.5342820323027551,0.08598076211353319,0.2800000000000001,-30,90.0,-90.0,0.06546508413115343,-0.47837426907239694,-0.17420816624588104,1.1198893674058805,-0.0008195379875726651,0.6246712124269332,0.046473547003395246
0.45,0.1,0.1,0.5350386374562011,0.10827225118047042,0.28,-15,90.0,-90.0,0.06912914199615922,-0.5807586859136191,-0.12794400424147326,1.0818498361662399,-0.0019328796526149935,0.6172653537727741,-0.31649165964841347
0.45,0.1,0.1,0.53,0.13000000000000003,0.2800000000000001,0,90.0,-90.0,0.07467648336905892,-0.6531823488589451,-0.06051245669128156,1.0213595620984408,0.0020228954079507034,0.6096897888242694,-0.6539001120481716
0.45,0.1,0.1,0.5195094947500498,0.14968329839687372,0.28,15,90.0,-90.0,0.08149335805686397,-0.6923729355665263,0.017002785687157254,0.9459262085625755,0.001284765685982628,0.6075227947618682,-0.9548654167407125
0.45,0.1,0.1,0.504282032302755,0.1659807621135332,0.2800000000000001,30,90.0,-90.0,0.08891697906643074,-0.7028598887990244,0.09536005594542227,0.8625724280252333,-0.001077660985034923,0.6130894867821852,-1.2265492357423793
0.45,0.1,0.1,0.4853553390593274,0.17778174593052026,0.28,45,90.0,-90.0,0.09616225364999138,-0.6920382100830144,0.16905771713965312,0.7775632650958387,-0.00015570032203889863,0.62395450596933,-1.4772504727796947
0.45,0.1,0.1,0.4640192378864668,0.1842820323027551,0.28,60,90.0,-90.0,0.10068330314021418,-0.6634434305553665,0.23533120282754205,0.6962384723191449,0.001640455469308968,0.6384723635564025,-1.7115641784225233
0.45,0.1,0.1,0.4417277488195296,0.18503863745620108,0.2800000000000001,75,90.0,-90.0,0.10000587451912342,-0.6215830960788279,0.2928697437717382,0.6215353101962144,-0.0010245550856149237,0.6558633621048662,-1.9301118009642568
0.45,0.1,0.1,0.42,0.18000000000000005,0.2800000000000001,90,90.0,-90.0,0.09871216292817186,-0.5713217148024227,0.33991818953831526,0.5581830735867559,-0.0005107094017503385,0.6728839187466639,-2.1426344468747676
0.5,-0.1,0.1,0.53,-0.18,0.2800000000000001,-90,90.0,-90.0,0.08680263457046236,0.8141184382686235,0.06406430247560008,0.8971891133233324,-0.0014242908870705936,0.6092953171482093,-3.8961244103489623
0.5,-0.1,0.1,0.5496832983968737,-0.16950949475004984,0.2800000000000001,-75,90.0,-90.0,0.07972530919493735,0.8452325916448582,-0.012523832070118939,0.9756467703645201,0.000691189725196475,0.6064658130135172,2.1530614012500346
0.5,-0.1,0.1,0.5659807621135332,-0.15428203230275508,0.28,-60,90.0,-90.0,0.07236545560828272,0.8557788872807804,-0.09890699806935058,1.0565988616381883,0.0008767020234910539,0.6124838126247604,1.9015808426344936
0.5,-0.1,0.1,0.5777817459305202,-0.13535533905932737,0.28,-45,90.0,-90.0,0.06498197605967138,0.8369818845241802,-0.19368466669689915,1.135227871281418,-0.0013723888309790716,0.6294102838918185,1.6227683974188751
0.5,-0.1,0.1,0.5842820323027551,-0.11401923788646683,0.2800000000000001,-30,90.0,-90.0,0.058155177467821374,0.7782031647976089,-0.2893837322703211,1.204788956503102,-0.0009230002920510875,0.6549842862912901,1.3020763347373714
0.5,-0.1,0.1,0.5542820323027551,-0.03401923788646681,0.2800000000000001,30,90.0,-90.0,0.058155177467821374,0.7782031647976089,-0.2893837322703211,1.204788956503102,-0.0009230002920510875,0.6549842862912901,1.3020763347373714
0.5,-0.1,0.1,0.5353553390593273,-0.022218254069479748,0.28,45,90.0,-90.0,0.05937422565403438,0.1343295102219241,-0.2710959976464074,1.192407908930193,-0.0006626879115420455,0.6486791649449235,-0.6507604205501697
0.5,-0.1,0.1,0.5140192378864669,-0.0157179676972449,0.28,60,90.0,-90.0,0.06650660483580764,0.08394543540456,-0.17431244067408905,1.1197952951870194,0.00029818850046490076,0.6262539669232234,-0.9626274203960365
0.5,-0.1,0.1,0.4917277488195296,-0.014961362543798915,0.2800000000000001,75,90.0,-90.0,0.07385173789922324,0.07209767537085562,-0.0816602367604381,1.0406110867688714,-0.0018395827677372782,0.6112720639786684,-1.2361463032748066
0.5,-0.1,0.1,0.47,-0.019999999999999976,0.2800000000000001,90,90.0,-90.0,0.0811979397000254,0.08675425742516757,0.0037090589465421015,0.959780148996009,-0.001476406273108155,0.6065582320304989,-1.4820827188610952
0.45,-0.10000000000000002,0.1,0.48000000000000004,-0.18000000000000002,0.2800000000000001,-90,90.0,-90.0,0.09798171082647902,0.6855757102540484,0.18680677018883618,0.7561102764514857,0.0020052843470859806,0.6281597348181243,2.255244168208827
0.45,-0.10000000000000002,0.1,0.49968329839687375,-0.16950949475004987,0.2800000000000001,-75,90.0,-90.0,0.09072828108458249,0.7018090895644468,0.11484697518763116,0.8409140185380533,0.0013312073984450981,0.6144490175957823,2.010256034787565
0.45,-0.10000000000000002,0.1,0.5159807621135332,-0.15428203230275508,0.28,-60,90.0,-90.0,0.08346295427363544,0.6981731246674048,0.03735840442428168,0.9249016506263015,-0.0006366554658985504,0.6092793401390425,1.7463247726535667
0.45,-0.10000000000000002,0.1,0.5277817459305203,-0.1353553390593274,0.28,-45,90.0,-90.0,0.07632841718079392,0.666596622664645,-0.041186404318748183,1.0032391517249148,-0.0013241571668063446,0.6083625219603414,1.4525205996177337
0.45,-0.10000000000000002,0.1,0.5342820323027551,-0.11401923788646684,0.2800000000000001,-30,90.0,-90.0,0.07034905130707998,0.6018613623323182,-0.11233593718780603,1.0683495642389542,0.0019143335697655909,0.6144415102413786,1.123539539612607
0.45,-0.10000000000000002,0.1,0.5350386374562011,-0.09172774881952961,0.28,-15,90.0,-90.0,0.06617621077041423,0.5082445296800066,-0.16546688972932105,1.112686099230109,-0.0016100654035446987,0.6236126930882758,0.7708738530636199
0.45,-0.10000000000000002,0.1,0.53,-0.06999999999999998,0.2800000000000001,0,90.0,-90.0,0.06449162864247472,0.39124970395532643,-0.18721841718624216,1.130020533162679,-0.0010396473234509287,0.6275833671950262,0.3928192294826421
0.45,-0.10000000000000002,0.1,0.5195094947500498,-0.05031670160312629,0.28,15,90.0,-90.0,0.06564798162092275,0.27198081518608863,-0.17116783916346262,1.1177391093818985,-0.0010162785447570502,0.6232884825580071,0.01062778935440476
0.45,-0.10000000000000002,0.1,0.504282032302755,-0.034019237886466824,0.2800000000000001,30,90.0,-90.0,0.06947242470527142,0.17270132111054745,-0.12293832061508596,1.0774749213200325,-0.0010142857093738383,0.6156121444639175,-0.34980980254907657
0.45,-0.10000000000000002,0.1,0.4853553390593274,-0.022218254069479762,0.28,45,90.0,-90.0,0.07517739757982002,0.10339907824674723,-0.05377815336026773,1.0152497071608504,4.47269194252893e-05,0.6080609976267146,-0.6821931199048561
0.45,-0.10000000000000002,0.1,0.4640192378864668,-0.015717967697244914,0.28,60,90.0,-90.0,0.0821546664823507,0.06657101237002895,0.024091866795686766,0.9386682958528937,-0.0012060204148978634,0.6076231975737079,-0.9793977649087512
0.45,-0.10000000000000002,0.1,0.4417277488195296,-0.014961362543798928,0.2800000000000001,75,90.0,-90.0,0.08950082265151946,0.05779372185890895,0.10247122453292025,0.8547273779580862,-0.00015706082932307472,0.6128367708691599,-1.2501192403543928
0.45,-0.10000000000000002,0.1,0.42,-0.01999999999999999,0.2800000000000001,90,90.0,-90.0,0.09676666467656157,0.07124844977648892,0.1756768027349751,0.7699338745329951,-0.0006229605708480583,0.6246430260844851,-1.4980824139924425
0.45,-0.05,0.1,0.48000000000000004,-0.13,0.2800000000000001,-90,90.0,-90.0,0.08889240366707936,0.5330114879743828,0.09136269193593402,0.866887395121215,0.002078236717628688,0.6128704632624677,2.1029149088851793
0.45,-0.05,0.1,0.49968329839687375,-0.11950949475004985,0.2800000000000001,-75,90.0,-90.0,0.08147243013485243,0.5376353225674246,0.012270056569133209,0.950828962540571,0.001999395149795295,0.6081796385432431,1.8445104257802891
0.45,-0.05,0.1,0.5159807621135332,-0.10428203230275507,0.28,-60,90.0,-90.0,0.074098290188363,0.5152727498587946,-0.07060839561964904,1.031021226777204,0.0015544113904949206,0.6095824778750129,1.5603549858452734
0.45,-0.05,0.1,0.5277817459305203,-0.08535533905932736,0.28,-45,90.0,-90.0,0.06768695069651563,0.460134150907579,-0.1502148210937168,1.1001307473042978,-0.0007017912873259388,0.620766823089236,1.2470003233655687
0.45,-0.05,0.1,0.5342820323027551,-0.06401923788646682,0.2800000000000001,-30,90.0,-90.0,0.06279409834201896,0.3687242970822592,-0.21535853322237558,1.1515987894724373,0.0007433455411607426,0.6351812620067833,0.8908408177336415
0.45,-0.05,0.1,0.5350386374562011,-0.04172774881952959,0.28,-15,90.0,-90.0,0.060202703259194294,0.24847706803808606,-0.250819283970355,1.1778388496734045,-0.001447181759873367,0.6439851064300933,0.512346339066126
0.45,-0.05,0.1,0.53,-0.01999999999999997,0.2800000000000001,0,90.0,-90.0,0.06048765292956731,0.11776290454711981,-0.24600010169931816,1.1747556154608663,-0.0012325216115109305,0.6416478600987926,0.11796196633412548
0.45,-0.05,0.1,0.5195094947500498,-0.0003167016031262737,0.28,15,90.0,-90.0,0.06373458142378323,0.0023313126297773968,-0.20187496626029117,1.1417987715532247,-0.001022665818255808,0.6311500637704127,-0.257801944908794
0.45,-0.05,0.1,0.504282032302755,0.015980762113533192,0.2800000000000001,30,90.0,-90.0,0.06909679540404709,-0.08153848384157533,-0.1320370788637753,1.0854072822993284,-0.00041421156142268183,0.6174590429362116,-0.6056636749521811
0.45,-0.05,0.1,0.4853553390593274,0.027781745930520255,0.28,45,90.0,-90.0,0.0758083070827789,-0.128910117412769,-0.051096026386973026,1.0126267513453344,0.0019104767876648586,0.6091285795235466,-0.9160576613766215
0.45,-0.05,0.1,0.4640192378864668,0.0342820323027551,0.28,60,90.0,-90.0,0.08306383170575145,-0.14436952331695094,0.03081913542403219,0.9316062481445939,0.0009913510282062638,0.6076014279024405,-1.1915010991692956
0.45,-0.05,0.1,0.4417277488195296,0.03503863745620109,0.2800000000000001,75,90.0,-90.0,0.09061351826046338,-0.1349010219026807,0.10891464655739429,0.8472351469023099,0.0015817005067418504,0.6153646494534477,-1.445556445790068
0.45,-0.05,0.1,0.42,0.030000000000000027,0.2800000000000001,90,90.0,-90.0,0.09743036912726959,-0.10717149322950158,0.17833254085662936,0.7664017955007068,0.0013970976787360733,0.6257621845786956,-1.6793207570349842
0.4,-0.1,0.1,0.43000000000000005,-0.18,0.2800000000000001,-90,90.0,-90.0,0.09868435169438634,0.587755910466735,0.3138163461768276,0.5933571250985226,0.0012262663501766114,0.6636322591629159,2.157295948979004
0.4,-0.1,0.1,0.44968329839687377,-0.16950949475004984,0.2800000000000001,-75,90.0,-90.0,0.09994996698481909,0.5948749817438708,0.2448181347152227,0.6837957295940208,0.0008505515486836718,0.6423541887810174,1.90292674351059
0.4,-0.1,0.1,0.46598076211353323,-0.15428203230275508,0.28,-60,90.0,-90.0,0.09554750324067321,0.5829600091810276,0.17448200038140232,0.7708252638584461,-0.0011851084218435343,0.6265306924199192,1.630555223341904
0.4,-0.1,0.1,0.47778174593052025,-0.13535533905932737,0.28,-45,90.0,-90.0,0.08871757099392871,0.5468803419155583,0.1072716152135836,0.8493987865456919,-0.00031648694731347825,0.613404946069614,1.3321376994729142
0.4,-0.1,0.1,0.4842820323027551,-0.11401923788646683,0.2800000000000001,-30,90.0,-90.0,0.08337329458360176,0.48613341400308874,0.05095087577076158,0.9109328559303751,-3.21264743557585e-05,0.608450097330681,1.009480016018527
0.4,-0.1,0.1,0.4850386374562011,-0.0917277488195296,0.28,-15,90.0,-90.0,0.07993194633766357,0.40333503975715806,0.013704246466658547,0.9495366201718917,-0.0007233469880791953,0.606878012172037,0.6660444315323275
0.4,-0.1,0.1,0.48000000000000004,-0.06999999999999998,0.2800000000000001,0,90.0,-90.0,0.0790948245397608,0.3083421826925508,0.003778356941047748,0.9592789971911664,-0.0017652946414202825,0.6075592806156617,0.3099650591732967
0.4,-0.1,0.1,0.4695094947500499,-0.050316701603126276,0.28,15,90.0,-90.0,0.08068965118520419,0.21470533227003116,0.022311100634154125,0.9409985915685023,-0.0001254408340488252,0.6067725870918104,-0.04637681949244341
0.4,-0.1,0.1,0.4542820323027551,-0.03401923788646681,0.2800000000000001,30,90.0,-90.0,0.08479442804841861,0.13761846601629285,0.06528929035710838,0.8955238313341649,-0.0014455187683006497,0.610210113118888,-0.38452263148536564
0.4,-0.1,0.1,0.4353553390593274,-0.022218254069479748,0.28,45,90.0,-90.0,0.09055646161242052,0.08382085383129333,0.12529505088422813,0.8285557011924146,-0.0012917114730090517,0.6166001811591133,-0.6995858336043298
0.4,-0.1,0.1,0.41401923788646683,-0.0157179676972449,0.28,60,90.0,-90.0,0.09735867840361298,0.055170309771564445,0.19389501941727313,0.7476312987211388,-0.001780891628349368,0.629434851846345,-0.9903409699261687
0.4,-0.1,0.1,0.3917277488195296,-0.014961362543798915,0.2800000000000001,75,90.0,-90.0,0.09977393470743509,0.04887540547868275,0.2645657579926719,0.6583560593496074,-0.0018345539729974483,0.6476304685851282,-1.2591268000292362
0.4,-0.1,0.1,0.37,-0.019999999999999976,0.2800000000000001,90,90.0,-90.0,0.09812844818494786,0.06056689162250659,0.33251402518653045,0.5678827279212474,0.0007734353426283372,0.6712703444534025,-1.5101810600267338
0.4,0.05,0.1,0.43000000000000005,-0.03,0.2800000000000001,-90,90.0,-90.0,0.09303310071800365,0.11040115620370893,0.1456332262773265,0.8048851368524998,0.0015691734236364272,0.6210637871810897,1.68028611939945
0.4,0.05,0.1,0.44968329839687377,-0.019509494750049844,0.2800000000000001,-75,90.0,-90.0,0.0860620906658682,0.07808241699857847,0.07622513211280679,0.8840364180068148,-0.0015751100321338583,0.6100427395359476,1.3893190862255838
0.4,0.05,0.1,0.46598076211353323,-0.004282032302755069,0.28,-60,90.0,-90.0,0.08049022790513688,0.018261499097028927,0.015543917316452641,0.9476596016151383,-0.0018330821032137702,0.6077129653110828,1.0662053613227134
0.4,0.05,0.1,0.47778174593052025,0.01464466094067264,0.28,-45,90.0,-90.0,0.07672711801924108,-0.06601678867319341,-0.02665357542504029,0.9896899035890147,-1.0070390504510933e-05,0.6079801719731747,0.7185323134367865
0.4,0.05,0.1,0.4842820323027551,0.03598076211353318,0.2800000000000001,-30,90.0,-90.0,0.0752670372816638,-0.16521284053326393,-0.04271206747055221,1.00485614609182,0.00045492530677947824,0.6077456814862824,0.3579587892752236
0.4,0.05,0.1,0.4850386374562011,0.058272251180470414,0.28,-15,90.0,-90.0,0.07675568419927496,-0.2649245596402359,-0.026526450437301886,0.9893866516052598,0.0014427062040545855,0.6082451951956219,-0.004133627473038754
0.4,0.05,0.1,0.48000000000000004,0.08000000000000004,0.2800000000000001,0,90.0,-90.0,0.08041109837821997,-0.3489816711408806,0.015601169740215895,0.9478608077605012,-0.0002367583356550373,0.6065221158780181,-0.34884449492640845
0.4,0.05,0.1,0.4695094947500499,0.09968329839687373,0.28,15,90.0,-90.0,0.08614275415096297,-0.40799363867867444,0.07637548593850474,0.883762004982022,-0.001313614752410135,0.6106390977948343,-0.6681617384448861
0.4,0.05,0.1,0.4542820323027551,0.1159807621135332,0.2800000000000001,30,90.0,-90.0,0.09289075714049728,-0.4411443079315035,0.14611294917237447,0.8050636494966822,0.0009107010732089863,0.6192284563807554,-0.966346388154526
0.4,0.05,0.1,0.4353553390593274,0.12778174593052027,0.28,45,90.0,-90.0,0.09963696091636137,-0.4497307255976741,0.21819038471388266,0.7176432434502629,-0.0013927508272597727,0.6355869477337601,-1.2349830770058587
0.4,0.05,0.1,0.41401923788646683,0.1342820323027551,0.28,60,90.0,-90.0,0.09957418241153534,-0.43942544260324107,0.2869925092899402,0.6292165926707509,0.0013726514710203654,0.6536744568163496,-1.4880662268324845
0.4,0.05,0.1,0.3917277488195296,0.1350386374562011,0.2800000000000001,75,90.0,-90.0,0.09774994949185171,-0.4132480628682572,0.350728567152666,0.543358246465446,0.0016943024358016953,0.6762544311394603,-1.7245340904605855
0.4,0.05,0.1,0.37,0.13000000000000003,0.2800000000000001,90,90.0,-90.0,0.0956040544135382,-0.3750427258833661,0.4062430501239921,0.4652086465634046,-0.001640575855241686,0.6995691411930606,-1.944420528567508
0.4,-0.15000000000000002,0.1,0.43000000000000005,-0.23000000000000004,0.2800000000000001,-90,90.0,-90.0,0.09499752108020576,0.7053960926820504,0.40641671191589956,0.46482417732435427,0.0017413066237686496,0.6996429437507492,2.274239879158994
0.4,-0.15000000000000002,0.1,0.44968329839687377,-0.21950949475004988,0.2800000000000001,-75,90.0,-90.0,0.09752365713679234,0.7195562415465662,0.34011042440618044,0.5577060625085205,0.0018990940075124141,0.673474226959416,2.0263068577168797
0.4,-0.15000000000000002,0.1,0.46598076211353323,-0.2042820323027551,0.28,-60,90.0,-90.0,0.0993753253562742,0.7175268263408348,0.27136378442680925,0.6500651861170981,0.0013107329728687242,0.6502041570041325,1.764671644036874
0.4,-0.15000000000000002,0.1,0.47778174593052025,-0.18535533905932738,0.28,-45,90.0,-90.0,0.09779061347752564,0.6952099101700255,0.20355146331235238,0.7354820337749173,-0.000657307393792424,0.6325902456975,1.4805222880682305
0.4,-0.15000000000000002,0.1,0.4842820323027551,-0.16401923788646683,0.2800000000000001,-30,90.0,-90.0,0.0916966340476073,0.6503003486537698,0.14346008581093134,0.808108419624776,-0.0013561042999320834,0.6186401875518368,1.1745372681171717
0.4,-0.15000000000000002,0.1,0.4850386374562011,-0.1417277488195296,0.28,-15,90.0,-90.0,0.08720016376713309,0.5827266990725765,0.09783648432693857,0.8598688160357879,-0.00027434185375362465,0.6118911659340357,0.8449910218035716
0.4,-0.15000000000000002,0.1,0.48000000000000004,-0.12,0.2800000000000001,0,90.0,-90.0,0.08513038077862349,0.49938263102092023,0.0742244991593903,0.8855369271841265,0.001048290437147836,0.6117178234299535,0.4984494089543321
0.4,-0.15000000000000002,0.1,0.4695094947500499,-0.1003167016031263,0.28,15,90.0,-90.0,0.08522357658039655,0.41042994530726123,0.07715981182521366,0.8828926083265984,0.0011727741782954957,0.6098599126223682,0.14782605066940355
0.4,-0.15000000000000002,0.1,0.4542820323027551,-0.08401923788646683,0.2800000000000001,30,90.0,-90.0,0.08802522265365437,0.3292241332317034,0.10574148242087125,0.8510921041572228,0.000547146239097593,0.6135181403522308,-0.19561770848722804
0.4,-0.15000000000000002,0.1,0.4353553390593274,-0.07221825406947976,0.28,45,90.0,-90.0,0.09294964764770072,0.2664806134720914,0.15441999817934815,0.7947410507086459,-0.0007018360872844262,0.6222160305082634,-0.5174536425307386
0.4,-0.15000000000000002,0.1,0.41401923788646683,-0.06571796769724492,0.28,60,90.0,-90.0,0.09888612153810813,0.22599326354227,0.21705182613482973,0.718988271338242,-0.00045004342297441007,0.635621053643033,-0.8217209176256896
0.4,-0.15000000000000002,0.1,0.3917277488195296,-0.06496136254379893,0.2800000000000001,75,90.0,-90.0,0.09909922988472117,0.20779976018877291,0.28448159798597655,0.6323039138767734,-0.0013822203236886783,0.6537295901355825,-1.1001230139861249
0.4,-0.15000000000000002,0.1,0.37,-0.06999999999999999,0.2800000000000001,90,90.0,-90.0,0.09707839286724296,0.209198565501218,0.35352913904811234,0.5395781007474895,-0.00010513207213582267,0.6781901726321004,-1.3622846996415414
0.35000000000000003,0.1,0.1,0.38000000000000006,0.020000000000000004,0.2800000000000001,-90,90.0,-90.0,0.09821177970706886,-0.06244369780578856,0.3014083179169953,0.6101187262087001,-9.5733984903213e-05,0.6583007618274757,1.5083370695607143
0.35000000000000003,0.1,0.1,0.3996832983968738,0.03049050524995016,0.2800000000000001,-75,90.0,-90.0,0.09927930311810067,-0.10126166594354104,0.24310025768793145,0.6862929627438554,0.0019144293274365898,0.6408978143837875,1.2054714575402519
0.35000000000000003,0.1,0.1,0.4159807621135332,0.045717967697244934,0.28,-60,90.0,-90.0,0.09622673958345086,-0.1599455917251662,0.19776436508519454,0.7428243000657883,4.4954381925244106e-05,0.6290736974546476,0.8864718486357195
0.35000000000000003,0.1,0.1,0.42778174593052026,0.06464466094067264,0.28,-45,90.0,-90.0,0.09377974914077754,-0.2329966265740703,0.1721689331952927,0.7735294233739617,-0.0017771534525931982,0.62503723258604,0.5547652004452498
0.35000000000000003,0.1,0.1,0.43428203230275514,0.08598076211353319,0.2800000000000001,-30,90.0,-90.0,0.09356781956475614,-0.3130332720095415,0.17098821653727997,0.7753204763463686,0.0005088930755922079,0.6238135961406067,0.21110713082430535
0.35000000000000003,0.1,0.1,0.43503863745620114,0.10827225118047042,0.28,-15,90.0,-90.0,0.09585075225161545,-0.3877637893484972,0.19359869183025788,0.748147257306743,-0.0007391387244179101,0.6285240543086835,-0.1262115145191111
0.35000000000000003,0.1,0.1,0.43000000000000005,0.13000000000000003,0.2800000000000001,0,90.0,-90.0,0.09922365624199331,-0.44830342880856766,0.236166505192138,0.6948705654491169,-0.0012678611249528943,0.6392368152016316,-0.4463799377962862
0.35000000000000003,0.1,0.1,0.4195094947500499,0.14968329839687372,0.28,15,90.0,-90.0,0.09842812494417942,-0.4901179927925648,0.2934041184706539,0.6207924832580527,0.0007606821232808273,0.6556770245286418,-0.7519127365990923
0.35000000000000003,0.1,0.1,0.4042820323027551,0.1659807621135332,0.2800000000000001,30,90.0,-90.0,0.09634982295786698,-0.511545447366342,0.35865361007777596,0.5321492998354975,0.0011853159149393464,0.6801449626697298,-1.0364475878531174
0.35000000000000003,0.1,0.1,0.3853553390593274,0.17778174593052026,0.28,45,90.0,-90.0,0.09355152038042287,-0.5139226354036672,0.426892124340732,0.43556800893901076,-0.0014189357009105107,0.7082208673973363,-1.2985690074516931
0.35000000000000003,0.1,0.1,0.36401923788646684,0.1842820323027551,0.28,60,90.0,-90.0,0.09032628217376457,-0.5016221851383343,0.49356059267490815,0.33707090577307447,-0.001142997918911468,0.7401882227198003,-1.548109408705565
0.35000000000000003,0.1,0.1,0.3417277488195296,0.18503863745620108,0.2800000000000001,75,90.0,-90.0,0.08692887629216774,-0.47662985441820027,0.5554574367757951,0.24270019136893928,-0.0011008306453220876,0.7724847901373026,-1.7843972642163082
0.35000000000000003,0.1,0.1,0.32,0.18000000000000005,0.2800000000000001,90,90.0,-90.0,0.08365765729575446,-0.44235422741302444,0.6097015341762426,0.15819776959544793,7.947744669052436e-05,0.8023235614929068,-2.012644848414898
0.35000000000000003,0.15000000000000002,0.1,0.38000000000000006,0.07000000000000002,0.2800000000000001,-90,90.0,-90.0,0.09726037642327677,-0.21543149982353563,0.3234918331955592,0.5807031964793834,0.0005672568690733234,0.6659582530524479,1.354216626971122
0.35000000000000003,0.15000000000000002,0.1,0.3996832983968738,0.08049050524995018,0.2800000000000001,-75,90.0,-90.0,0.0987230998308846,-0.2615359916813213,0.27176080652462564,0.6494746009005693,-0.0017004611269816948,0.6499094604100296,1.0492917592902773
0.35000000000000003,0.15000000000000002,0.1,0.4159807621135332,0.09571796769724494,0.28,-60,90.0,-90.0,0.09924452853343668,-0.3247442662990084,0.23669678981017775,0.6942973939428425,-0.0008229224886903471,0.6399690369649577,0.722161989347466
0.35000000000000003,0.15000000000000002,0.1,0.42778174593052026,0.11464466094067266,0.28,-45,90.0,-90.0,0.09843711769633866,-0.3988091105730817,0.22276320794875443,0.7119567623787648,0.00202239617613239,0.6366341570946779,0.3840905486221926
0.35000000000000003,0.15000000000000002,0.1,0.43428203230275514,0.13598076211353322,0.2800000000000001,-30,90.0,-90.0,0.09918287985001994,-0.4728261151316488,0.23294388651311468,0.6992893041830217,-0.001191048355431036,0.6392203904393923,0.0521549357033127
0.35000000000000003,0.15000000000000002,0.1,0.43503863745620114,0.15827225118047045,0.28,-15,90.0,-90.0,0.09887659450162169,-0.5387074864767305,0.26417654992638917,0.6587537907862947,0.001478524783591144,0.6477581703638947,-0.27849156484006155
0.35000000000000003,0.15000000000000002,0.1,0.43000000000000005,0.18000000000000005,0.2800000000000001,0,90.0,-90.0,0.09757595871721322,-0.5882423917569237,0.31349635235470413,0.5937929360873809,0.0007633007094469911,0.6632496003034468,-0.5878633880046904
0.35000000000000003,0.15000000000000002,0.1,0.4195094947500499,0.19968329839687377,0.28,15,90.0,-90.0,0.09540435933072385,-0.6186245159785386,0.37500413278114436,0.5094241246701119,-0.0004501453162474478,0.6872026970745323,-0.8798372272094424
0.35000000000000003,0.15000000000000002,0.1,0.4042820323027551,0.21598076211353323,0.2800000000000001,30,90.0,-90.0,0.09257575019367813,-0.6311275816899073,0.4409691313528077,0.4148005629520618,0.0013097123552297267,0.7147888224218437,-1.1566396219766473
0.35000000000000003,0.15000000000000002,0.1,0.3853553390593274,0.22778174593052028,0.28,45,90.0,-90.0,0.0891533261866663,-0.6264482448571231,0.5093093051834813,0.3130916181633927,-0.0012654583037280801,0.7481341718045564,-1.4104191478478505
0.35000000000000003,0.15000000000000002,0.1,0.36401923788646684,0.23428203230275513,0.28,60,90.0,-90.0,0.08546559182063321,-0.609017565043598,0.574794854989003,0.2127247699692627,-2.1647709934543164e-05,0.7822732602801818,-1.6557140205381011
0.35000000000000003,0.15000000000000002,0.1,0.3417277488195296,0.23503863745620113,0.2800000000000001,75,90.0,-90.0,0.08171906849125593,-0.580948454864319,0.6348047416388304,0.11791689205440505,0.0016315411647755491,0.8175015110016837,-1.8918596528961695
0.35000000000000003,0.15000000000000002,0.1,0.32,0.23000000000000004,0.2800000000000001,90,90.0,-90.0,0.07820874451548934,-0.5441195401210863,0.6865188537331648,0.03454570966200415,-0.0015746524533453014,0.8499284829557779,-2.1131680325256332
0.30000000000000004,0.1,0.1,0.33000000000000007,0.020000000000000004,0.2800000000000001,-90,90.0,-90.0,0.09128215264478677,-0.05396258599412133,0.454695277049762,0.3945802428045058,0.00042491527051000664,0.7222759510423219,1.5159181871497285
0.30000000000000004,0.1,0.1,0.3496832983968738,0.03049050524995016,0.2800000000000001,-75,90.0,-90.0,0.09389751976905339,-0.08701378049307136,0.39697455330212134,0.4784291611449069,-8.982612911169859e-06,0.6943444846114457,1.221520928071586
0.30000000000000004,0.1,0.1,0.36598076211353325,0.045717967697244934,0.28,-60,90.0,-90.0,0.09566906227101016,-0.1361728626685099,0.35275929285501284,0.5403580462716244,0.0007333138201969669,0.6771023984393946,0.9107318337053575
0.30000000000000004,0.1,0.1,0.3777817459305203,0.06464466094067264,0.28,-45,90.0,-90.0,0.0966251949674658,-0.19827378578500646,0.32630065671306313,0.5762276844119977,0.0021495275155633954,0.668472907040162,0.585345752189959
0.30000000000000004,0.1,0.1,0.38428203230275515,0.08598076211353319,0.2800000000000001,-30,90.0,-90.0,0.0967679738603766,-0.2657845630373659,0.3224515578080177,0.5817380756632365,-0.0004232215101519839,0.6675039944426128,0.2576674493277245
0.30000000000000004,0.1,0.1,0.38503863745620115,0.10827225118047042,0.28,-15,90.0,-90.0,0.09615194886878602,-0.33131422381420617,0.3398174321977832,0.5580667846293428,0.0016534926479612536,0.672094017186115,-0.06987021959872543
0.30000000000000004,0.1,0.1,0.38000000000000006,0.13000000000000003,0.2800000000000001,0,90.0,-90.0,0.09467690560920916,-0.3857983163185617,0.37822211545246825,0.5050171446339122,-0.0013563666307331488,0.6878789592977363,-0.38507558032859923
0.30000000000000004,0.1,0.1,0.3695094947500499,0.14968329839687372,0.28,15,90.0,-90.0,0.09240334290019032,-0.4255784919919635,0.43095887531440674,0.4293667866610977,0.0014478494745943156,0.7106882220480932,-0.6893898948812456
0.30000000000000004,0.1,0.1,0.3542820323027551,0.1659807621135332,0.2800000000000001,30,90.0,-90.0,0.08931902305555789,-0.44766665147453216,0.4943592559191358,0.33603960509389347,0.0012891019261871898,0.7402138332968768,-0.9726121600879656
0.30000000000000004,0.1,0.1,0.3353553390593274,0.17778174593052026,0.28,45,90.0,-90.0,0.08552532487129157,-0.4534193921230995,0.5630856390116791,0.2310092100840311,-0.0014579172852603323,0.7763163015729702,-1.2375697771992396
0.30000000000000004,0.1,0.1,0.31401923788646685,0.1842820323027551,0.28,60,90.0,-90.0,0.0812470297856786,-0.44552731136253193,0.6326973194576297,0.12127342362598625,-3.819327028002292e-06,0.817163162752829,-1.4933332167456277
0.30000000000000004,0.1,0.1,0.2917277488195296,0.18503863745620108,0.2800000000000001,75,90.0,-90.0,0.07665508276771778,-0.4255312476033483,0.7001971171126311,0.012160670717586714,-0.0010661902315331623,0.8584313952668639,-1.733320248698823
0.30000000000000004,0.1,0.1,0.27,0.18000000000000005,0.2800000000000001,90,90.0,-90.0,0.07210770799652014,-0.39641550026030725,0.7619866940762862,-0.08961651108396909,0.0003574164069700097,0.8991099358079411,-1.968304635684892
0.30000000000000004,0.15000000000000002,0.1,0.33000000000000007,0.07000000000000002,0.2800000000000001,-90,90.0,-90.0,0.09008045310584104,-0.18698222458123093,0.4733323348841096,0.3674217627169586,0.0011305763180341228,0.7310838679969855,1.38239658082984
0.30000000000000004,0.15000000000000002,0.1,0.3496832983968738,0.08049050524995018,0.2800000000000001,-75,90.0,-90.0,0.09257088309997988,-0.22572773093953435,0.42059363700358304,0.44415595889089,-0.0006044425847907427,0.706860936189113,1.0835395701064425
0.30000000000000004,0.15000000000000002,0.1,0.36598076211353325,0.09571796769724494,0.28,-60,90.0,-90.0,0.09414344224887689,-0.27912670678749524,0.3845709355139718,0.496210980211491,0.0012553459478917774,0.6901377752285839,0.766567787687002
0.30000000000000004,0.15000000000000002,0.1,0.3777817459305203,0.11464466094067266,0.28,-45,90.0,-90.0,0.09482463151484948,-0.34181723621597626,0.3675326939239271,0.519614902281409,-3.065547914389501e-05,0.6828613046970595,0.4427177217213625
0.30000000000000004,0.15000000000000002,0.1,0.38428203230275515,0.13598076211353322,0.2800000000000001,-30,90.0,-90.0,0.09461398909396898,-0.40688021531615404,0.37289842215333785,0.5121830140267274,-0.00011835133537861544,0.6864885995754737,0.116776097348368
0.30000000000000004,0.15000000000000002,0.1,0.38503863745620115,0.15827225118047045,0.28,-15,90.0,-90.0,0.09350127497880047,-0.46564650818139913,0.3996615077428774,0.4747128855892759,-0.0009740608239965281,0.6954549338470848,-0.2037678979701078
0.30000000000000004,0.15000000000000002,0.1,0.38000000000000006,0.18000000000000005,0.2800000000000001,0,90.0,-90.0,0.09149234143030532,-0.5124541291502129,0.4440598593883228,0.4102963932340331,-0.0011432781031208198,0.7163716215158614,-0.5123442400464558
0.30000000000000004,0.15000000000000002,0.1,0.3695094947500499,0.19968329839687377,0.28,15,90.0,-90.0,0.08859521998913723,-0.5433336291803521,0.502238951487802,0.32400383334864696,-0.0007543900499348277,0.744950881623294,-0.8038380477038095
0.30000000000000004,0.15000000000000002,0.1,0.3542820323027551,0.21598076211353323,0.2800000000000001,30,90.0,-90.0,0.08486020896321653,-0.5581714705954645,0.5692090450457689,0.22132538317472067,-0.0017222877983396924,0.7801104383759682,-1.080803718021042
0.30000000000000004,0.15000000000000002,0.1,0.3353553390593274,0.22778174593052028,0.28,45,90.0,-90.0,0.08046598551381533,-0.5583420626912232,0.6400434433376719,0.10944187143260134,-0.0004757985179723983,0.8213139764920128,-1.3424119055433072
0.30000000000000004,0.15000000000000002,0.1,0.31401923788646685,0.23428203230275513,0.28,60,90.0,-90.0,0.07559921534556466,-0.5456396061780365,0.7111785284093955,-0.005625078858368732,-0.0004072381060737675,0.8644018448652944,-1.5934606020934805
0.30000000000000004,0.15000000000000002,0.1,0.2917277488195296,0.23503863745620113,0.2800000000000001,75,90.0,-90.0,0.07050990819355864,-0.522389758428674,0.7792815704732374,-0.11831569871675635,0.0009660199460662933,0.909120000402602,-1.832051565757907
0.30000000000000004,0.15000000000000002,0.1,0.27,0.23000000000000004,0.2800000000000001,90,90.0,-90.0,0.06561137577648543,-0.4912873528847974,0.8398139145407996,-0.22087112130936398,8.545873419584372e-06,0.9507840897817311,-2.061931201286958
0.30000000000000004,0.05,0.1,0.33000000000000007,-0.03,0.2800000000000001,-90,90.0,-90.0,0.09139142495152275,0.08065964545261438,0.4563862203676162,0.3922948785992566,-0.00010222154093479663,0.7213579926714991,1.6514896741192404
0.30000000000000004,0.05,0.1,0.3496832983968738,-0.019509494750049844,0.2800000000000001,-75,90.0,-90.0,0.09418061120941562,0.05546678273865446,0.39440962742116603,0.4820294209618691,0.0015184195747556402,0.693838728349306,1.3624878323931335
0.30000000000000004,0.05,0.1,0.36598076211353325,-0.004282032302755069,0.28,-60,90.0,-90.0,0.09618585601300747,0.01267281529602512,0.34295863405938193,0.5535789807468805,0.0017130219437606195,0.6739188456783228,1.0582245160714694
0.30000000000000004,0.05,0.1,0.3777817459305203,0.01464466094067264,0.28,-45,90.0,-90.0,0.09741303958199433,-0.045223208760073984,0.3074223266901224,0.6019280976391574,-0.0019191070642646912,0.6612516869336105,0.7421510119640242
0.30000000000000004,0.05,0.1,0.38428203230275515,0.03598076211353318,0.2800000000000001,-30,90.0,-90.0,0.097858330565473,-0.11366640026868069,0.29321831932741743,0.6211890518349866,0.001307396435983741,0.655911146263107,0.40795294968310564
0.30000000000000004,0.05,0.1,0.38503863745620115,0.058272251180470414,0.28,-15,90.0,-90.0,0.09762096462608554,-0.18304022448513507,0.30061076640259854,0.6108051459673383,0.0008862982705499519,0.659731477361257,0.07870852250942598
0.30000000000000004,0.05,0.1,0.38000000000000006,0.08000000000000004,0.2800000000000001,0,90.0,-90.0,0.09664953322169248,-0.24544490023181298,0.3303636845271751,0.5710674623528101,0.0013628454558360435,0.6699615548931115,-0.247363487923186
0.30000000000000004,0.05,0.1,0.3695094947500499,0.09968329839687373,0.28,15,90.0,-90.0,0.09489584470135505,-0.2933484451518892,0.3772010902548575,0.5063498207467177,0.001262487948331603,0.6870788534241875,-0.5567244599689625
0.30000000000000004,0.05,0.1,0.3542820323027551,0.1159807621135332,0.2800000000000001,30,90.0,-90.0,0.09230684743534112,-0.323362096424762,0.4368549133492968,0.4208146406059027,-0.0017428375539473508,0.7133362186638424,-0.8461234646671483
0.30000000000000004,0.05,0.1,0.3353553390593274,0.12778174593052027,0.28,45,90.0,-90.0,0.08903996387723707,-0.33700796022036306,0.5032382983190348,0.32261321522424463,0.0011193231240732853,0.7445290235129768,-1.124107166810191
0.30000000000000004,0.05,0.1,0.31401923788646685,0.1342820323027551,0.28,60,90.0,-90.0,0.08517880182004374,-0.33477554972744294,0.5720225520179962,0.21675366649460584,-0.0002813322603118682,0.7815705856358377,-1.3824625717700694
0.30000000000000004,0.05,0.1,0.2917277488195296,0.1350386374562011,0.2800000000000001,75,90.0,-90.0,0.0809266053886098,-0.3192883371692069,0.6403510753299602,0.10898772449966347,-9.384342152340725e-05,0.8223436738950974,-1.6286320546807411
0.30000000000000004,0.05,0.1,0.27,0.13000000000000003,0.2800000000000001,90,90.0,-90.0,0.07662285568026575,-0.2935013192641975,0.7032760621739086,0.0074122908374002075,-3.340186305725598e-05,0.8599741933548033,-1.8652045148098628
0.30000000000000004,0.2,0.1,0.33000000000000007,0.12000000000000001,0.2800000000000001,-90,90.0,-90.0,0.08772698568772785,-0.31363269901243523,0.5108792278072882,0.3109167440610295,0.0016892338768674476,0.7484817454329894,1.256307776527562
0.30000000000000004,0.2,0.1,0.3496832983968738,0.13049050524995015,0.2800000000000001,-75,90.0,-90.0,0.09011396951166739,-0.3566065870169861,0.4645135407741576,0.3803762038613988,0.0012507779354412264,0.7260100170433751,0.9524406245888607
0.30000000000000004,0.2,0.1,0.36598076211353325,0.14571796769724493,0.28,-60,90.0,-90.0,0.09147916196458669,-0.41134443041696594,0.4362536151491793,0.4220579702218375,-0.0014281335122512061,0.7127043168297068,0.6374259257253254
0.30000000000000004,0.2,0.1,0.3777817459305203,0.16464466094067265,0.28,-45,90.0,-90.0,0.09184209903270074,-0.47248014215038414,0.42817653353705626,0.4334282027070996,4.1284669239374773e-05,0.7093559502270631,0.31209751114505785
0.30000000000000004,0.2,0.1,0.38428203230275515,0.1859807621135332,0.2800000000000001,-30,90.0,-90.0,0.09119058517921805,-0.532393910276427,0.442069570774573,0.41310097105111476,4.120044745781356e-05,0.716415677171778,-0.008189244511586037
0.30000000000000004,0.2,0.1,0.38503863745620115,0.20827225118047044,0.28,-15,90.0,-90.0,0.08952208106587099,-0.5842623204946823,0.4765359714552126,0.36278326267442407,-0.000522751304916656,0.7319033071165228,-0.32269642786705777
0.30000000000000004,0.2,0.1,0.38000000000000006,0.23000000000000004,0.2800000000000001,0,90.0,-90.0,0.08686793313338147,-0.6229656079780621,0.5269366573903471,0.28676383270115036,-0.0011593781836372146,0.7575850595521988,-0.6212002715325231
0.30000000000000004,0.2,0.1,0.3695094947500499,0.24968329839687375,0.28,15,90.0,-90.0,0.08321471160357537,-0.6468684116657853,0.5900689671765103,0.18872973783882446,-0.00042279465575503604,0.7928801280422924,-0.9077094963060452
0.30000000000000004,0.2,0.1,0.3542820323027551,0.2659807621135332,0.2800000000000001,30,90.0,-90.0,0.07876690829620105,-0.6559184401203695,0.6599498461706282,0.07768479157900983,0.0005105142427177839,0.8319467708002952,-1.1806396848570475
0.30000000000000004,0.2,0.1,0.3353553390593274,0.2777817459305203,0.28,45,90.0,-90.0,0.0735417362295595,-0.6511833776625475,0.7342083934302588,-0.04379560309279445,0.0008032473197041898,0.8794865329166092,-1.4368245830515725
0.30000000000000004,0.2,0.1,0.31401923788646685,0.2842820323027551,0.28,60,90.0,-90.0,0.06778209418767893,-0.6347768734020391,0.8091724342887767,-0.16882444029858476,-0.00014951368251505415,0.9295708529904414,-1.6813081497646067
0.30000000000000004,0.2,0.1,0.2917277488195296,0.2850386374562011,0.2800000000000001,75,90.0,-90.0,0.06191843161096588,-0.6093313713310854,0.8797635867406415,-0.2888546996042259,-0.0002217937036273199,0.9791201716333876,-1.9178812861946788
0.30000000000000004,0.2,0.1,0.27,0.28,0.2800000000000001,90,90.0,-90.0,0.056264990496019254,-0.5770429902583113,0.9431593334079071,-0.3989482922602594,-0.0012590726927340463,1.0264882159825142,-2.14707822468008
0.45,-0.05000000000000002,0.1,0.48000000000000004,-0.13,0.2800000000000001,-90,90.0,-90.0,0.08891007008970901,0.5332852047412047,0.0915089062896214,0.8666646679657375,0.0016146576256279523,0.6130026912482796,2.10221117181532
0.45,-0.05000000000000002,0.1,0.49968329839687375,-0.11950949475004986,0.2800000000000001,-75,90.0,-90.0,0.08142383553807071,0.5378318936183224,0.012204752333967266,0.9507487636483136,-0.0004397735902982715,0.6078695304549849,1.8463428052570292
0.45,-0.05000000000000002,0.1,0.5159807621135332,-0.1042820323027551,0.28,-60,90.0,-90.0,0.07419896127190607,0.5161825365603748,-0.07042887186294222,1.030589691683662,-0.0017417673753457005,0.6110087820548905,1.5638465844470337
0.45,-0.05000000000000002,0.1,0.5277817459305203,-0.08535533905932738,0.28,-45,90.0,-90.0,0.06760814342129469,0.4600480724345641,-0.1507690819174094,1.1006856010219237,0.0008613847213858005,0.620183889745828,1.2448351698309361
0.45,-0.05000000000000002,0.1,0.5342820323027551,-0.06401923788646684,0.2800000000000001,-30,90.0,-90.0,0.06269468732206264,0.3686578386240078,-0.21542253274356526,1.15204617443068,0.0010885431576890404,0.6335681108205898,0.8921538444921274
0.45,-0.05000000000000002,0.1,0.5350386374562011,-0.041727748819529606,0.28,-15,90.0,-90.0,0.06011308756579582,0.24791331851168968,-0.2512789190079651,1.178217337432852,0.000923639101655025,0.6429507536214526,0.5093397830569406
0.45,-0.05000000000000002,0.1,0.53,-0.019999999999999983,0.2800000000000001,0,90.0,-90.0,0.06054297918102443,0.11669888292616365,-0.2462953415451687,1.17472217960029,0.0010886613457120923,0.6431204708500579,0.11536635037311867
0.45,-0.05000000000000002,0.1,0.5195094947500498,-0.0003167016031262876,0.28,15,90.0,-90.0,0.06374924233880314,0.0019679463944407023,-0.20172804133551675,1.1415959911513784,-0.0015570506963786526,0.6311157127382718,-0.2592280168845245
0.45,-0.05000000000000002,0.1,0.504282032302755,0.01598076211353318,0.2800000000000001,30,90.0,-90.0,0.06909155806172676,-0.08215308069821374,-0.13223721950211564,1.0852540203530938,0.001535910670744,0.6177063616419423,-0.6076393092581179
0.45,-0.05000000000000002,0.1,0.4853553390593274,0.02778174593052024,0.28,45,90.0,-90.0,0.07573175124191873,-0.1287817690671941,-0.05115881233078923,1.013087183264717,0.0008870305004019462,0.608105123579396,-0.9152355402837365
0.45,-0.05000000000000002,0.1,0.4640192378864668,0.03428203230275509,0.28,60,90.0,-90.0,0.08302846608236707,-0.14426439079690345,0.030944947363910933,0.9317761133226794,0.0006244480530969105,0.6070036055345607,-1.1917237483166496
0.45,-0.05000000000000002,0.1,0.4417277488195296,0.035038637456201074,0.2800000000000001,75,90.0,-90.0,0.09058884922866661,-0.13463457559971337,0.10893851988482407,0.8471813975924268,-0.0010076684630648785,0.6148777740867354,-1.4420943904831864
0.45,-0.05000000000000002,0.1,0.42,0.030000000000000013,0.2800000000000001,90,90.0,-90.0,0.09755044566320852,-0.10673279801480524,0.17847459241896332,0.7660512251161765,0.0012870340011394558,0.6269748478274779,-1.6777505549362306
0.4,-0.05,0.1,0.43000000000000005,-0.13,0.2800000000000001,-90,90.0,-90.0,0.10010435926050987,0.44858953631466164,0.23614659423310794,0.6947218698976142,0.0013153285405635945,0.6392791763922241,2.017751489038162
0.4,-0.05,0.1,0.44968329839687377,-0.11950949475004985,0.2800000000000001,-75,90.0,-90.0,0.09475193229141016,0.4449227234747577,0.16448964292223137,0.7828930851312151,0.001171965684860361,0.6227753771864585,1.752977869777121
0.4,-0.05,0.1,0.46598076211353323,-0.10428203230275507,0.28,-60,90.0,-90.0,0.08789941356946111,0.4187691064643431,0.09402205773368558,0.8641437200988545,0.0013201889868136346,0.6131470225841574,1.4643422711254084
0.4,-0.05,0.1,0.47778174593052025,-0.08535533905932736,0.28,-45,90.0,-90.0,0.0818594715824051,0.36621997213013185,0.03034503102967136,0.9326839105947707,0.0015079109511776326,0.6081193861808752,1.1500911555411675
0.4,-0.05,0.1,0.4842820323027551,-0.06401923788646682,0.2800000000000001,-30,90.0,-90.0,0.07740589367912916,0.28873942061816477,-0.018675690491040082,0.9813990700272195,-0.00019093156610785035,0.6073824922194572,0.8116497989808685
0.4,-0.05,0.1,0.4850386374562011,-0.04172774881952959,0.28,-15,90.0,-90.0,0.0753785188432884,0.1915109511432129,-0.04113376565515882,1.003483139641047,0.000747291131503877,0.607381254663834,0.4518911567793855
0.4,-0.05,0.1,0.48000000000000004,-0.01999999999999997,0.2800000000000001,0,90.0,-90.0,0.07603315923901775,0.09086387449919947,-0.03419622791535717,0.996786543445909,-0.0013519228965620015,0.6076972633358497,0.09287185267249588
0.4,-0.05,0.1,0.4695094947500499,-0.0003167016031262737,0.28,15,90.0,-90.0,0.0793365541588709,0.0019906990404477756,0.002458647367978314,0.9608620170690065,-0.0015248718180578484,0.6077552944527312,-0.25878372631283364
0.4,-0.05,0.1,0.4542820323027551,0.015980762113533192,0.2800000000000001,30,90.0,-90.0,0.08459851743681382,-0.06522523112918333,0.05913646833353953,0.902173303448758,0.0003310155483741426,0.6104150872991866,-0.5883944027112135
0.4,-0.05,0.1,0.4353553390593274,0.027781745930520255,0.28,45,90.0,-90.0,0.09098620842153164,-0.10470505077887268,0.12736731623328998,0.8267453176445364,0.00020094284174577916,0.6156827047829035,-0.8902669744039411
0.4,-0.05,0.1,0.41401923788646683,0.0342820323027551,0.28,60,90.0,-90.0,0.09826132824979078,-0.1191666354359996,0.19965016380011327,0.740535517470591,-0.0010317423180577013,0.6312296845159312,-1.166471114141207
0.4,-0.05,0.1,0.3917277488195296,0.03503863745620109,0.2800000000000001,75,90.0,-90.0,0.09989982596548116,-0.1130170611394248,0.26977675060252865,0.6519977925220825,0.00029194558018388905,0.6489266213175139,-1.421545305461981
0.4,-0.05,0.1,0.37,0.030000000000000027,0.2800000000000001,90,90.0,-90.0,0.09825885519055784,-0.09085179296692387,0.33503938224175056,0.5648012268496884,-0.00010103617697276314,0.6701208582529119,-1.6606314074685975
0.45,0.15000000000000002,0.1,0.48000000000000004,0.07000000000000002,0.2800000000000001,-90,90.0,-90.0,0.07970879859402019,-0.3080340274956333,0.003890310972510336,0.9597086615631,-0.00026513802944362776,0.6067045132166322,1.2623234556210126
0.45,0.15000000000000002,0.1,0.49968329839687375,0.08049050524995018,0.2800000000000001,-75,90.0,-90.0,0.07475469428934735,-0.38149827844157974,-0.05300303730040853,1.0147662731638174,-0.0008168792755613935,0.6089208137201951,0.9286077665502953
0.45,0.15000000000000002,0.1,0.5159807621135332,0.09571796769724494,0.28,-60,90.0,-90.0,0.07193030976075303,-0.4791576218550448,-0.08689657016824055,1.0455303202744497,-0.0013079051456968316,0.6121939286168641,0.568395593922012
0.45,0.15000000000000002,0.1,0.5277817459305203,0.11464466094067266,0.28,-45,90.0,-90.0,0.07183308600973899,-0.5874934678210806,-0.08862886842511852,1.0471470131470255,-0.001233394826908,0.6130566791857587,0.19875836572869635
0.45,0.15000000000000002,0.1,0.5342820323027551,0.13598076211353322,0.2800000000000001,-30,90.0,-90.0,0.07428994781349367,-0.6867762732518734,-0.05923168039159077,1.0203616315817656,-0.0017435155670397998,0.6101373319213078,-0.1610979450851324
0.45,0.15000000000000002,0.1,0.5350386374562011,0.15827225118047045,0.28,-15,90.0,-90.0,0.07894446220135848,-0.7646297881957075,-0.005126715047562989,0.9682982539667758,0.0007757478811022427,0.6072409360745926,-0.5032045614811643
0.45,0.15000000000000002,0.1,0.53,0.18000000000000005,0.2800000000000001,0,90.0,-90.0,0.08543578119255882,-0.8139766943113576,0.0644315009119843,0.8967638799925157,-0.0003616865384870412,0.6107500020240944,-0.8142232652808562
0.45,0.15000000000000002,0.1,0.5195094947500498,0.19968329839687377,0.28,15,90.0,-90.0,0.09248142031054757,-0.8357832120550822,0.1375963433900023,0.8144731314596392,-0.0009726799774607878,0.618745063784909,-1.0958129745887946
0.45,0.15000000000000002,0.1,0.504282032302755,0.21598076211353323,0.2800000000000001,30,90.0,-90.0,0.09930154461524035,-0.8346107942476836,0.20987384088239205,0.7278835607331897,0.0011543619175565102,0.6318839617609188,-1.3590626947788877
0.45,0.15000000000000002,0.1,0.4853553390593274,0.22778174593052028,0.28,45,90.0,-90.0,0.09995176115523845,-0.8148576292668316,0.2781992494408851,0.6404890622279017,-0.0004123924643959448,0.6525921170848444,-1.6002827588976065
0.45,0.15000000000000002,0.1,0.4640192378864668,0.23428203230275513,0.28,60,90.0,-90.0,0.09837338988283248,-0.7818487416645897,0.3382910442347461,0.5602232851148411,-0.001163123614103992,0.6716845252566879,-1.8271849044777473
0.45,0.15000000000000002,0.1,0.4417277488195296,0.23503863745620113,0.2800000000000001,75,90.0,-90.0,0.09652425907556261,-0.7383597244460123,0.38935002002270436,0.4891248722880816,-0.0012040224982866738,0.6923612488374981,-2.0454354257768776
0.45,0.15000000000000002,0.1,0.42,0.23000000000000004,0.2800000000000001,90,90.0,-90.0,0.09482195277293032,-0.6879672198267327,0.42967155799401674,0.4315601231460279,0.0013158878651590789,0.710069357601256,-2.258771812479564
0.25000000000000006,0.15000000000000002,0.1,0.2800000000000001,0.07000000000000002,0.2800000000000001,-90,90.0,-90.0,0.08041706801581043,-0.16543979357313185,0.6263583187432165,0.13147989511660538,0.0010878773838646568,0.8124545198073975,1.4038925295942537
0.25000000000000006,0.15000000000000002,0.1,0.2996832983968738,0.08049050524995018,0.2800000000000001,-75,90.0,-90.0,0.08380465099087488,-0.19867987812846769,0.5710830999966586,0.21859195851147561,0.0006012560515704937,0.7803616162277573,1.1090013238650087
0.25000000000000006,0.15000000000000002,0.1,0.3159807621135332,0.09571796769724494,0.28,-60,90.0,-90.0,0.08604790848563941,-0.2443320371098148,0.5317861879660919,0.2790958166293651,-0.0005979073690891303,0.7591119964401465,0.8037393238634134
0.25000000000000006,0.15000000000000002,0.1,0.3277817459305203,0.11464466094067266,0.28,-45,90.0,-90.0,0.08709924246203618,-0.2989026071960642,0.5125125645574784,0.30837941799541996,-0.00069285495721922,0.7501329184262439,0.48787392730234047
0.25000000000000006,0.15000000000000002,0.1,0.33428203230275516,0.13598076211353322,0.2800000000000001,-30,90.0,-90.0,0.08700212339255448,-0.3560089300456988,0.5144532993090234,0.30568233717641874,-0.00017195589198154863,0.7496813927965731,0.1676266444889097
0.25000000000000006,0.15000000000000002,0.1,0.33503863745620116,0.15827225118047045,0.28,-15,90.0,-90.0,0.08569569258644892,-0.40923792084218413,0.5382656252379685,0.2694102329153406,0.0009867311134321827,0.7622438270317096,-0.14893166626266668
0.25000000000000006,0.15000000000000002,0.1,0.33000000000000007,0.18000000000000005,0.2800000000000001,0,90.0,-90.0,0.08321770946320355,-0.4528246820587303,0.5808138307646709,0.20313830075997186,-0.0005820818898174141,0.7856970217249003,-0.4524246227384721
0.25000000000000006,0.15000000000000002,0.1,0.3195094947500499,0.19968329839687377,0.28,15,90.0,-90.0,0.07958725135627115,-0.48312902730921703,0.6393779051112577,0.11073047987257197,0.00010579237849033394,0.8213084359529863,-0.7451286703434905
0.25000000000000006,0.15000000000000002,0.1,0.30428203230275513,0.21598076211353323,0.2800000000000001,30,90.0,-90.0,0.07484543663532905,-0.49950624927326287,0.709292477291643,-0.002359342685454899,-0.0005889007027647451,0.8644371054457375,-1.0222705062045092
0.25000000000000006,0.15000000000000002,0.1,0.2853553390593274,0.22778174593052028,0.28,45,90.0,-90.0,0.06914432457423898,-0.5020839244236757,0.7858228151600137,-0.12959565813786414,-0.0011212635202363852,0.9139483210568037,-1.2873590969984303
0.25000000000000006,0.15000000000000002,0.1,0.26401923788646686,0.23428203230275513,0.28,60,90.0,-90.0,0.06247281610301158,-0.49309125596156145,0.8681971033992361,-0.2690109399615655,0.0009009047165934736,0.9720808042572138,-1.5400659371052852
0.25000000000000006,0.15000000000000002,0.1,0.24172774881952963,0.23503863745620113,0.2800000000000001,75,90.0,-90.0,0.055162933662093405,-0.4738077661280773,0.95108516659394,-0.4124035260414076,-0.00020745813076634046,1.0314434276789615,-1.78257671891835
0.25000000000000006,0.15000000000000002,0.1,0.22000000000000003,0.23000000000000004,0.2800000000000001,90,90.0,-90.0,0.047495140179940325,-0.4468896979735822,1.032235980878503,-0.554984132699854,-0.00026920889087180455,1.0931523679035644,-2.016819092364341
0.5,-0.15000000000000002,0.1,0.53,-0.23000000000000004,0.2800000000000001,-90,90.0,-90.0,0.09900770024589176,0.9338424942019201,0.19287867601986244,0.7490904490485295,0.0014337003459396597,0.6290695415361239,2.502603367419054
0.5,-0.15000000000000002,0.1,0.5496832983968737,-0.21950949475004988,0.2800000000000001,-75,90.0,-90.0,0.09259618725169004,0.9702245266133503,0.12737398340158268,0.826221118337234,-0.00026384810997241975,0.6183202979086869,2.279254769755741
0.5,-0.15000000000000002,0.1,0.5659807621135332,-0.2042820323027551,0.28,-60,90.0,-90.0,0.08525975307261302,0.9903365154884867,0.05235433810464273,0.9091014534905261,3.064457812071376e-05,0.6095775449077384,2.0366179810372005
0.5,-0.15000000000000002,0.1,0.5777817459305202,-0.18535533905932738,0.28,-45,90.0,-90.0,0.0778259831931805,0.9883082672775877,-0.029602980208461593,0.9921073025205859,-0.0015053163559896798,0.6087229741843245,1.7741062244590393
0.5,-0.15000000000000002,0.1,0.5842820323027551,-0.16401923788646683,0.2800000000000001,-30,90.0,-90.0,0.070610484797913,0.9555161540831688,-0.11412018637118766,1.069870636084191,0.0018427309232860595,0.6143014263352621,1.4766932058462587
0.5,-0.15000000000000002,0.1,0.5850386374562011,-0.1417277488195296,0.28,-15,90.0,-90.0,0.0644554173063715,0.8885673244663986,-0.1935228646293931,1.1348237149644789,0.0014843869677676946,0.6288071930248025,1.148303223086816
0.5,-0.15000000000000002,0.1,0.58,-0.12,0.2800000000000001,0,90.0,-90.0,0.06012460804057094,0.7855444098582361,-0.25324255141715246,1.1796564389619617,-0.0013241321257347466,0.6443438765783146,0.7871123533031193
0.5,-0.15000000000000002,0.1,0.5695094947500499,-0.1003167016031263,0.28,15,90.0,-90.0,0.05836636251926215,0.6558542154793592,-0.27839540652748596,1.1976126158062343,-0.00019575042901148472,0.6518018202086182,0.3944784875628655
0.5,-0.15000000000000002,0.1,0.5542820323027551,-0.08401923788646683,0.2800000000000001,30,90.0,-90.0,0.05960097290746428,0.5227788343137615,-0.26088684238856075,1.1850507569691846,0.001627262119050116,0.6467711625904201,-0.0028616005503552104
0.5,-0.15000000000000002,0.1,0.5353553390593273,-0.07221825406947976,0.28,45,90.0,-90.0,0.0636075736040893,0.4132958299424798,-0.2050178730679001,1.1442283229287842,0.0013337323751120385,0.6319481291826486,-0.37299590919457115
0.5,-0.15000000000000002,0.1,0.5140192378864669,-0.06571796769724492,0.28,60,90.0,-90.0,0.06946485703146728,0.3399375772052804,-0.1284384645508066,1.0822826106497072,-0.0007830735707075443,0.6164990579632188,-0.7062508174645322
0.5,-0.15000000000000002,0.1,0.4917277488195296,-0.06496136254379893,0.2800000000000001,75,90.0,-90.0,0.07653108370138491,0.3028723285839248,-0.04386223628189732,1.0061563630887573,-0.0019907843095395912,0.6083986857834099,-1.0037569467380991
0.5,-0.15000000000000002,0.1,0.47,-0.06999999999999999,0.2800000000000001,90,90.0,-90.0,0.08388952556493959,0.29567839122586204,0.03841094187452478,0.9241958998785789,0.0005338833138941782,0.6080510372268839,-1.2763964209822964
0.5,0.05,0.1,0.53,-0.03,0.2800000000000001,-90,90.0,-90.0,0.062035155390323025,0.17446057391247594,-0.23899761515447396,1.1691128562266837,-0.000693380479713516,0.6416080107922733,1.7449177187978882
0.5,0.05,0.1,0.5695094947500499,0.09968329839687373,0.28,15,90.0,-90.0,0.05904456339555987,-0.6518092032520248,-0.28131275906525666,1.1990569766981782,-0.002227959010757849,0.6528470112835506,-0.9114748478769016
0.5,0.05,0.1,0.5542820323027551,0.1159807621135332,0.2800000000000001,30,90.0,-90.0,0.06659143741028009,-0.6727166124496308,-0.17621714370374308,1.121683485200452,0.0015777153507685873,0.625728815151604,-1.1975722162714701
0.5,0.05,0.1,0.5353553390593273,0.12778174593052027,0.28,45,90.0,-90.0,0.0741358872488861,-0.659629054906197,-0.08201605859197462,1.0416095029508445,-0.000568720272242636,0.6118529019064033,-1.4436922937243248
0.5,0.05,0.1,0.5140192378864669,0.1342820323027551,0.28,60,90.0,-90.0,0.08108820444234793,-0.6252105585235382,-0.0019220916578486765,0.9652926782891624,-0.0017514164964097028,0.6076871192046008,-1.669999169092779
0.5,0.05,0.1,0.4917277488195296,0.1350386374562011,0.2800000000000001,75,90.0,-90.0,0.08731540877956716,-0.5753733304875526,0.06589329001207046,0.8946729566475988,0.0013083880478036434,0.6096880834227789,-1.8863967279132006
0.5,0.05,0.1,0.47,0.13000000000000003,0.2800000000000001,90,90.0,-90.0,0.09280837104272203,-0.514388433202521,0.12069694562001863,0.8336622712040197,-0.0005244213953687273,0.6170694470410808,-2.083761763786598
0.35000000000000003,-0.05,0.1,0.38000000000000006,-0.13,0.2800000000000001,-90,90.0,-90.0,0.09580545229604188,0.38589125555014525,0.3782369404310952,0.5050925858953141,0.0008832441169353094,0.6877117772204855,1.955457222484242
0.35000000000000003,-0.05,0.1,0.3996832983968738,-0.11950949475004985,0.2800000000000001,-75,90.0,-90.0,0.09815063760970963,0.3785863388867483,0.3095019575772553,0.5989219048937279,-0.0001142679495483238,0.6614406662845012,1.6867409201363928
0.35000000000000003,-0.05,0.1,0.4159807621135332,-0.10428203230275507,0.28,-60,90.0,-90.0,0.09942483346531882,0.35210653401598513,0.2453375740874,0.6832764287223148,-0.001562276586686587,0.6426451530494767,1.4006648703541515
0.35000000000000003,-0.05,0.1,0.42778174593052026,-0.08535533905932736,0.28,-45,90.0,-90.0,0.09590370573444,0.30418098213953426,0.19072790971602252,0.7516538220761259,-0.0016171103355926357,0.628261757744127,1.0911397368006948
0.35000000000000003,-0.05,0.1,0.43428203230275514,-0.06401923788646682,0.2800000000000001,-30,90.0,-90.0,0.09193847926390973,0.23585516955301278,0.15104837059937035,0.7989446036263582,0.0017015807123134644,0.6203981021203456,0.7580445950088504
0.35000000000000003,-0.05,0.1,0.43503863745620114,-0.04172774881952959,0.28,-15,90.0,-90.0,0.09037575502376996,0.15600587919522246,0.13475038302389006,0.818194311665887,0.0006230782791498699,0.6183713305952366,0.4165065671865836
0.35000000000000003,-0.05,0.1,0.43000000000000005,-0.01999999999999997,0.2800000000000001,0,90.0,-90.0,0.0911460581847805,0.0735490353717439,0.14279835876466834,0.808449804724347,0.0006412410881946446,0.6194104110308647,0.07232867614626508
0.35000000000000003,-0.05,0.1,0.4195094947500499,-0.0003167016031262737,0.28,15,90.0,-90.0,0.09429194948672409,0.0009595741800328583,0.1745757789340524,0.7706680838711382,0.0017028957256516291,0.6249529434721118,-0.263174890531951
0.35000000000000003,-0.05,0.1,0.4042820323027551,0.015980762113533192,0.2800000000000001,30,90.0,-90.0,0.09894080006267486,-0.05407686152810585,0.2248326326403516,0.7090956291161672,-0.0009630472351435548,0.6364586819231993,-0.5776971082805052
0.35000000000000003,-0.05,0.1,0.3853553390593274,0.027781745930520255,0.28,45,90.0,-90.0,0.09874773162652639,-0.0882280210488563,0.28749759169965144,0.6284694552930612,0.0013294821141976853,0.6554232227517087,-0.8740055188741362
0.35000000000000003,-0.05,0.1,0.36401923788646684,0.0342820323027551,0.28,60,90.0,-90.0,0.09668765574675939,-0.10157087686250646,0.35456984277181974,0.5378159516989653,-0.0014014584096223126,0.6788590211270649,-1.1473939259676844
0.35000000000000003,-0.05,0.1,0.3417277488195296,0.03503863745620109,0.2800000000000001,75,90.0,-90.0,0.09395943270016509,-0.09742139426345672,0.4220215617871058,0.4421388971182139,-0.0015536289516247656,0.7059884913183403,-1.4044549814929248
0.35000000000000003,-0.05,0.1,0.32,0.030000000000000027,0.2800000000000001,90,90.0,-90.0,0.09085554373670156,-0.07870388123661712,0.48739238715017175,0.34623645015268406,-4.981595039261187e-05,0.7380228697912179,-1.649599799312178
0.30000000000000004,0.10000000000000002,0.1,0.33000000000000007,0.020000000000000018,0.2800000000000001,-90,90.0,-90.0,0.09128161658436162,-0.053927022877455086,0.4548354753100509,0.39458397864139283,-0.00080941811063285,0.7214982732169175,1.5166449311259274
0.30000000000000004,0.10000000000000002,0.1,0.3496832983968738,0.030490505249950173,0.2800000000000001,-75,90.0,-90.0,0.0939064116192028,-0.08684286225707234,0.39687011011017614,0.4785002603794435,-0.0009116374315932966,0.695214301258995,1.223767713749112
0.30000000000000004,0.10000000000000002,0.1,0.36598076211353325,0.04571796769724495,0.28,-60,90.0,-90.0,0.09567468143529627,-0.13603661020749389,0.3527723834508992,0.540389410742342,-0.0012108702487625197,0.6778723139801996,0.9112511504011368
0.30000000000000004,0.10000000000000002,0.1,0.3777817459305203,0.06464466094067266,0.28,-45,90.0,-90.0,0.09663034286549818,-0.1983136649851674,0.32636232908258733,0.5764578945874764,0.0004570463313925215,0.6667377566683252,0.5861865279032168
0.30000000000000004,0.10000000000000002,0.1,0.38428203230275515,0.0859807621135332,0.2800000000000001,-30,90.0,-90.0,0.09678915838996706,-0.26622070792012364,0.32206401200076357,0.5825744020937182,0.0008351640923275718,0.6650412163500019,0.2559506938317846
0.30000000000000004,0.10000000000000002,0.1,0.38503863745620115,0.10827225118047043,0.28,-15,90.0,-90.0,0.0961379963659914,-0.3310023727429721,0.34033461492130396,0.557610099661092,0.0007680752788833971,0.6726692260409122,-0.06984057715846584
0.30000000000000004,0.10000000000000002,0.1,0.38000000000000006,0.13000000000000006,0.2800000000000001,0,90.0,-90.0,0.0946947205231119,-0.385992867638052,0.3779938890798755,0.5055677447865689,0.0006541191348546568,0.6864521499451899,-0.38571506841657505
0.30000000000000004,0.10000000000000002,0.1,0.3695094947500499,0.14968329839687375,0.28,15,90.0,-90.0,0.0923913999067035,-0.4251096434886291,0.4311346532018078,0.42922586363360904,-0.0008394374044915016,0.7109004476035121,-0.6858075114554807
0.30000000000000004,0.10000000000000002,0.1,0.3542820323027551,0.16598076211353321,0.2800000000000001,30,90.0,-90.0,0.08929747279924223,-0.44767274815640695,0.4946734269751919,0.33538776573056345,0.00038363689503110926,0.7415143585726187,-0.9724728354584636
0.30000000000000004,0.10000000000000002,0.1,0.3353553390593274,0.17778174593052026,0.28,45,90.0,-90.0,0.08553956857505393,-0.45343794943300825,0.5630089953948086,0.2313957547664069,-0.0014826340258721,0.7759273821875172,-1.2372742518281579
0.30000000000000004,0.10000000000000002,0.1,0.31401923788646685,0.18428203230275514,0.28,60,90.0,-90.0,0.08123208373436183,-0.44526504777770864,0.6328785558931783,0.12105548340432508,-0.0009710296566310012,0.8169985368428648,-1.4914078527052246
0.30000000000000004,0.10000000000000002,0.1,0.2917277488195296,0.1850386374562011,0.2800000000000001,75,90.0,-90.0,0.07667490079232449,-0.4257691097267402,0.7001047892135654,0.012584265896999673,0.000650836035118017,0.8576522404649819,-1.735120320419994
0.30000000000000004,0.10000000000000002,0.1,0.27,0.18000000000000005,0.2800000000000001,90,90.0,-90.0,0.07213393189072205,-0.3964238992594525,0.7615445046084814,-0.08896378219003631,-0.0007163591053633419,0.8983949039225567,-1.9662110015637337
0.35000000000000003,-0.10000000000000002,0.1,0.38000000000000006,-0.18000000000000002,0.2800000000000001,-90,90.0,-90.0,0.09274956283605275,0.5122721209869753,0.44442163425149733,0.4098115789793415,-0.00028999335342210267,0.7173263434743891,2.082807003269628
0.35000000000000003,-0.10000000000000002,0.1,0.3996832983968738,-0.16950949475004987,0.2800000000000001,-75,90.0,-90.0,0.09566948919992838,0.5135884679887738,0.3763457142795518,0.5073988874647135,0.0009234594195489124,0.6872798151928868,1.8219562263413474
0.35000000000000003,-0.10000000000000002,0.1,0.4159807621135332,-0.15428203230275508,0.28,-60,90.0,-90.0,0.09796464751847606,0.4974204034685905,0.3101253567946479,0.5987256523940562,0.0010708534651557647,0.6618921160483576,1.543955504669528
0.35000000000000003,-0.10000000000000002,0.1,0.42778174593052026,-0.1353553390593274,0.28,-45,90.0,-90.0,0.0992721620490946,0.46184194079507457,0.25025647754893665,0.6771439502219738,-0.0015836718018595584,0.6434326537644012,1.2491399373265193
0.35000000000000003,-0.10000000000000002,0.1,0.43428203230275514,-0.11401923788646684,0.2800000000000001,-30,90.0,-90.0,0.09681662689975004,0.40548922457397746,0.2027294549024335,0.7369335161271819,-0.0014704724151671966,0.6312132235439791,0.9309092627672144
0.35000000000000003,-0.10000000000000002,0.1,0.43503863745620114,-0.09172774881952961,0.28,-15,90.0,-90.0,0.09391005192964699,0.3333514636830838,0.17454814153805692,0.7710948315610849,-0.0009321661119091229,0.6243491156023101,0.5952511776063335
0.35000000000000003,-0.10000000000000002,0.1,0.43000000000000005,-0.06999999999999998,0.2800000000000001,0,90.0,-90.0,0.09353422565988151,0.25410399771749564,0.16961966254197375,0.7767953444332959,-0.0015058943027593662,0.62460937601575,0.256293150327047
0.35000000000000003,-0.10000000000000002,0.1,0.4195094947500499,-0.05031670160312629,0.28,15,90.0,-90.0,0.09557840779771778,0.17753260666633647,0.1895979679414263,0.7530322391286922,0.0006678858820723832,0.6290327455423775,-0.08398600569770964
0.35000000000000003,-0.10000000000000002,0.1,0.4042820323027551,-0.034019237886466824,0.2800000000000001,30,90.0,-90.0,0.09899356818381799,0.11428944042772393,0.22972292079561094,0.7031789686154916,-9.541621286371892e-05,0.6367890108815089,-0.4101072918693978
0.35000000000000003,-0.10000000000000002,0.1,0.3853553390593274,-0.022218254069479762,0.28,45,90.0,-90.0,0.09861959407758286,0.07067503925336925,0.2856932657689827,0.6311615469285564,-0.0011021186257273168,0.6533991814896082,-0.7128965847275694
0.35000000000000003,-0.10000000000000002,0.1,0.36401923788646684,-0.015717967697244914,0.28,60,90.0,-90.0,0.0966526562516148,0.04721483094465044,0.350107202448767,0.5441024456590777,-0.001668051348521714,0.6762217627164141,-0.9994347817827478
0.35000000000000003,-0.10000000000000002,0.1,0.3417277488195296,-0.014961362543798928,0.2800000000000001,75,90.0,-90.0,0.0939352411599087,0.04193756378401888,0.41831693691920047,0.44806824295955716,-0.000935544219536032,0.7042073700258407,-1.2659469141652113
0.35000000000000003,-0.10000000000000002,0.1,0.32,-0.01999999999999999,0.2800000000000001,90,90.0,-90.0,0.09076658076353802,0.05275649320924232,0.48479097508078495,0.3500246412675982,-0.0012685829244458602,0.7351816581053597,-1.5162552742871804
0.20000000000000007,0.10000000000000002,0.1,0.2300000000000001,0.020000000000000018,0.2800000000000001,-90,90.0,-90.0,0.06923515913299537,-0.04239991915478082,0.7764645203819677,-0.11354181860308661,-0.0009950435304513098,0.9070165092636835,1.529040751614268
0.20000000000000007,0.10000000000000002,0.1,0.2496832983968738,0.030490505249950173,0.2800000000000001,-75,90.0,-90.0,0.07408573856713968,-0.06740404803081754,0.7101683959344741,-0.004182601086556433,-0.0007694971116754952,0.8637916269119166,1.2411241825186217
0.20000000000000007,0.10000000000000002,0.1,0.2659807621135333,0.04571796769724495,0.28,-60,90.0,-90.0,0.07748608367427212,-0.1049678493039903,0.6608130070022039,0.07644319395094779,-0.0007931298011839931,0.8326528802144286,0.9426080177673339
0.20000000000000007,0.10000000000000002,0.1,0.2777817459305203,0.06464466094067266,0.28,-45,90.0,-90.0,0.07943207538286544,-0.15184005687824098,0.6308671265923048,0.12431224154103902,-0.0006233001943874107,0.8151598372677838,0.633115706712275
0.20000000000000007,0.10000000000000002,0.1,0.28428203230275517,0.0859807621135332,0.2800000000000001,-30,90.0,-90.0,0.07999245458856337,-0.204077087380386,0.6222124942816528,0.13833794314933895,0.0008107608427982178,0.8090939439593274,0.3181159554657533
0.20000000000000007,0.10000000000000002,0.1,0.28503863745620117,0.10827225118047043,0.28,-15,90.0,-90.0,0.07906584936513239,-0.25509085836952744,0.6365734939820115,0.11513402587410368,0.0006511913366905773,0.8199706946377135,0.0062648176655029425
0.20000000000000007,0.10000000000000002,0.1,0.2800000000000001,0.13000000000000006,0.2800000000000001,0,90.0,-90.0,0.07672786828077421,-0.30005440006172374,0.672139709025973,0.05820221022095044,-0.0013943330333504428,0.841161145287644,-0.29821479853376903
0.20000000000000007,0.10000000000000002,0.1,0.2695094947500499,0.14968329839687375,0.28,15,90.0,-90.0,0.07302455617711015,-0.3346117851090559,0.725294585879725,-0.028653754644128282,-0.0003139858133585045,0.8734645001457296,-0.5965154528025424
0.20000000000000007,0.10000000000000002,0.1,0.25428203230275515,0.16598076211353321,0.2800000000000001,30,90.0,-90.0,0.0677400561079439,-0.3562745386032418,0.7957507962995367,-0.1459507447131992,-0.0014788209438950308,0.9209563454019919,-0.8782526274788981
0.20000000000000007,0.10000000000000002,0.1,0.23535533905932743,0.17778174593052026,0.28,45,90.0,-90.0,0.06103087397099763,-0.3656757022197032,0.8781921300972875,-0.2862217622195771,0.0011322496265713654,0.9786766740110532,-1.1510191999913433
0.20000000000000007,0.10000000000000002,0.1,0.2140192378864669,0.18428203230275514,0.28,60,90.0,-90.0,0.05271475672748099,-0.36232812085958027,0.9721498005543332,-0.4491139335597896,-0.0012516935981541056,1.0472408286919401,-1.4090250944860052
0.20000000000000007,0.10000000000000002,0.1,0.19172774881952964,0.1850386374562011,0.2800000000000001,75,90.0,-90.0,0.04257129771225551,-0.3490394363521709,1.0775854701053642,-0.6358122050329578,-0.0005738152777361914,1.1282276217988456,-1.6573073516217682
0.20000000000000007,0.10000000000000002,0.1,0.17000000000000004,0.18000000000000005,0.2800000000000001,90,90.0,-90.0,0.029848224766215087,-0.32748767423022107,1.2001599990020808,-0.8567175657629608,0.0002275864933636772,1.2264668118049133,-1.8977515348876255
0.35000000000000003,-0.1,0.1,0.38000000000000006,-0.18,0.2800000000000001,-90,90.0,-90.0,0.09276497995142662,0.5125330387732661,0.4439993390380558,0.4104144676961608,-0.0009428414622341058,0.7156363316956944,2.083447078064819
0.35000000000000003,-0.1,0.1,0.3996832983968738,-0.16950949475004984,0.2800000000000001,-75,90.0,-90.0,0.09567964313484871,0.5136252275866219,0.3763616803714316,0.5077596473687304,0.0007877700104842072,0.686717026766048,1.822280374173673
0.35000000000000003,-0.1,0.1,0.4159807621135332,-0.15428203230275508,0.28,-60,90.0,-90.0,0.09796594042673319,0.49749788622354973,0.31001818873949916,0.598920433517199,0.0013621597014494295,0.6609329936627519,1.5443650633158386
0.35000000000000003,-0.1,0.1,0.42778174593052026,-0.13535533905932737,0.28,-45,90.0,-90.0,0.09926580735285029,0.46158515480396933,0.24950479337769074,0.6778378747776592,-0.0009633793538914792,0.6425108734850541,1.2469733150579243
0.35000000000000003,-0.1,0.1,0.43428203230275514,-0.11401923788646683,0.2800000000000001,-30,90.0,-90.0,0.09685228049842644,0.4048505775500261,0.2029270866665434,0.7365369044175475,0.0017576950228033457,0.6313943824931186,0.9267864192280648
0.35000000000000003,-0.1,0.1,0.43503863745620114,-0.0917277488195296,0.28,-15,90.0,-90.0,0.09394956626969639,0.3337885504085712,0.17433105134823015,0.7713625404457872,-0.0021285564376807655,0.6249253370645944,0.5979585070682376
0.35000000000000003,-0.1,0.1,0.43000000000000005,-0.06999999999999998,0.2800000000000001,0,90.0,-90.0,0.09356342416708781,0.2537830866979425,0.16950477798569008,0.7766487136049691,-0.0008339648229774531,0.6250501803325907,0.2551868647249706
0.35000000000000003,-0.1,0.1,0.4195094947500499,-0.050316701603126276,0.28,15,90.0,-90.0,0.09546376976450174,0.17743924361949606,0.1894254657722754,0.7529780438796634,0.0017320185384055822,0.628067605960849,-0.08496098184117339
0.35000000000000003,-0.1,0.1,0.4042820323027551,-0.03401923788646681,0.2800000000000001,30,90.0,-90.0,0.09908955236247399,0.1142507666522523,0.22986341110487163,0.7025966340207704,0.0008030446872203507,0.6386739173124967,-0.4097169084504938
0.35000000000000003,-0.1,0.1,0.3853553390593274,-0.022218254069479748,0.28,45,90.0,-90.0,0.09861981863952937,0.07062505289886141,0.2858011348328685,0.631124484604075,-0.0015556060576008737,0.6537622482799781,-0.7137748062139406
0.35000000000000003,-0.1,0.1,0.36401923788646684,-0.0157179676972449,0.28,60,90.0,-90.0,0.09665380720883208,0.0469078913899323,0.35024879652160584,0.5440627275225968,-0.0001373371764773969,0.6755789358675991,-1.0010888890405971
0.35000000000000003,-0.1,0.1,0.3417277488195296,-0.014961362543798915,0.2800000000000001,75,90.0,-90.0,0.09393697306309412,0.041863874356652696,0.4178437460869669,0.4481060806086385,-0.001227535410785558,0.7040945200083415,-1.2666999842445532
0.35000000000000003,-0.1,0.1,0.32,-0.019999999999999976,0.2800000000000001,90,90.0,-90.0,0.09075793525997844,0.05266712838088626,0.48510382650243045,0.34974184866532965,-0.0011211180092745156,0.7351699166879453,-1.517835674052713
0.30000000000000004,-0.05000000000000002,0.1,0.33000000000000007,-0.13,0.2800000000000001,-90,90.0,-90.0,0.08808182806255364,0.33777483884048054,0.5210728319085276,0.29551351000707254,0.0008457179121483749,0.7549765800555496,1.9069635927856474
0.30000000000000004,-0.05000000000000002,0.1,0.3496832983968738,-0.11950949475004986,0.2800000000000001,-75,90.0,-90.0,0.09155160017554433,0.32889838308986397,0.45322856435965664,0.3971460119151107,-0.0010825387876895248,0.7198734943406087,1.6378507422122808
0.30000000000000004,-0.05000000000000002,0.1,0.36598076211353325,-0.1042820323027551,0.28,-60,90.0,-90.0,0.09431213850296999,0.3026088845602544,0.3914304087819485,0.48643045337926444,0.0006424180425265346,0.6920514361596378,1.348535559756032
0.30000000000000004,-0.05000000000000002,0.1,0.3777817459305203,-0.08535533905932738,0.28,-45,90.0,-90.0,0.09627281227391546,0.25882247544432235,0.3407032515820621,0.5566913555178041,-0.0006022248803999159,0.6725503171957442,1.0454068838704684
0.30000000000000004,-0.05000000000000002,0.1,0.38428203230275515,-0.06401923788646684,0.2800000000000001,-30,90.0,-90.0,0.09743706293845188,0.20008756454965992,0.3064948500979777,0.6030882538133394,-0.001132614837516839,0.6606344910783984,0.7253616034156141
0.30000000000000004,-0.05000000000000002,0.1,0.38503863745620115,-0.041727748819529606,0.28,-15,90.0,-90.0,0.09786498055753907,0.13192910071545375,0.2930048804895422,0.6213995602403715,-0.001221197468583202,0.656671037917801,0.39455858034918906
0.30000000000000004,-0.05000000000000002,0.1,0.38000000000000006,-0.019999999999999983,0.2800000000000001,0,90.0,-90.0,0.09758576077726161,0.06206047798711344,0.30210499134267965,0.6093048973925277,0.001146456867013649,0.6601671296507771,0.0613893476092299
0.30000000000000004,-0.05000000000000002,0.1,0.3695094947500499,-0.0003167016031262876,0.28,15,90.0,-90.0,0.09657049599693444,0.001259556969850284,0.3322480894031497,0.5682193268861766,-0.000795409537128996,0.6706267102871526,-0.2603944950795558
0.30000000000000004,-0.05000000000000002,0.1,0.3542820323027551,0.01598076211353318,0.2800000000000001,30,90.0,-90.0,0.09477482952082994,-0.046263269566852165,0.3799749006343286,0.5021761286615808,-7.895714054395771e-05,0.6896584523723025,-0.5693211003458
0.30000000000000004,-0.05000000000000002,0.1,0.3353553390593274,0.02778174593052024,0.28,45,90.0,-90.0,0.09217579949729039,-0.07589451084231855,0.43984863524580414,0.41639121098752185,-0.0001227645387458269,0.7159063362635069,-0.861303358298333
0.30000000000000004,-0.05000000000000002,0.1,0.31401923788646685,0.03428203230275509,0.28,60,90.0,-90.0,0.08884845336695077,-0.08833663845248865,0.5067090126969754,0.3173447594747186,-0.0011390460076005616,0.746565442765917,-1.1338947992802595
0.30000000000000004,-0.05000000000000002,0.1,0.2917277488195296,0.035038637456201074,0.2800000000000001,75,90.0,-90.0,0.08499061458980478,-0.08533300288466358,0.5752963944260133,0.21196116966366463,-0.0011142289521854057,0.7827316009167117,-1.392534289930233
0.30000000000000004,-0.05000000000000002,0.1,0.27,0.030000000000000013,0.2800000000000001,90,90.0,-90.0,0.08075121770093067,-0.06953014562773815,0.6429996304915333,0.10493887504617251,-0.0005300029683944106,0.821915904658143,-1.639439374357627
0.35000000000000003,0.0,0.1,0.38000000000000006,-0.08,0.2800000000000001,-90,90.0,-90.0,0.09757970553943188,0.24489612037752753,0.33051401242277745,0.5707076430270283,-0.00028509542335708395,0.6703764717474191,1.8156755106799645
0.35000000000000003,0.0,0.1,0.3996832983968738,-0.06950949475004985,0.2800000000000001,-75,90.0,-90.0,0.09928156926808451,0.22743194914846032,0.26352104043796143,0.6599163427198038,0.0001226516801219252,0.6477350444779911,1.5353997013839789
0.35000000000000003,0.0,0.1,0.4159807621135332,-0.05428203230275507,0.28,-60,90.0,-90.0,0.09718399358801755,0.18834886393562747,0.20293866881468808,0.7365152398874528,0.001697968279929307,0.6306862262439762,1.2343940381592307
0.35000000000000003,0.0,0.1,0.42778174593052026,-0.03535533905932736,0.28,-45,90.0,-90.0,0.09253916460836435,0.1288827470830768,0.15547817628849622,0.7938400250442961,0.00048407999725280816,0.6217349554592492,0.9131819929651698
0.35000000000000003,0.0,0.1,0.43428203230275514,-0.014019237886466817,0.2800000000000001,-30,90.0,-90.0,0.0897610977270671,0.05260486533891027,0.12737895366011687,0.8263108836646649,0.0013757032419562131,0.6172621993920863,0.5758270257828616
0.35000000000000003,0.0,0.1,0.43503863745620114,0.008272251180470414,0.28,-15,90.0,-90.0,0.08925566323167125,-0.031258159301888674,0.1233338959252766,0.8309090416667754,0.0009380089945045173,0.6154898343038864,0.2293872677650926
0.35000000000000003,0.0,0.1,0.43000000000000005,0.030000000000000034,0.2800000000000001,0,90.0,-90.0,0.0914944772289943,-0.11094026996033932,0.14572519265683306,0.8052062240012369,0.0016132742409662754,0.619322022582283,-0.11215784406930314
0.35000000000000003,0.0,0.1,0.4195094947500499,0.04968329839687373,0.28,15,90.0,-90.0,0.09586138038870509,-0.1752143619701912,0.18890860110685034,0.7536908636807031,-0.0009350494299122855,0.6280940852446395,-0.4352630572599247
0.35000000000000003,0.0,0.1,0.4042820323027551,0.0659807621135332,0.2800000000000001,30,90.0,-90.0,0.09945325211458451,-0.219576206434,0.24658734019211825,0.681428310784596,0.0009267229823676248,0.6423289789535913,-0.744403428576856
0.35000000000000003,0.0,0.1,0.3853553390593274,0.07778174593052026,0.28,45,90.0,-90.0,0.09811870545143334,-0.24223208903899496,0.3131019837903475,0.5944991003937089,-0.0007583563458897599,0.6642628904632055,-1.0263840140067753
0.35000000000000003,0.0,0.1,0.36401923788646684,0.0842820323027551,0.28,60,90.0,-90.0,0.09575202794390673,-0.24563339257389777,0.3811179475310978,0.5005850218746356,-0.0009576689550669226,0.6898262886939112,-1.2922587807175459
0.35000000000000003,0.0,0.1,0.3417277488195296,0.08503863745620109,0.2800000000000001,75,90.0,-90.0,0.09287855446277549,-0.23312613978177918,0.44762119118357024,0.4052133650861812,7.70538099305444e-05,0.7184526408990689,-1.5412039106990048
0.35000000000000003,0.0,0.1,0.32,0.08000000000000003,0.2800000000000001,90,90.0,-90.0,0.08978582244898078,-0.20752074459801384,0.5090682910857791,0.31358168822981247,-0.0010127034548361976,0.7484162093830622,-1.7767203414507196
0.5,-0.2,0.1,0.53,-0.28,0.2800000000000001,-90,90.0,-90.0,0.09899599651164376,1.0249047094050903,0.32323540858588795,0.5810779698979904,0.0008286975564573279,0.6659916520518466,2.5941210008356057
0.5,-0.2,0.1,0.5496832983968737,-0.26950949475004987,0.2800000000000001,-75,90.0,-90.0,0.10031268544649963,1.0618247882163907,0.2643128100846792,0.6587676591042334,0.0014822977757534123,0.6481004375541799,2.3693705527422275
0.5,-0.2,0.1,0.5659807621135332,-0.2542820323027551,0.28,-60,90.0,-90.0,0.09846762069997171,1.0854966427277692,0.19703753059692997,0.7438606126212443,0.0006659491817247624,0.629112581388289,2.132046565891441
0.5,-0.2,0.1,0.5777817459305202,-0.23535533905932737,0.28,-45,90.0,-90.0,0.09140377740043587,1.0916437488097785,0.12412186139394721,0.8299992850690798,0.0003032385218447273,0.617005790484309,1.8761357298600398
0.5,-0.2,0.1,0.5842820323027551,-0.21401923788646682,0.2800000000000001,-30,90.0,-90.0,0.08402826812843248,1.0750934837044652,0.048516665735116093,0.9134256927859482,0.0009582630715147518,0.6080395205879405,1.5974411666391202
0.5,-0.2,0.1,0.5850386374562011,-0.1917277488195296,0.28,-15,90.0,-90.0,0.07765712987302971,1.0302283748421246,-0.023594680241422767,0.9863043659099168,0.0006728836030330389,0.6091601418351487,1.2919787473735265
0.5,-0.2,0.1,0.58,-0.16999999999999998,0.2800000000000001,0,90.0,-90.0,0.07232562423611769,0.9557936791966645,-0.0837690864539188,1.0431819989367057,0.0008702232838059705,0.6106232900233519,0.9559862390500846
0.5,-0.2,0.1,0.5695094947500499,-0.15031670160312627,0.28,15,90.0,-90.0,0.06935561861477547,0.8553265459588134,-0.12077040715529197,1.0755636589971624,0.0013267414440377358,0.6159881619057508,0.5924840025511741
0.5,-0.2,0.1,0.5542820323027551,-0.1340192378864668,0.2800000000000001,30,90.0,-90.0,0.06891988013436914,0.74330624902583,-0.12564319583594938,1.0795578206353609,0.00014192605207423567,0.6159750567701593,0.22005666916097757
0.5,-0.2,0.1,0.5353553390593273,-0.12221825406947975,0.28,45,90.0,-90.0,0.07135355220607772,0.6381796087528734,-0.09645435641551665,1.053921309290203,0.0017961389474100288,0.6131277464479009,-0.14908156079843501
0.5,-0.2,0.1,0.5140192378864669,-0.1157179676972449,0.28,60,90.0,-90.0,0.07604397908824356,0.5562749758788615,-0.04068557060523047,1.0030295458483776,0.0005100930568632641,0.6083284597022027,-0.49094154833620895
0.5,-0.2,0.1,0.4917277488195296,-0.11496136254379892,0.2800000000000001,75,90.0,-90.0,0.08238373208736877,0.5048969090821253,0.02932034650147317,0.9332314358154203,-0.0012675678965141952,0.6087532983888325,-0.8039871031334637
0.5,-0.2,0.1,0.47,-0.11999999999999998,0.2800000000000001,90,90.0,-90.0,0.08946728046064968,0.48078131165417953,0.10462623317970408,0.8519345536018077,0.0010831666468840027,0.6142433138147929,-1.0909896477659995
0.25000000000000006,-1.3877787807814457e-17,0.1,0.2800000000000001,-0.08000000000000002,0.2800000000000001,-90,90.0,-90.0,0.08054376944819895,0.18824661800536635,0.6321400564394426,0.12250990991804477,5.063054126567168e-05,0.8157121743307385,1.7580664299255422
0.25000000000000006,-1.3877787807814457e-17,0.1,0.2996832983968738,-0.06950949475004986,0.2800000000000001,-75,90.0,-90.0,0.08465995960030838,0.1719730020959045,0.564778549498399,0.22819516715740046,-0.0011661184667703449,0.7769029283339282,1.4816606544715687
0.25000000000000006,-1.3877787807814457e-17,0.1,0.3159807621135332,-0.054282032302755086,0.28,-60,90.0,-90.0,0.08785026361087386,0.14019468400346152,0.5075461581310188,0.31600355448544365,0.00012259658365752833,0.746750141247403,1.1864529264917345
0.25000000000000006,-1.3877787807814457e-17,0.1,0.3277817459305203,-0.035355339059327376,0.28,-45,90.0,-90.0,0.09006067686491691,0.09475090585536201,0.4645768623908896,0.3803597659324678,-0.001123517302113005,0.7253204824225188,0.8818860091371109
0.25000000000000006,-1.3877787807814457e-17,0.1,0.33428203230275516,-0.01401923788646683,0.2800000000000001,-30,90.0,-90.0,0.09121762122291956,0.038162319906851705,0.44050973545124583,0.4156100788273474,0.0012963641319629466,0.7147977209072973,0.5602753366758633
0.25000000000000006,-1.3877787807814457e-17,0.1,0.33503863745620116,0.0082722511804704,0.28,-15,90.0,-90.0,0.09132717576214114,-0.022860756427948728,0.43815889177446765,0.4190128149841543,0.0008819314700292879,0.7143661968385796,0.23798022502854219
0.25000000000000006,-1.3877787807814457e-17,0.1,0.33000000000000007,0.03000000000000002,0.2800000000000001,0,90.0,-90.0,0.09046143245825367,-0.0809089361399917,0.45645036906265263,0.39247314060803057,0.0012538259387906104,0.7210465766357917,-0.08193545863163686
0.25000000000000006,-1.3877787807814457e-17,0.1,0.3195094947500499,0.049683298396873715,0.28,15,90.0,-90.0,0.08850421210578704,-0.1299219088199005,0.49499024513166284,0.33470648449946316,-8.06994020129417e-05,0.7408654636393694,-0.3917747779784438
0.25000000000000006,-1.3877787807814457e-17,0.1,0.30428203230275513,0.06598076211353318,0.2800000000000001,30,90.0,-90.0,0.08555871609973742,-0.1652584455318422,0.5493635009531747,0.2522776682724036,0.0006185414527358179,0.7700925639426448,-0.6889004625059442
0.25000000000000006,-1.3877787807814457e-17,0.1,0.2853553390593274,0.07778174593052024,0.28,45,90.0,-90.0,0.08167054805438244,-0.18557818798537412,0.6142409096108887,0.1506242667368663,0.00019302505456816508,0.8064578709720334,-0.9705795207872636
0.25000000000000006,-1.3877787807814457e-17,0.1,0.26401923788646686,0.08428203230275509,0.28,60,90.0,-90.0,0.07694242466385987,-0.19119006486578585,0.6861415573644933,0.03544974889080739,0.001111789476369247,0.8494832779341185,-1.2383453836996308
0.25000000000000006,-1.3877787807814457e-17,0.1,0.24172774881952963,0.08503863745620108,0.2800000000000001,75,90.0,-90.0,0.07144892473342539,-0.1836041131255503,0.7617397905482985,-0.08920931134102952,0.0004460632990361076,0.8989533812302575,-1.4936285227271966
0.25000000000000006,-1.3877787807814457e-17,0.1,0.22000000000000003,0.08000000000000002,0.2800000000000001,90,90.0,-90.0,0.06556550061238545,-0.16510867494543388,0.8358206893173926,-0.21400962895837997,-0.00039520519128477126,0.9479248710489997,-1.7349776648648605
0.20000000000000007,-1.3877787807814457e-17,0.1,0.2300000000000001,-0.08000000000000002,0.2800000000000001,-90,90.0,-90.0,0.06760963142314652,0.16866439613513518,0.7997082568022064,-0.15261569773540357,-0.00014434419112799632,0.9229389879033839,1.738936997032565
0.20000000000000007,-1.3877787807814457e-17,0.1,0.2496832983968738,-0.06950949475004986,0.2800000000000001,-75,90.0,-90.0,0.07320260532534281,0.1530488308234556,0.7252252339683031,-0.028887654412890724,0.0009855788350856467,0.8751130469554256,1.4609763700109952
0.20000000000000007,-1.3877787807814457e-17,0.1,0.2659807621135333,-0.054282032302755086,0.28,-60,90.0,-90.0,0.07742997158452765,0.12450449184140872,0.6645050698918648,0.07034142874253099,-0.0012697480435421222,0.8366294219911629,1.1731489864764808
0.20000000000000007,-1.3877787807814457e-17,0.1,0.2777817459305203,-0.035355339059327376,0.28,-45,90.0,-90.0,0.08030555007832166,0.08346330955888076,0.6202187730852909,0.1412879961000886,6.146343913122779e-05,0.8105051027924242,0.8697812281949091
0.20000000000000007,-1.3877787807814457e-17,0.1,0.28428203230275517,-0.01401923788646683,0.2800000000000001,-30,90.0,-90.0,0.08184446429816501,0.03356363032172471,0.5953842269282756,0.18064716709077727,0.000847392885368252,0.7940704118772113,0.5563223001339215
0.20000000000000007,-1.3877787807814457e-17,0.1,0.28503863745620117,0.0082722511804704,0.28,-15,90.0,-90.0,0.08202722989217046,-0.02001880236602117,0.5923507770633036,0.18534079857467062,-0.00013046885733726158,0.7923127696062107,0.24103864880455464
0.20000000000000007,-1.3877787807814457e-17,0.1,0.2800000000000001,0.03000000000000002,0.2800000000000001,0,90.0,-90.0,0.08086793280964756,-0.07154553086755717,0.6112253967538179,0.1555583163577807,0.0009297819688078859,0.8031298607319786,-0.07265083610450881
0.20000000000000007,-1.3877787807814457e-17,0.1,0.2695094947500499,0.049683298396873715,0.28,15,90.0,-90.0,0.07832711191820423,-0.11519410157197393,0.6508326148290038,0.09218816581797629,0.0014241894388658067,0.8272540703775512,-0.3784393960892799
0.20000000000000007,-1.3877787807814457e-17,0.1,0.25428203230275515,0.06598076211353318,0.2800000000000001,30,90.0,-90.0,0.07443810195515568,-0.14695708526099738,0.7080727087499089,-0.0004311686151937294,0.0013176970943672712,0.863051403550393,-0.6706598815059497
0.20000000000000007,-1.3877787807814457e-17,0.1,0.23535533905932743,0.07778174593052024,0.28,45,90.0,-90.0,0.06923236255106731,-0.16586185450251453,0.7787509310314233,-0.11757397312429499,0.00018657401481244967,0.9090883482547458,-0.9511849323775813
0.20000000000000007,-1.3877787807814457e-17,0.1,0.2140192378864669,0.08428203230275509,0.28,60,90.0,-90.0,0.062594303277959,-0.1715423144359169,0.8616303096683982,-0.25766042602850786,-0.0012713409737016659,0.9665754131679776,-1.2170254844232173
0.20000000000000007,-1.3877787807814457e-17,0.1,0.19172774881952964,0.08503863745620108,0.2800000000000001,75,90.0,-90.0,0.054627662257136556,-0.16559993635612283,0.9526305300174676,-0.4153899482682613,-0.0005347475907926348,1.0334378890163225,-1.4734415075296745
0.20000000000000007,-1.3877787807814457e-17,0.1,0.17000000000000004,0.08000000000000002,0.2800000000000001,90,90.0,-90.0,0.04526115739199832,-0.14967694647734273,1.0517431902230805,-0.58967617532545,-0.00027399048335118394,1.1088443804203558,-1.7212599119944898
0.20000000000000007,0.2,0.1,0.2300000000000001,0.12000000000000001,0.2800000000000001,-90,90.0,-90.0,0.06451770725957448,-0.24995127756209395,0.8300882608537759,-0.20395681822536507,0.0007073762816051782,0.9438927775532341,1.3201942649915495
0.20000000000000007,0.2,0.1,0.2496832983968738,0.13049050524995015,0.2800000000000001,-75,90.0,-90.0,0.06910290816759049,-0.2822625080027844,0.7710817880473397,-0.10488551773964831,0.0005208583328132525,0.9041586189055606,1.0256468321789782
0.20000000000000007,0.2,0.1,0.2659807621135333,0.14571796769724493,0.28,-60,90.0,-90.0,0.07194408904153382,-0.32416026879677834,0.7328829489570737,-0.041081114875208796,0.0017449380734467224,0.8790528952483808,0.7221705451424699
0.20000000000000007,0.2,0.1,0.2777817459305203,0.16464466094067265,0.28,-45,90.0,-90.0,0.07305958687558345,-0.3719694585458187,0.7171489408197707,-0.015477079328114342,0.0006146220475761934,0.8696623460597483,0.4121980975617173
0.20000000000000007,0.2,0.1,0.28428203230275517,0.1859807621135332,0.2800000000000001,-30,90.0,-90.0,0.07255796815280292,-0.4204813624765636,0.7242861491461805,-0.027026190978156242,-0.0003199571373090671,0.8725969466124865,0.10238108901187604
0.20000000000000007,0.2,0.1,0.28503863745620117,0.20827225118047044,0.28,-15,90.0,-90.0,0.07028485845225019,-0.4653603118942872,0.7553561449537349,-0.07863379893945228,0.0009849751035407054,0.8942487349923749,-0.20393383132666487
