fryumbla/Robot-Manipulability/log/abbrobot_manip_2021-03-31_15-32-00.csv
TCP x,TCP y,TCP z,eef x,eef y,eef z,Cr(rzyz),Pitch(rzyz),Roll(rzyz),Manipulability,joint_1,joint_2,joint_3,joint_4,joint_5,joint_6
0.5,0,0.1,0.53,-0.08,0.2800000000000001,-90,90.0,-90.0,0.0672476579059297,0.4393305025847156,-0.1685786062718116,1.115620904247704,0.0011757909135858375,0.6236740530108377,2.008853396685372
0.5,0,0.1,0.5496832983968737,-0.06950949475004985,0.2800000000000001,-75,90.0,-90.0,0.05960352730274793,0.4329970352949693,-0.27353370576672914,1.1939845583895285,0.0006901130438578976,0.649324919837177,1.740470574748199
0.45,0.05,0.1,0.48000000000000004,-0.03,0.2800000000000001,-90,90.0,-90.0,0.07768827559417082,0.13564344488573316,-0.029704201325799394,0.9921114525760885,-7.477559986055946e-05,0.6082630241823157,1.7069999991547051
0.45,0.05,0.1,0.5342820323027551,0.03598076211353318,0.2800000000000001,-30,90.0,-90.0,0.059921000643026065,-0.21385887945717966,-0.2539588762417817,1.1803582263879748,0.0009928140028896252,0.6437770910660595,0.3089006068591346
0.45,0.05,0.1,0.5350386374562011,0.058272251180470414,0.28,-15,90.0,-90.0,0.061855047846702205,-0.340070418622863,-0.2276444959975065,1.1613025191686324,0.0013407470622877843,0.6377713284218962,-0.0788279161383073
0.45,0.05,0.1,0.5195094947500498,0.09968329839687373,0.28,15,90.0,-90.0,0.07235217464399736,-0.5050238988854563,-0.09179690546332246,1.050335789686551,0.0016333203198059525,0.6121625711740343,-0.7690064912030747
0.45,0.05,0.1,0.42,0.13000000000000003,0.2800000000000001,90,90.0,-90.0,0.10074061848552537,-0.43464472478503735,0.264592804327112,0.6586189813496406,3.172389098688256e-05,0.6476557461356588,-2.005147579877119
0.5,-0.05,0.1,0.53,-0.13,0.2800000000000001,-90,90.0,-90.0,0.07586815068680752,0.6527975748331015,-0.06024388216963821,1.0214879493411073,-0.00042715203006334795,0.6086001032005871,-4.05931937165528
0.5,-0.05,0.1,0.5353553390593273,0.027781745930520255,0.28,45,90.0,-90.0,0.05996864317226078,-0.16746243098424496,-0.2669705929052591,1.1895998477862384,0.0014146018899533555,0.6477387506048307,5.328217588356423
0.45,-0.1,0.1,0.48000000000000004,-0.18,0.2800000000000001,-90,90.0,-90.0,0.09791698779326613,0.6859885133049243,0.1868125484096483,0.7558830413321659,-0.0018692678463814987,0.6277822428650521,2.2579792286033045
0.45,-0.1,0.1,0.49968329839687375,-0.16950949475004984,0.2800000000000001,-75,90.0,-90.0,0.0907452116075077,0.7023785410871418,0.11519245049162927,0.840589185116776,-0.0009039587686046393,0.6145394182952887,2.011509631586283
0.45,-0.1,0.1,0.5159807621135332,-0.15428203230275508,0.28,-60,90.0,-90.0,0.08337651135824342,0.6976115943980012,0.037222962651023615,0.9249358653666285,-0.0003194849758268094,0.6083950085929876,1.7441566452890074
0.45,-0.1,0.1,0.5277817459305203,-0.13535533905932737,0.28,-45,90.0,-90.0,0.07638703164148944,0.6660254710749326,-0.04120854092471016,1.0031105546651156,0.001385072713580049,0.6089653112392716,1.4494872396781524
0.45,-0.1,0.1,0.5342820323027551,-0.11401923788646683,0.2800000000000001,-30,90.0,-90.0,0.07037540920973676,0.6019364891437621,-0.11218636200910315,1.0679438674289579,0.0021684140412786164,0.6145800526092595,1.1239771144337467
0.45,-0.1,0.1,0.5350386374562011,-0.0917277488195296,0.28,-15,90.0,-90.0,0.06611227724686133,0.5076239331785967,-0.1651664889625525,1.1129032584778362,-0.00018388767994873174,0.6222093253519614,0.768807538355433
0.45,-0.1,0.1,0.53,-0.06999999999999998,0.2800000000000001,0,90.0,-90.0,0.0645829979652662,0.3904012916817079,-0.18663630241041587,1.1295706176917775,0.0019817396722196967,0.6283307377612818,0.38792159155978384
0.45,-0.1,0.1,0.5195094947500498,-0.050316701603126276,0.28,15,90.0,-90.0,0.06570278359062803,0.2714278958317154,-0.17113486934877709,1.1176278228707617,0.0016244973688753456,0.6242093509059083,0.007738236288620002
0.45,-0.1,0.1,0.504282032302755,-0.03401923788646681,0.2800000000000001,30,90.0,-90.0,0.0695015594056061,0.1716183358233112,-0.12293464072201173,1.0772643735580008,0.0018302889759135386,0.6161457222534684,-0.35438018030509855
0.45,-0.1,0.1,0.4853553390593274,-0.022218254069479748,0.28,45,90.0,-90.0,0.07528719530071164,0.1031399692045296,-0.05345301576263047,1.014941197032745,0.002034374158675216,0.6093577913977185,-0.6829659370667898
0.45,-0.1,0.1,0.4417277488195296,-0.014961362543798915,0.2800000000000001,75,90.0,-90.0,0.08953022933924977,0.05775703256046143,0.10232655271665397,0.8547646550475445,0.0011372411217538566,0.6134088015111792,-1.2513491121066775
0.45,-0.15000000000000002,0.1,0.5159807621135332,-0.2042820323027551,0.28,-60,90.0,-90.0,0.0942519673108596,0.8376641998419188,0.15670596344418522,0.7924475753055661,0.0004640995467621353,0.6206032493146344,1.8839900493733692
0.45,-0.15000000000000002,0.1,0.5277817459305203,-0.18535533905932738,0.28,-45,90.0,-90.0,0.08702412866179549,0.8218244374408761,0.08241025089297004,0.8767405016136376,0.000244691319029924,0.6108928615769594,1.6061331533669003
0.45,-0.15000000000000002,0.1,0.5342820323027551,-0.16401923788646683,0.2800000000000001,-30,90.0,-90.0,0.08041918698286327,0.7801770778912116,0.012089606970040223,0.9513320917827917,5.656321387415746e-06,0.6063643960531659,1.3037200252211214
0.45,-0.15000000000000002,0.1,0.5350386374562011,-0.1417277488195296,0.28,-15,90.0,-90.0,0.07527479159968381,0.7097685045677482,-0.046681889636305644,1.0088623308339923,0.0014224369436701273,0.6081531051145276,0.9698883792231703
0.45,-0.15000000000000002,0.1,0.4640192378864668,-0.06571796769724492,0.28,60,90.0,-90.0,0.0845430711314544,0.2718089264126223,0.055022911643159166,0.9066751555661868,-0.0003696929350297015,0.6100557795333487,-0.7741444875444146
0.45,-0.15000000000000002,0.1,0.42,-0.06999999999999999,0.2800000000000001,90,90.0,-90.0,0.09859362092949936,0.24497646690180222,0.2009561864585329,0.7389965637738407,0.0011987871618574614,0.6301614956255063,-1.327516334127094
0.45,0.1,0.1,0.48000000000000004,0.020000000000000004,0.2800000000000001,-90,90.0,-90.0,0.07693437672837901,-0.09037972523321137,-0.03362371469860062,0.9962318368320138,-0.0009006088879697639,0.607339554110512,-4.801125657299174
0.45,0.1,0.1,0.49968329839687375,0.03049050524995016,0.2800000000000001,-75,90.0,-90.0,0.07092867644264787,-0.15102389651899886,-0.10580608087273914,1.0627224008998652,0.0013854184603233986,0.6143983586408219,-5.127074875122934
0.45,0.1,0.1,0.5159807621135332,0.045717967697244934,0.28,-60,90.0,-90.0,0.06649951027109406,-0.243754203661208,-0.16144302965331034,1.1092079970863948,0.001411158724299682,0.6229142583162149,-5.480025644260877
0.45,0.1,0.1,0.5342820323027551,0.08598076211353319,0.2800000000000001,-30,90.0,-90.0,0.06551541260105824,-0.4782846774777842,-0.17411168986703918,1.1196991967810597,0.0003848801700564973,0.6253899163556432,-6.2372169331811955
0.45,0.1,0.1,0.5195094947500498,0.14968329839687372,0.28,15,90.0,-90.0,0.08147589218721872,-0.6923710987096704,0.016568990636945998,0.9463649534855566,0.0009699140988292377,0.607696179122116,-0.9559569466656272
0.45,0.1,0.1,0.4853553390593274,0.17778174593052026,0.28,45,90.0,-90.0,0.0962477195989049,-0.6917167052166856,0.16928112755551522,0.7776634154965189,-0.0011232253270464436,0.6245832669532981,-1.4752738139956452
0.45,0.1,0.1,0.4640192378864668,0.1842820323027551,0.28,60,90.0,-90.0,0.10068636078796692,-0.6626732957422437,0.235745649576089,0.6956351443518219,-0.001067577177025891,0.6396906097423389,-1.708277504575445
0.5,-0.1,0.1,0.5496832983968737,-0.16950949475004984,0.2800000000000001,-75,90.0,-90.0,0.07979437060570937,0.845485466930451,-0.012281258868213811,0.9755597751437854,-0.0017272009535810795,0.6072881421031409,2.1553829276824032
0.5,-0.1,0.1,0.5659807621135332,-0.15428203230275508,0.28,-60,90.0,-90.0,0.07229141127706576,0.8553015552525307,-0.09972118056455005,1.0570031689859563,0.00048376069271232475,0.612395149660726,1.9024839849458137
0.5,-0.1,0.1,0.5777817459305202,-0.13535533905932737,0.28,-45,90.0,-90.0,0.06500907306923041,0.836038808429395,-0.19339851284746468,1.134980008998526,0.0016075854511442631,0.6292152402678758,1.6210051042905547
0.5,-0.1,0.1,0.5842820323027551,-0.11401923788646683,0.2800000000000001,-30,90.0,-90.0,0.05813848080049198,0.7773100213889712,-0.28999713415707684,1.20508651232048,0.0014459474595912335,0.6554916527589691,1.2988481335342623
0.5,-0.1,0.1,0.5140192378864669,-0.0157179676972449,0.28,60,90.0,-90.0,0.06652463702179623,0.08412909571170077,-0.1744068065870234,1.1196182697943617,-0.00020493345883366174,0.626580633792431,-0.9619718176088646
0.5,-0.1,0.1,0.47,-0.019999999999999976,0.2800000000000001,90,90.0,-90.0,0.08119129471858841,0.08630850465618173,0.0032947676091495573,0.9599350669622192,0.001340577407705695,0.6071169476852941,-1.4862909323860942
0.45,-0.10000000000000002,0.1,0.5350386374562011,-0.09172774881952961,0.28,-15,90.0,-90.0,0.06615716877081962,0.5068872404546287,-0.16516126974760734,1.1128496190682233,0.0013600606519717897,0.6228910253180967,0.7669059353936701
0.45,-0.10000000000000002,0.1,0.53,-0.06999999999999998,0.2800000000000001,0,90.0,-90.0,0.06458281364686375,0.39032887372683855,-0.18635009134173353,1.1296344624463823,0.0009866079285513211,0.6279999670618585,0.3892787313417454
0.45,-0.10000000000000002,0.1,0.504282032302755,-0.034019237886466824,0.2800000000000001,30,90.0,-90.0,0.06955168578934827,0.1719893418216261,-0.12232463227990556,1.077064850111097,0.0017425994879759336,0.6161939285665721,-0.35338512967837665
0.45,-0.10000000000000002,0.1,0.4853553390593274,-0.022218254069479762,0.28,45,90.0,-90.0,0.07521238973993774,0.10305569338911441,-0.053429535009565356,1.0153673118289674,0.0012976318890105146,0.6082780042363439,-0.6827155203516632
0.45,-0.05,0.1,0.49968329839687375,-0.11950949475004985,0.2800000000000001,-75,90.0,-90.0,0.08139851768960844,0.5378491068371439,0.012577105160584207,0.9505874170867717,-0.0004175410175634338,0.6071375314305683,-4.435215669362179
0.45,-0.05,0.1,0.5277817459305203,-0.08535533905932736,0.28,-45,90.0,-90.0,0.06765598650976921,0.4600605960234931,-0.1500618094113315,1.1002207925032734,-0.0009580847233215325,0.6201293202797307,-5.036088505266771
0.45,-0.05,0.1,0.5350386374562011,-0.04172774881952959,0.28,-15,90.0,-90.0,0.060172982604930356,0.24728873931069054,-0.2511726504934869,1.1783320353704667,0.00187876855749393,0.6440334773408983,-5.775299280712539
0.45,-0.05,0.1,0.4640192378864668,0.0342820323027551,0.28,60,90.0,-90.0,0.08329364585620896,-0.1445127349096034,0.031611040005930235,0.9308355221263418,-0.0002877019494315578,0.6094110075654867,5.091068783443505
0.45,-0.05,0.1,0.42,0.030000000000000027,0.2800000000000001,90,90.0,-90.0,0.0975963773530281,-0.10655047599295016,0.17876616331801967,0.7659209205296812,0.0007900949615786928,0.6271595446375899,4.60532978597871
0.4,-0.1,0.1,0.44968329839687377,-0.16950949475004984,0.2800000000000001,-75,90.0,-90.0,0.09994058894755349,0.5950540948409878,0.2442920566305271,0.6844349003637896,0.0010771817836237253,0.6410845514218874,1.9039179812202205
0.4,-0.1,0.1,0.47778174593052025,-0.13535533905932737,0.28,-45,90.0,-90.0,0.08881081878699697,0.5468027792980072,0.10762226365241714,0.8490049321840497,0.000999015831282249,0.6140461038094462,1.3306664847358591
0.4,-0.1,0.1,0.4842820323027551,-0.11401923788646683,0.2800000000000001,-30,90.0,-90.0,0.08340245021252496,0.48626800565793954,0.051156282199364335,0.9107278903352984,0.0006416375853955163,0.6085589194788511,1.0091635125914575
0.4,-0.1,0.1,0.48000000000000004,-0.06999999999999998,0.2800000000000001,0,90.0,-90.0,0.07911736132774033,0.30762432349555435,0.0038651842768098535,0.9595500521106042,0.001787638074356584,0.6077572817820032,0.3052344177142921
0.4,-0.1,0.1,0.4695094947500499,-0.050316701603126276,0.28,15,90.0,-90.0,0.08081366200343817,0.2147822659167578,0.02225870485753493,0.9404956997261122,0.0007363051640752764,0.6083956898520287,-0.04698268684407549
0.4,-0.1,0.1,0.41401923788646683,-0.0157179676972449,0.28,60,90.0,-90.0,0.09727734923477648,0.05500611924398159,0.19374053746219047,0.7477790229298216,0.0006195797809311813,0.6288055493823836,-0.9925109480562212
0.4,-0.1,0.1,0.37,-0.019999999999999976,0.2800000000000001,90,90.0,-90.0,0.09811651350258234,0.06050257527635699,0.3329809414334905,0.5677658063682389,-8.074636926166674e-05,0.6701449980462078,-1.5095112291806658
0.4,0.05,0.1,0.44968329839687377,-0.019509494750049844,0.2800000000000001,-75,90.0,-90.0,0.0860416197946372,0.07751031181840667,0.07559337562168959,0.8843628307753637,0.0016389427415284957,0.6101948335909434,1.3853856520191015
0.4,0.05,0.1,0.46598076211353323,-0.004282032302755069,0.28,-60,90.0,-90.0,0.08046043591730742,0.018452176415666554,0.015645097869722544,0.9476464582862719,0.000626669212240109,0.6070947426764858,1.0642069095821682
0.4,0.05,0.1,0.4842820323027551,0.03598076211353318,0.2800000000000001,-30,90.0,-90.0,0.07534964504022049,-0.16583419674062225,-0.04247829929684918,1.0043796744112239,0.0012340605366635052,0.6085863109153639,0.35703817080555467
0.4,0.05,0.1,0.4850386374562011,0.058272251180470414,0.28,-15,90.0,-90.0,0.07674931034084692,-0.2649501957119041,-0.0269254089947061,0.9895914649537128,0.0015280379013012564,0.6085874774404192,-0.005354962699733981
0.4,0.05,0.1,0.4695094947500499,0.09968329839687373,0.28,15,90.0,-90.0,0.0862367823738756,-0.40828240819741546,0.07609213772972867,0.8837143871235602,0.0004000006468048862,0.6121309799959432,-0.669555852364382
0.4,0.05,0.1,0.3917277488195296,0.1350386374562011,0.2800000000000001,75,90.0,-90.0,0.09774149907292433,-0.4131115339849611,0.3510095570535512,0.5430408993597203,0.0014109698577790607,0.6766682768529976,-1.7239723495348236
0.4,-0.15000000000000002,0.1,0.43000000000000005,-0.23000000000000004,0.2800000000000001,-90,90.0,-90.0,0.09503032996575475,0.7056790551409655,0.40578692566546803,0.46578476723895473,-0.000183833087113554,0.698341815057151,-4.006421369683201
0.4,-0.15000000000000002,0.1,0.44968329839687377,-0.21950949475004988,0.2800000000000001,-75,90.0,-90.0,0.09753699959935534,0.7196760516045955,0.33976810054388684,0.558339444442117,0.0007031150724851456,0.6715248374983223,-4.255470124661539
0.4,-0.15000000000000002,0.1,0.46598076211353323,-0.2042820323027551,0.28,-60,90.0,-90.0,0.09938912130369645,0.7177101884291147,0.27076663966395753,0.6507306157279441,-0.0012940495959546628,0.6489207893004125,-4.517969713346538
0.4,-0.15000000000000002,0.1,0.47778174593052025,-0.18535533905932738,0.28,-45,90.0,-90.0,0.097611855451717,0.6952016458527344,0.20341576479115434,0.7360001430382906,0.000937189616007505,0.6304840689316472,-4.802598990189496
0.4,-0.15000000000000002,0.1,0.4842820323027551,-0.16401923788646683,0.2800000000000001,-30,90.0,-90.0,0.09171664024584897,0.6500884177065106,0.14332500085148137,0.8076270868762981,-0.0009513239281391979,0.6190098825551433,-5.107811376872668
0.4,-0.15000000000000002,0.1,0.4695094947500499,-0.1003167016031263,0.28,15,90.0,-90.0,0.08528332319430709,0.4107580244329789,0.07703941523388903,0.8828754137907938,0.00044946786908264683,0.6106516590452417,-6.133637680697899
0.4,-0.15000000000000002,0.1,0.41401923788646683,-0.06571796769724492,0.28,60,90.0,-90.0,0.09875776464414804,0.2258096094707085,0.21619467523543268,0.7197036916208577,0.0008075091711644653,0.6344259313818434,5.460726641772081
0.4,-0.15000000000000002,0.1,0.3917277488195296,-0.06496136254379893,0.2800000000000001,75,90.0,-90.0,0.0991159087313462,0.20761085347063868,0.2846294120702468,0.6325285260586174,0.000730441471665999,0.6542421973959417,5.180456482356152
0.35000000000000003,0.1,0.1,0.38000000000000006,0.020000000000000004,0.2800000000000001,-90,90.0,-90.0,0.09819502640676445,-0.062340712124710235,0.30189508886252575,0.6095366236921163,0.0007121253268553456,0.6584738222004033,1.507989240686616
0.35000000000000003,0.1,0.1,0.42778174593052026,0.06464466094067264,0.28,-45,90.0,-90.0,0.09386208688769172,-0.23320979478252746,0.1725512252814071,0.7732150716669595,0.0017987474669299362,0.6255284187278612,0.5503601609598653
0.35000000000000003,0.1,0.1,0.43428203230275514,0.08598076211353319,0.2800000000000001,-30,90.0,-90.0,0.09365219643507038,-0.3130691583229683,0.17091236997138204,0.7755921182774411,0.0011498682643989074,0.6247064736451408,0.2099749491060341
0.35000000000000003,0.1,0.1,0.43000000000000005,0.13000000000000003,0.2800000000000001,0,90.0,-90.0,0.09927492915118019,-0.4486473998910641,0.2366378026968616,0.6942348582410015,0.0007724559347937856,0.6407064838668217,-0.448721848562526
0.35000000000000003,0.1,0.1,0.4195094947500499,0.14968329839687372,0.28,15,90.0,-90.0,0.09843344287708401,-0.49027088842072736,0.29358921099834756,0.6207192221253399,0.0018057957039599541,0.65617335769425,-0.7540997142424601
0.35000000000000003,0.1,0.1,0.4042820323027551,0.1659807621135332,0.2800000000000001,30,90.0,-90.0,0.0963407722957299,-0.5113319289403333,0.3590552901340694,0.531852747194623,0.0002095576184502998,0.6808091259233606,-1.0358916730459853
0.35000000000000003,0.1,0.1,0.36401923788646684,0.1842820323027551,0.28,60,90.0,-90.0,0.09033221851416826,-0.5015843021897703,0.4933913283035497,0.33699763643689007,6.298862277944131e-05,0.7413571171302157,-1.5486435620413672
0.35000000000000003,0.1,0.1,0.32,0.18000000000000005,0.2800000000000001,90,90.0,-90.0,0.08367222916438181,-0.44265139404374276,0.6094317269484983,0.15836406463340008,0.0008267051385848724,0.8028888698434303,-2.0148106873151885
0.35000000000000003,0.15000000000000002,0.1,0.38000000000000006,0.07000000000000002,0.2800000000000001,-90,90.0,-90.0,0.09726785477387971,-0.21577797522510253,0.32312039999692543,0.5809861908527186,0.0017046807181007205,0.6664660609890406,1.354245623140416
0.35000000000000003,0.15000000000000002,0.1,0.3996832983968738,0.08049050524995018,0.2800000000000001,-75,90.0,-90.0,0.0987153929999602,-0.2615615843012651,0.2715318379255875,0.6495538404594563,-1.4039022554188964e-05,0.6490087390331333,1.04708893948654
0.35000000000000003,0.15000000000000002,0.1,0.4159807621135332,0.09571796769724494,0.28,-60,90.0,-90.0,0.09921016617090371,-0.32504834829854895,0.23658603940103737,0.694451915826709,-0.00018384179223060926,0.6389342176604211,0.7221127094177222
0.35000000000000003,0.15000000000000002,0.1,0.42778174593052026,0.11464466094067266,0.28,-45,90.0,-90.0,0.09839047386941634,-0.39879718826031163,0.22245187934385038,0.7119421499353943,0.0009976659434514866,0.6364689037569197,0.38618280185303727
0.35000000000000003,0.15000000000000002,0.1,0.43503863745620114,0.15827225118047045,0.28,-15,90.0,-90.0,0.09887060969463343,-0.5385731689747284,0.26435681716981146,0.6585245323473874,0.0013398178315312359,0.6476044175893949,-0.27723396609469614
0.35000000000000003,0.15000000000000002,0.1,0.43000000000000005,0.18000000000000005,0.2800000000000001,0,90.0,-90.0,0.09756875363057843,-0.5881243824425201,0.31397873328953513,0.59347926024049,0.0009292958648056747,0.6634889960249643,-0.5882279935192976
0.35000000000000003,0.15000000000000002,0.1,0.4042820323027551,0.21598076211353323,0.2800000000000001,30,90.0,-90.0,0.09254519512652724,-0.6308163040333744,0.44174030694559163,0.4139843282532014,-2.222711909633684e-05,0.7156661517316346,-1.1551345859839484
0.35000000000000003,0.15000000000000002,0.1,0.3853553390593274,0.22778174593052028,0.28,45,90.0,-90.0,0.08913802579047143,-0.6264851483398007,0.5097069221124002,0.31256581501711234,-0.0007966249773623096,0.7490106705045196,-1.41104519698439
0.35000000000000003,0.15000000000000002,0.1,0.36401923788646684,0.23428203230275513,0.28,60,90.0,-90.0,0.08544032862822108,-0.6090300826593376,0.5752203132136006,0.21190478445390082,0.0013688531950977823,0.7833285803037935,-1.6580212564710646
0.35000000000000003,0.15000000000000002,0.1,0.3417277488195296,0.23503863745620113,0.2800000000000001,75,90.0,-90.0,0.08169342303328314,-0.5807425322711726,0.6352924400691208,0.1173142206565896,-0.0002333111225427447,0.818449116428766,-1.8900919596756287
0.35000000000000003,0.15000000000000002,0.1,0.32,0.23000000000000004,0.2800000000000001,90,90.0,-90.0,0.07821813222370806,-0.5445910849888849,0.6864659769263891,0.03462676743939963,0.0009865186275233304,0.8499610473768101,-2.1169927382371463
0.30000000000000004,0.1,0.1,0.33000000000000007,0.020000000000000004,0.2800000000000001,-90,90.0,-90.0,0.09129298050656647,-0.05414651631208498,0.45441092401378136,0.3950080353572159,0.0001898623991641341,0.7203886228399042,-4.765997229304584
0.30000000000000004,0.1,0.1,0.36598076211353325,0.045717967697244934,0.28,-60,90.0,-90.0,0.09568348603970349,-0.13604612118925935,0.35219770248455684,0.5407851829855693,0.00026195638207655565,0.6769715194353186,-5.371825211378464
0.30000000000000004,0.1,0.1,0.38428203230275515,0.08598076211353319,0.2800000000000001,-30,90.0,-90.0,0.0967813800176344,-0.26601143251721243,0.32214006876461126,0.5822068677433372,0.0011470065805585024,0.6669201396513253,-6.025538862218388
0.30000000000000004,0.1,0.1,0.3542820323027551,0.1659807621135332,0.2800000000000001,30,90.0,-90.0,0.08929529054366507,-0.44766566722660095,0.49454513363448477,0.33542958791124744,-0.0004133107624561207,0.7415329055248183,-0.9704976704442068
0.30000000000000004,0.1,0.1,0.31401923788646685,0.1842820323027551,0.28,60,90.0,-90.0,0.08126176478526209,-0.44551119070982276,0.6323804584950917,0.12161999571784209,0.0010020077996273277,0.8166887709968086,-1.4937081521513884
0.30000000000000004,0.1,0.1,0.2917277488195296,0.18503863745620108,0.2800000000000001,75,90.0,-90.0,0.07666811619009636,-0.42557691098131545,0.7001013027374977,0.012252395050714059,0.0006188553312085111,0.8591087887451702,-1.735727232314087
0.30000000000000004,0.15000000000000002,0.1,0.33000000000000007,0.07000000000000002,0.2800000000000001,-90,90.0,-90.0,0.09009408742629006,-0.18703720069919436,0.4729549518645819,0.3678255401242428,0.0013376332054946208,0.7305840404560615,1.3823389279434444
0.30000000000000004,0.15000000000000002,0.1,0.38428203230275515,0.13598076211353322,0.2800000000000001,-30,90.0,-90.0,0.09461800087556584,-0.40680406175555106,0.37264811678518417,0.5123702008582014,0.000642588900113104,0.6852815238047599,0.11715779010489265
0.30000000000000004,0.15000000000000002,0.1,0.38000000000000006,0.18000000000000005,0.2800000000000001,0,90.0,-90.0,0.09149056178234587,-0.5123684353666103,0.4442941026857305,0.4101219623526756,0.0012269668806070134,0.716412414663522,-0.5141456799397203
0.30000000000000004,0.15000000000000002,0.1,0.3353553390593274,0.22778174593052028,0.28,45,90.0,-90.0,0.08049721966348375,-0.5583668646244745,0.6397922175793895,0.11011227910104378,0.0012211636938645968,0.8204281715488714,-1.3445020831659944
0.30000000000000004,0.05,0.1,0.33000000000000007,-0.03,0.2800000000000001,-90,90.0,-90.0,0.09137134309747476,0.08061384277965353,0.4569878171327096,0.3916921653322495,0.0010871652290858481,0.7225725982219261,1.6509834117777975
0.30000000000000004,0.05,0.1,0.36598076211353325,-0.004282032302755069,0.28,-60,90.0,-90.0,0.09619367463390237,0.012521856953282198,0.34314089952545995,0.5538761793660358,0.001531391744604877,0.6733442026564538,1.0579387176596877
0.30000000000000004,0.05,0.1,0.38428203230275515,0.03598076211353318,0.2800000000000001,-30,90.0,-90.0,0.09787353765818803,-0.11371924092544188,0.29250033321134566,0.6217705423128851,0.0007513006585461222,0.6557004689160005,0.4083617476322166
0.30000000000000004,0.05,0.1,0.38503863745620115,0.058272251180470414,0.28,-15,90.0,-90.0,0.09762267737326505,-0.18304295474624682,0.3010833717816756,0.6109004351823341,0.0014645355639670784,0.6586984862913746,0.07755589877308666
0.30000000000000004,0.05,0.1,0.38000000000000006,0.08000000000000004,0.2800000000000001,0,90.0,-90.0,0.09664177003327991,-0.24527804892580457,0.330350770968744,0.570836580033689,0.0006989523748679976,0.6702747060445897,-0.24653265112182535
0.30000000000000004,0.05,0.1,0.3542820323027551,0.1159807621135332,0.2800000000000001,30,90.0,-90.0,0.0923128303251167,-0.323685221025239,0.43694281339402136,0.42085353688771615,0.0002356773777140162,0.7135346601801814,-0.8469370227942579
0.30000000000000004,0.05,0.1,0.31401923788646685,0.1342820323027551,0.28,60,90.0,-90.0,0.08515686148716331,-0.3348879128018865,0.5726602064506102,0.2160339742837055,0.0012686114741671001,0.7827399771686177,-1.3836675881190543
0.30000000000000004,0.05,0.1,0.2917277488195296,0.1350386374562011,0.2800000000000001,75,90.0,-90.0,0.08092676355495611,-0.31928432254966405,0.6404668398700955,0.10909949752044391,2.876294365445622e-05,0.8217362880831613,-1.6276720460705587
0.30000000000000004,0.05,0.1,0.27,0.13000000000000003,0.2800000000000001,90,90.0,-90.0,0.07661984015975726,-0.29370991708122035,0.7032273530614155,0.007216838813306613,0.0011557142441514204,0.8607740055304781,-1.8660517684820463
0.30000000000000004,0.2,0.1,0.33000000000000007,0.12000000000000001,0.2800000000000001,-90,90.0,-90.0,0.08771697496393231,-0.3139079911335314,0.5110294493496496,0.31067428590373514,0.0014187159650716754,0.7486786300456564,1.2553816746281343
0.30000000000000004,0.2,0.1,0.38503863745620115,0.20827225118047044,0.28,-15,90.0,-90.0,0.08954725616619247,-0.5845036285178792,0.475737026351352,0.36341775863426395,0.001139461110443518,0.7310550473183896,-0.32428497035164305
0.30000000000000004,0.2,0.1,0.38000000000000006,0.23000000000000004,0.2800000000000001,0,90.0,-90.0,0.08688543746013004,-0.6235569058649986,0.5265637784440602,0.2870505620827467,0.001660647873116287,0.75714688991391,-0.6247892176031706
0.30000000000000004,0.2,0.1,0.3695094947500499,0.24968329839687375,0.28,15,90.0,-90.0,0.08323735698683798,-0.6470986426711453,0.5896966993943692,0.1893339363978656,0.0009903609071351034,0.7911786050030545,-0.9091100873393596
0.30000000000000004,0.2,0.1,0.3542820323027551,0.2659807621135332,0.2800000000000001,30,90.0,-90.0,0.07872148455205007,-0.6557215911239205,0.6605503522759466,0.07657179304165253,-0.000885489248328636,0.8345432456997883,-1.1777579306317782
0.45,-0.05000000000000002,0.1,0.48000000000000004,-0.13,0.2800000000000001,-90,90.0,-90.0,0.08877520183071543,0.5338573505057482,0.09150003869799656,0.8670565292191064,-0.0015368129129949618,0.6117413423866002,-4.1770194554899325
0.45,-0.05000000000000002,0.1,0.49968329839687375,-0.11950949475004986,0.2800000000000001,-75,90.0,-90.0,0.08147364200448293,0.5376647520776595,0.012575845213041014,0.9505731451611107,0.0016897085269593222,0.6078924525681392,-4.437812062798576
0.45,-0.05000000000000002,0.1,0.5159807621135332,-0.1042820323027551,0.28,-60,90.0,-90.0,0.07410343468842359,0.5151548877696007,-0.07025159875102926,1.0309891125229422,0.0012867359617825091,0.6092519181667997,-4.721044950972819
0.45,-0.05000000000000002,0.1,0.5342820323027551,-0.06401923788646684,0.2800000000000001,-30,90.0,-90.0,0.06276422831173188,0.3681558867726804,-0.21545034075958544,1.1518381089946115,0.0009773892583830519,0.6348249402876702,-5.392624203593207
0.45,-0.05000000000000002,0.1,0.4853553390593274,0.02778174593052024,0.28,45,90.0,-90.0,0.07584097076834222,-0.1293482361443967,-0.05100276233345813,1.0124535194948847,0.0021404972659665564,0.6094601916595253,-0.9171344889837406
0.4,-0.05,0.1,0.43000000000000005,-0.13,0.2800000000000001,-90,90.0,-90.0,0.10010784426835505,0.44867909186593674,0.2365035584099071,0.6946365900586876,0.0009462368874969863,0.6392422213794554,2.0178874816833607
0.4,-0.05,0.1,0.44968329839687377,-0.11950949475004985,0.2800000000000001,-75,90.0,-90.0,0.09486773426017193,0.445168968815043,0.16490295689105436,0.7824696971832883,0.001184255074820798,0.623688130316163,1.7522441757866813
0.4,-0.05,0.1,0.47778174593052025,-0.08535533905932736,0.28,-45,90.0,-90.0,0.08173127027525481,0.3666671175415592,0.029836877041599923,0.9328616597726037,-0.00041516536648573206,0.6071801376821158,1.1532582442238846
0.4,-0.05,0.1,0.48000000000000004,-0.01999999999999997,0.2800000000000001,0,90.0,-90.0,0.07598760506182609,0.09054723449561615,-0.03413350442474657,0.996869694449057,0.0013237416507233782,0.6070839505891302,0.08945540000120643
0.4,-0.05,0.1,0.4695094947500499,-0.0003167016031262737,0.28,15,90.0,-90.0,0.079233961451783,0.0006090012527168907,0.0019987251131689107,0.9611801321774267,0.0020074404287870897,0.6071082438144564,-0.2632216103009927
0.4,-0.05,0.1,0.41401923788646683,0.0342820323027551,0.28,60,90.0,-90.0,0.09812877796019243,-0.11929247708728806,0.19929002121580966,0.7408753286444693,0.0009148852356959367,0.630093660142955,-1.1672318670130715
0.4,-0.05,0.1,0.37,0.030000000000000027,0.2800000000000001,90,90.0,-90.0,0.0982642187570645,-0.09085224345957918,0.33501656716226036,0.5645948169773676,0.0013443309658605009,0.6710359761201179,-1.6633775691881922
0.45,0.15000000000000002,0.1,0.48000000000000004,0.07000000000000002,0.2800000000000001,-90,90.0,-90.0,0.07971792549257134,-0.30826168220044875,0.0038459114071916884,0.9595813682487494,0.002004300306951312,0.6067166075255522,1.2600521739292754
0.45,0.15000000000000002,0.1,0.5277817459305203,0.11464466094067266,0.28,-45,90.0,-90.0,0.07170677146941208,-0.5870901329362382,-0.0889792621091646,1.0475366595310573,0.0006090977430863804,0.6116873677873147,0.19854353206327766
0.45,0.15000000000000002,0.1,0.5342820323027551,0.13598076211353322,0.2800000000000001,-30,90.0,-90.0,0.07424924365689835,-0.687529748857636,-0.058739904262207134,1.0201577647760838,0.0016685073653420525,0.6091634442215189,-0.16477334686547673
0.45,0.15000000000000002,0.1,0.42,0.23000000000000004,0.2800000000000001,90,90.0,-90.0,0.09480636057578062,-0.6878137756758287,0.4297373629539466,0.43095983562547446,0.0006551915932876923,0.711103495598566,-2.2583739288973543
0.25000000000000006,0.15000000000000002,0.1,0.3159807621135332,0.09571796769724494,0.28,-60,90.0,-90.0,0.08603905528366658,-0.244440240685321,0.5319292652608352,0.27891110806554625,0.0014702538612400072,0.7596855734779366,0.8010085969287171
0.25000000000000006,0.15000000000000002,0.1,0.3277817459305203,0.11464466094067266,0.28,-45,90.0,-90.0,0.08708427294273793,-0.2988913367528001,0.5127500244997955,0.3080104094960956,0.001058135364572989,0.7503798398363762,0.48613543058092806
0.25000000000000006,0.15000000000000002,0.1,0.33428203230275516,0.13598076211353322,0.2800000000000001,-30,90.0,-90.0,0.08696180474127722,-0.35616170289856874,0.5150895739018018,0.304552432842216,0.000750219256374735,0.7516340608713294,0.16598327646765867
0.25000000000000006,0.15000000000000002,0.1,0.33503863745620116,0.15827225118047045,0.28,-15,90.0,-90.0,0.08568195366968163,-0.40919498476472316,0.5384545829446189,0.2689588128740859,0.00032562662544581165,0.7643783350391102,-0.14796253470870965
0.25000000000000006,0.15000000000000002,0.1,0.33000000000000007,0.18000000000000005,0.2800000000000001,0,90.0,-90.0,0.08321976198415885,-0.4530460878274647,0.581212594760818,0.20303068655019613,0.0009655364474045766,0.7869686877402039,-0.4535763888187368
0.25000000000000006,0.15000000000000002,0.1,0.3195094947500499,0.19968329839687377,0.28,15,90.0,-90.0,0.07958226497193348,-0.48324023150316303,0.6396295848888318,0.11060355653601817,-0.0004902695211571979,0.8215451619451761,-0.74540534144835
0.5,-0.15000000000000002,0.1,0.5496832983968737,-0.21950949475004988,0.2800000000000001,-75,90.0,-90.0,0.09231258040524067,0.9702200575370693,0.12690931251091903,0.8271912049851694,-5.1349040460265156e-05,0.6156458197642449,2.2785853287042874
0.5,-0.15000000000000002,0.1,0.5659807621135332,-0.2042820323027551,0.28,-60,90.0,-90.0,0.08513544218875732,0.9904650826122006,0.052092050675312085,0.9095049913167069,-0.00020748919112089628,0.6083722533403204,2.038377941890484
0.5,-0.15000000000000002,0.1,0.5777817459305202,-0.18535533905932738,0.28,-45,90.0,-90.0,0.07768764529108581,0.9872639730698287,-0.02987283789560187,0.9926468912297285,0.001339872760267003,0.6069677330445814,1.7720494331611267
0.5,-0.15000000000000002,0.1,0.5842820323027551,-0.16401923788646683,0.2800000000000001,-30,90.0,-90.0,0.07067907870884566,0.956050490953837,-0.11406212809895375,1.0696130522976743,0.001330864728084836,0.6152430912012483,1.478191853127906
0.5,-0.15000000000000002,0.1,0.5850386374562011,-0.1417277488195296,0.28,-15,90.0,-90.0,0.0644413111229968,0.8888322345856566,-0.1932689828700288,1.1351783753277636,0.0014751923601182826,0.6283461632892703,1.1496010329710076
0.5,-0.15000000000000002,0.1,0.5542820323027551,-0.08401923788646683,0.2800000000000001,30,90.0,-90.0,0.059535662531192635,0.5231280437259291,-0.2610425783056413,1.185292768419058,0.0016549673061056927,0.6457843247602539,-0.0018261874738968037
0.5,-0.15000000000000002,0.1,0.5353553390593273,-0.07221825406947976,0.28,45,90.0,-90.0,0.06353644553200093,0.41321903830950757,-0.205320585613969,1.1444436667381181,0.002153091795124492,0.6311431323523762,-0.37475783966036047
0.5,-0.15000000000000002,0.1,0.5140192378864669,-0.06571796769724492,0.28,60,90.0,-90.0,0.06961929120085728,0.3400430449603122,-0.12824774907891187,1.0817918345322712,0.00017536027908112613,0.6186383868695522,-0.7078158641916691
0.5,-0.15000000000000002,0.1,0.4917277488195296,-0.06496136254379893,0.2800000000000001,75,90.0,-90.0,0.07655483248381194,0.3025283481800391,-0.04384049693206749,1.006207326170686,0.0005063616264275378,0.6088982708413697,-1.0066305988480981
0.5,-0.15000000000000002,0.1,0.47,-0.06999999999999999,0.2800000000000001,90,90.0,-90.0,0.08402947905366517,0.2955873023616443,0.038682297761501346,0.9236734681831268,7.84151785480917e-05,0.6094108202912877,-1.2757385091330957
0.5,0.05,0.1,0.5695094947500499,0.09968329839687373,0.28,15,90.0,-90.0,0.05906156829080303,-0.6524271557791137,-0.2805439371730052,1.1989556898148508,0.0015857296868704988,0.6523677011949623,-0.9161336667066734
0.35000000000000003,-0.05,0.1,0.38000000000000006,-0.13,0.2800000000000001,-90,90.0,-90.0,0.09581855149692314,0.3859532600334127,0.37772146567992926,0.5054506444406609,-9.256807683793609e-05,0.6871726454631499,1.9569012064758198
0.35000000000000003,-0.05,0.1,0.3996832983968738,-0.11950949475004985,0.2800000000000001,-75,90.0,-90.0,0.09815066820267139,0.37890899884331347,0.309671472607977,0.5988139782096722,-0.0006794587726522087,0.6614725957056442,1.6878408026163993
0.35000000000000003,-0.05,0.1,0.42778174593052026,-0.08535533905932736,0.28,-45,90.0,-90.0,0.09581453584331719,0.3038316944436967,0.1900107969215739,0.7520615690125126,0.0006338495149952766,0.6278551445663869,1.0879072156621319
0.35000000000000003,-0.05,0.1,0.4042820323027551,0.015980762113533192,0.2800000000000001,30,90.0,-90.0,0.09896157972798715,-0.05441105538093221,0.225216737475235,0.7090694502719747,0.0019697874357599483,0.6364174415922008,-0.5792415995970892
0.35000000000000003,-0.05,0.1,0.3853553390593274,0.027781745930520255,0.28,45,90.0,-90.0,0.0987581555313655,-0.0880894676100952,0.28708109866022347,0.6288667179291139,0.0013874219663541254,0.6552956719509573,-0.8754923110633746
0.35000000000000003,-0.05,0.1,0.32,0.030000000000000027,0.2800000000000001,90,90.0,-90.0,0.0908506310469217,-0.07884192215726306,0.4874612762245233,0.3462539652446244,8.028699532921385e-05,0.7372984691452824,-1.6488529085988408
0.30000000000000004,0.10000000000000002,0.1,0.33000000000000007,0.020000000000000018,0.2800000000000001,-90,90.0,-90.0,0.09129997413579001,-0.053848922635712886,0.45452875328541875,0.3951732999819954,-0.00013872653218507385,0.7208046508735841,1.5162011426919904
0.30000000000000004,0.10000000000000002,0.1,0.36598076211353325,0.04571796769724495,0.28,-60,90.0,-90.0,0.09567955354203574,-0.13637783377998744,0.35250439570926556,0.5406687133252779,0.0008327465586247865,0.6776995513076589,0.9094269485150724
0.30000000000000004,0.10000000000000002,0.1,0.3777817459305203,0.06464466094067266,0.28,-45,90.0,-90.0,0.09663104243469113,-0.1984063988081972,0.32635472071359517,0.5764550734247458,0.001125610360904573,0.6674135914566791,0.5862219904228313
0.30000000000000004,0.10000000000000002,0.1,0.38000000000000006,0.13000000000000006,0.2800000000000001,0,90.0,-90.0,0.09469752001197533,-0.38623363035835284,0.3776638314112689,0.5054904745378478,0.0015914821061187253,0.6871783268106394,-0.38800695772878696
0.30000000000000004,0.10000000000000002,0.1,0.3695094947500499,0.14968329839687375,0.28,15,90.0,-90.0,0.09240073342759994,-0.4253987417251468,0.4309094700593662,0.4294072740663994,-0.0001748324867326329,0.7112247825829618,-0.6862223223045006
0.30000000000000004,0.10000000000000002,0.1,0.3542820323027551,0.16598076211353321,0.2800000000000001,30,90.0,-90.0,0.0892987545352831,-0.4475634404685335,0.49452122546041855,0.3354955335113781,0.0001969096358809051,0.7412555477179945,-0.9713933733114394
0.30000000000000004,0.10000000000000002,0.1,0.3353553390593274,0.17778174593052026,0.28,45,90.0,-90.0,0.08553567412418517,-0.45372922972246665,0.5631019350585107,0.23100386372365292,-0.0007803203710241185,0.7778794277074674,-1.2386669340151546
0.35000000000000003,-0.10000000000000002,0.1,0.38000000000000006,-0.18000000000000002,0.2800000000000001,-90,90.0,-90.0,0.0927537262215984,0.5123736303701066,0.4443309922892154,0.4101563912914654,-0.00021551168656161555,0.7154760224078487,2.0835767699537597
0.35000000000000003,-0.10000000000000002,0.1,0.42778174593052026,-0.1353553390593274,0.28,-45,90.0,-90.0,0.09925701414546306,0.46124525108177356,0.2497764572254677,0.6775349887561889,0.0013363010410897187,0.6430627975345807,1.2448425057106784
0.35000000000000003,-0.10000000000000002,0.1,0.43000000000000005,-0.06999999999999998,0.2800000000000001,0,90.0,-90.0,0.09342962675899784,0.25361956854332474,0.16967744543878455,0.777028248655324,-7.531977150357564e-05,0.6234433051765278,0.25358983364760634
0.35000000000000003,-0.10000000000000002,0.1,0.4042820323027551,-0.034019237886466824,0.2800000000000001,30,90.0,-90.0,0.09903591690952385,0.1142312408314266,0.22955182820952685,0.7031818427300804,0.0019523107332205995,0.6376434632957864,-0.4100272331801123
0.35000000000000003,-0.10000000000000002,0.1,0.3417277488195296,-0.014961362543798928,0.2800000000000001,75,90.0,-90.0,0.09394804556606283,0.04167354244886944,0.417849906288527,0.4481214242199941,0.0013240942729952723,0.7047611907813568,-1.2690631276624489
0.20000000000000007,0.10000000000000002,0.1,0.2300000000000001,0.020000000000000018,0.2800000000000001,-90,90.0,-90.0,0.06920949743547498,-0.042632295438507106,0.7766240755065648,-0.11410182367153696,0.0004282891417813574,0.9085822595974087,1.527073151438362
0.20000000000000007,0.10000000000000002,0.1,0.2659807621135333,0.04571796769724495,0.28,-60,90.0,-90.0,0.07748139315792818,-0.10506063932248584,0.6608796500028042,0.07634757325497508,0.0008415773749136622,0.8333232800545766,0.9407629518059665
0.20000000000000007,0.10000000000000002,0.1,0.2777817459305203,0.06464466094067266,0.28,-45,90.0,-90.0,0.07942363031234805,-0.15212030636487492,0.631038799106807,0.12415643173624272,0.0008981299378077322,0.8149596480995785,0.6318519889331788
0.20000000000000007,0.10000000000000002,0.1,0.28428203230275517,0.0859807621135332,0.2800000000000001,-30,90.0,-90.0,0.0799922830150351,-0.20406525141692347,0.622183162280733,0.138318829638896,0.0003197372426099439,0.8093930030087568,0.3195366989446162
0.20000000000000007,0.10000000000000002,0.1,0.28503863745620117,0.10827225118047043,0.28,-15,90.0,-90.0,0.07909406168276437,-0.2552010200924884,0.6361490658748662,0.11585000789079757,0.001272782253725045,0.8183471556134386,0.005858970012753511
0.20000000000000007,0.10000000000000002,0.1,0.2800000000000001,0.13000000000000006,0.2800000000000001,0,90.0,-90.0,0.07676332955258834,-0.3003512136952707,0.6716161019099901,0.058897022911281884,0.0010271366038381506,0.8407171872737824,-0.30186390400867297
0.20000000000000007,0.10000000000000002,0.1,0.25428203230275515,0.16598076211353321,0.2800000000000001,30,90.0,-90.0,0.06777114149396903,-0.356681650477806,0.7953189910782724,-0.14540574942574508,0.00029805508088372125,0.9206016892654759,-0.8808879018348761
0.20000000000000007,0.10000000000000002,0.1,0.2140192378864669,0.18428203230275514,0.28,60,90.0,-90.0,0.052707099230151974,-0.36256664739413724,0.9722614816419162,-0.44928392242487936,0.0009822040298298642,1.047265889693766,-1.4095917032266185
0.20000000000000007,0.10000000000000002,0.1,0.17000000000000004,0.18000000000000005,0.2800000000000001,90,90.0,-90.0,0.02968833467292289,-0.32733776785400615,1.2016591741109313,-0.859456709306371,-0.00023704008528011906,1.2291191944614521,-1.8978511104641025
0.35000000000000003,-0.1,0.1,0.4159807621135332,-0.15428203230275508,0.28,-60,90.0,-90.0,0.09798358693116688,0.49789638959396915,0.3095285802491722,0.599154823659984,-0.0008931926729413846,0.6617660292017707,-4.736494112120719
0.35000000000000003,-0.1,0.1,0.42778174593052026,-0.13535533905932737,0.28,-45,90.0,-90.0,0.09926019343862619,0.461599358426861,0.24995652230370696,0.6771700177786419,-0.0007954760247131534,0.6427773992384751,-5.035874237499769
0.35000000000000003,-0.1,0.1,0.43000000000000005,-0.06999999999999998,0.2800000000000001,0,90.0,-90.0,0.09342371640973636,0.25350467621043954,0.16976177267753292,0.7770135730446849,0.0007608573258100527,0.6233128593125474,-6.029702607769494
0.35000000000000003,-0.1,0.1,0.3853553390593274,-0.022218254069479748,0.28,45,90.0,-90.0,0.09862321284723513,0.07015439919949674,0.2859753855968889,0.6306751111579456,0.0014528774083547176,0.6542311757654378,-0.7171135440953931
0.35000000000000003,-0.1,0.1,0.36401923788646684,-0.0157179676972449,0.28,60,90.0,-90.0,0.09664414844208744,0.04650092676398098,0.3502968361777248,0.5435344176828708,0.00012283765845928345,0.677457713335599,-0.9999123316151963
0.35000000000000003,-0.1,0.1,0.3417277488195296,-0.014961362543798915,0.2800000000000001,75,90.0,-90.0,0.09395273441710693,0.04154505391738566,0.41800664956457834,0.4483079037763586,0.001196275870732567,0.7043772186091628,-1.2691095195378073
0.30000000000000004,-0.05000000000000002,0.1,0.33000000000000007,-0.13,0.2800000000000001,-90,90.0,-90.0,0.0880764124016046,0.3379633644167949,0.5211763570874446,0.2953453124625798,0.0001875976212304506,0.7542963674417831,-4.373607005041749
0.30000000000000004,-0.05000000000000002,0.1,0.36598076211353325,-0.1042820323027551,0.28,-60,90.0,-90.0,0.09429023277024019,0.30283393888413623,0.39183059513252955,0.4855514468887691,-0.00036080009722992565,0.6931575129260826,-4.931884462501615
0.30000000000000004,-0.05000000000000002,0.1,0.3777817459305203,-0.08535533905932738,0.28,-45,90.0,-90.0,0.09627827974943363,0.25901778493876326,0.3407125946233795,0.5570224034826072,0.0007219433207830905,0.6722188498307963,-5.240186307536039
0.30000000000000004,-0.05000000000000002,0.1,0.38428203230275515,-0.06401923788646684,0.2800000000000001,-30,90.0,-90.0,0.09744245811981407,0.199892604893595,0.30619057359042,0.6033842650295853,0.0004550235532027166,0.6605562818203531,-5.559887062076263
0.30000000000000004,-0.05000000000000002,0.1,0.3695094947500499,-0.0003167016031262876,0.28,15,90.0,-90.0,0.09656489032561207,0.0008326886224032914,0.3326714778988066,0.5679081238520727,0.0012175761989072472,0.6707108604698249,-6.544405106303302
0.30000000000000004,-0.05000000000000002,0.1,0.3353553390593274,0.02778174593052024,0.28,45,90.0,-90.0,0.09218859239530387,-0.07616576045024927,0.43964603860884444,0.4169252864012621,0.0007090102965382169,0.7134539224568287,-0.8626523911171181
0.30000000000000004,-0.05000000000000002,0.1,0.31401923788646685,0.03428203230275509,0.28,60,90.0,-90.0,0.08883513287476225,-0.0883762035380849,0.5069978487304603,0.31674465613114644,-0.00043614663097735933,0.7482848343677864,-1.135112280030874
0.30000000000000004,-0.05000000000000002,0.1,0.27,0.030000000000000013,0.2800000000000001,90,90.0,-90.0,0.0807161968822317,-0.06968378333675398,0.6434939305315555,0.10395042449320493,0.0006503529471820944,0.8231991544167211,-1.6413668844210554
0.35000000000000003,0.0,0.1,0.38000000000000006,-0.08,0.2800000000000001,-90,90.0,-90.0,0.09757796456492124,0.24503425737897624,0.3304997397642473,0.5708812842144917,-4.3492025192447856e-05,0.6691182856230146,1.8152348292106717
0.35000000000000003,0.0,0.1,0.3996832983968738,-0.06950949475004985,0.2800000000000001,-75,90.0,-90.0,0.09927696267222823,0.22720439517733085,0.2633474109821096,0.6602659777316733,0.000832126017639151,0.646416240815819,1.5350927465911137
0.35000000000000003,0.0,0.1,0.42778174593052026,-0.03535533905932736,0.28,-45,90.0,-90.0,0.0923511982751764,0.12913225003577572,0.1547887151198806,0.7946542532427638,-2.738984707407045e-06,0.6203092504019075,0.9141608446738231
0.35000000000000003,0.0,0.1,0.43428203230275514,-0.014019237886466817,0.2800000000000001,-30,90.0,-90.0,0.08966868582225868,0.05272502920010218,0.12698208076943845,0.8267229931995268,0.0005029021037946864,0.6166185857028674,0.5753255911917017
0.35000000000000003,0.0,0.1,0.3853553390593274,0.07778174593052026,0.28,45,90.0,-90.0,0.09813140091429286,-0.24267212170051294,0.3128519162500578,0.594897526432114,0.0011347902710644514,0.6630468854492597,-1.0286033648151676
0.35000000000000003,0.0,0.1,0.36401923788646684,0.0842820323027551,0.28,60,90.0,-90.0,0.09576654457948125,-0.24600254560598986,0.38081246215000697,0.5008314195855424,0.0014645960287102847,0.6897951684980209,-1.2940900736741938
0.5,-0.2,0.1,0.53,-0.28,0.2800000000000001,-90,90.0,-90.0,0.09899674614501355,1.0252073158372286,0.32316489503997925,0.5810462620419754,0.000489748124785806,0.6659822841414226,2.595080870067294
0.5,-0.2,0.1,0.5777817459305202,-0.23535533905932737,0.28,-45,90.0,-90.0,0.09130938373776434,1.0921505360890564,0.1243822560474649,0.8301534485094739,-0.00044394631021667003,0.6157476874871828,1.878402387821874
0.5,-0.2,0.1,0.4917277488195296,-0.11496136254379892,0.2800000000000001,75,90.0,-90.0,0.08234543069378625,0.5037081782678555,0.029339065092228472,0.9332728398282432,0.0017387266653180434,0.6085244759386829,-0.8061930661067471
0.25000000000000006,-1.3877787807814457e-17,0.1,0.2800000000000001,-0.08000000000000002,0.2800000000000001,-90,90.0,-90.0,0.0805360000118195,0.18821121019531567,0.6321827911362337,0.12233593642937758,0.00020861228391395544,0.8154301226800051,1.7590931425796432
0.25000000000000006,-1.3877787807814457e-17,0.1,0.2996832983968738,-0.06950949475004986,0.2800000000000001,-75,90.0,-90.0,0.08467674449675061,0.17202722681322738,0.5647484407820816,0.22866857780626462,-0.00011846713076508661,0.7767810783773196,1.4801388612613315
0.25000000000000006,-1.3877787807814457e-17,0.1,0.3159807621135332,-0.054282032302755086,0.28,-60,90.0,-90.0,0.08782956962775577,0.14036403744784476,0.5079642802187135,0.3154416958759443,0.0009965377538636415,0.7477980992839384,1.1858957990240468
0.25000000000000006,-1.3877787807814457e-17,0.1,0.3277817459305203,-0.035355339059327376,0.28,-45,90.0,-90.0,0.09004408529603074,0.09490354331630044,0.46472307835795434,0.37998685338159743,-0.0002766701211545748,0.7250862919843029,0.8805502055922716
0.25000000000000006,-1.3877787807814457e-17,0.1,0.33428203230275516,-0.01401923788646683,0.2800000000000001,-30,90.0,-90.0,0.0912238660695125,0.03827839209161545,0.44030727423119814,0.4158290575993767,1.3926962117401904e-05,0.7135386615018239,0.5623977268891975
0.25000000000000006,-1.3877787807814457e-17,0.1,0.33000000000000007,0.03000000000000002,0.2800000000000001,0,90.0,-90.0,0.09045053007292242,-0.08124561121551402,0.45668227721954724,0.39210202440335146,0.0014766408629465376,0.7220798217286264,-0.08265270529199326
0.25000000000000006,-1.3877787807814457e-17,0.1,0.30428203230275513,0.06598076211353318,0.2800000000000001,30,90.0,-90.0,0.08559624985564149,-0.16544800914515378,0.548496004539177,0.2532147754719505,0.001103841734848952,0.768752015841799,-0.6907792093678475
0.25000000000000006,-1.3877787807814457e-17,0.1,0.2853553390593274,0.07778174593052024,0.28,45,90.0,-90.0,0.08168104078341429,-0.18571811233475516,0.6141423426520931,0.15093762030776506,0.0008869209661338578,0.8053548794329237,-0.97104351587728
0.25000000000000006,-1.3877787807814457e-17,0.1,0.24172774881952963,0.08503863745620108,0.2800000000000001,75,90.0,-90.0,0.0714806713642494,-0.18339168157526875,0.7613484245077883,-0.0884750688587323,0.0006432251980157903,0.8980040903724912,-1.493194996885906
0.25000000000000006,-1.3877787807814457e-17,0.1,0.22000000000000003,0.08000000000000002,0.2800000000000001,90,90.0,-90.0,0.06554146144404882,-0.16503619914875978,0.8363899361256365,-0.21463205752411768,-0.00035570511854460306,0.9492938878686207,-1.7364014849989349
0.20000000000000007,-1.3877787807814457e-17,0.1,0.28503863745620117,0.0082722511804704,0.28,-15,90.0,-90.0,0.08206010795585073,-0.02006545187541942,0.5919384392451836,0.1861259775293355,0.0007011478176971896,0.7917315359210788,0.2403744715869325
0.20000000000000007,-1.3877787807814457e-17,0.1,0.2695094947500499,0.049683298396873715,0.28,15,90.0,-90.0,0.07834520653463921,-0.11529195563661246,0.6507268025636395,0.09263178121960784,0.0014994524652427639,0.826835479352006,-0.3775041323871501
0.20000000000000007,-1.3877787807814457e-17,0.1,0.23535533905932743,0.07778174593052024,0.28,45,90.0,-90.0,0.06919393088950555,-0.16600588440494896,0.779088108719455,-0.11842136090624758,0.001014547193285259,0.9098797014931196,-0.9515501576049507
0.20000000000000007,-1.3877787807814457e-17,0.1,0.2140192378864669,0.08428203230275509,0.28,60,90.0,-90.0,0.06257758146200461,-0.17181805709199083,0.8618543505659984,-0.2581187305357904,0.001079007711578996,0.9668508924105624,-1.2205864292561972
0.20000000000000007,0.2,0.1,0.2496832983968738,0.13049050524995015,0.2800000000000001,-75,90.0,-90.0,0.06914110078391138,-0.28195485623362065,0.7705618043386547,-0.10409663293946454,-0.00010940467908895484,0.9031841993310508,1.0278005876560965
0.20000000000000007,0.2,0.1,0.2659807621135333,0.14571796769724493,0.28,-60,90.0,-90.0,0.07195758168896071,-0.3238244225743963,0.732394267020345,-0.04078654141464932,-4.165609243945683e-05,0.8782133590757819,0.7243386262828592
0.20000000000000007,0.2,0.1,0.28428203230275517,0.1859807621135332,0.2800000000000001,-30,90.0,-90.0,0.07252345210436102,-0.4204860504837003,0.7247552192601178,-0.027870845740931918,5.635265290094199e-05,0.8748306126830476,0.10285330995454701
0.20000000000000007,0.2,0.1,0.28503863745620117,0.20827225118047044,0.28,-15,90.0,-90.0,0.07031477542547832,-0.4652845481137003,0.7549386463971717,-0.0780638792120686,0.0009845236362647572,0.8947030199714209,-0.20490120950668866
0.20000000000000007,0.2,0.1,0.25428203230275515,0.2659807621135332,0.2800000000000001,30,90.0,-90.0,0.05250645500259881,-0.5381787640078485,0.9697239579901885,-0.44519885391431047,-0.00013594616127286964,1.0472919835523347,-1.062438865997712
0.45,-1.3877787807814457e-17,0.1,0.48000000000000004,-0.08000000000000002,0.2800000000000001,-90,90.0,-90.0,0.08184671707630395,0.3483380017229518,0.01574121821160206,0.9475000608278349,0.0018608922404265715,0.6076609317723565,1.917965840678747
0.45,-1.3877787807814457e-17,0.1,0.49968329839687375,-0.06950949475004986,0.2800000000000001,-75,90.0,-90.0,0.07450525678665457,0.33367262440984397,-0.06809714205742247,1.0283874153329335,0.0014789045237123663,0.6106128733081477,1.641158347642044
0.45,-1.3877787807814457e-17,0.1,0.5342820323027551,-0.01401923788646683,0.2800000000000001,-30,90.0,-90.0,0.0589519303789181,0.08430205599040892,-0.2699089684030392,1.1914584408247588,0.0009630190479560855,0.649053958007463,0.6062042255032806
0.45,-1.3877787807814457e-17,0.1,0.5350386374562011,0.0082722511804704,0.28,-15,90.0,-90.0,0.058544523682159136,-0.04977947044688946,-0.27586708209572813,1.1955079650199187,0.00022076795050540536,0.6509035667774576,0.2122364036074318
0.45,-1.3877787807814457e-17,0.1,0.4853553390593274,0.07778174593052024,0.28,45,90.0,-90.0,0.07993037465261026,-0.34790969726701865,-0.005364538185136291,0.9688708195996014,0.001814938669832483,0.6077479127737936,-1.1352811553706545
0.45,-1.3877787807814457e-17,0.1,0.4640192378864668,0.08428203230275509,0.28,60,90.0,-90.0,0.08730046640610484,-0.3430403088010709,0.07452414997163646,0.8857868887174184,0.001538707950994057,0.6106258412124655,-1.392216238695212
0.45,-1.3877787807814457e-17,0.1,0.42,0.08000000000000002,0.2800000000000001,90,90.0,-90.0,0.10032905423840535,-0.27828765570514197,0.20953778479747864,0.7285041650584537,0.0012685133508208483,0.6324911796248366,-1.8492397241645586
0.30000000000000004,-0.1,0.1,0.33000000000000007,-0.18,0.2800000000000001,-90,90.0,-90.0,0.0844995919071589,0.4526770459324471,0.5805308641683117,0.2039359407107577,0.000555694621654134,0.7851252897341748,2.0223841934934987
0.30000000000000004,-0.1,0.1,0.3496832983968738,-0.16950949475004984,0.2800000000000001,-75,90.0,-90.0,0.08840638498871206,0.4506571213060937,0.5115420690877539,0.3100556862683567,0.0006674988240888526,0.7482533533600033,1.759419787908623
0.30000000000000004,-0.1,0.1,0.3777817459305203,-0.13535533905932737,0.28,-45,90.0,-90.0,0.09416130792733192,0.39770695364270414,0.39078776543606686,0.4873266172416579,0.0006535897196343853,0.6927446362012886,1.1820156341643244
0.30000000000000004,-0.1,0.1,0.38428203230275515,-0.11401923788646683,0.2800000000000001,-30,90.0,-90.0,0.09584560427714668,0.346306203375757,0.34783440455770065,0.5467765975544794,0.0013872801946295296,0.6760699305056076,0.8692536698363513
0.30000000000000004,-0.1,0.1,0.38503863745620115,-0.0917277488195296,0.28,-15,90.0,-90.0,0.09669344923795103,0.2832235490856681,0.32441372151287173,0.5788799240921109,0.000355228859286064,0.6664429973940406,0.5442666814995095
0.30000000000000004,-0.1,0.1,0.38000000000000006,-0.06999999999999998,0.2800000000000001,0,90.0,-90.0,0.09673305161835548,0.21532452054804319,0.3237351431371864,0.5803852645001213,0.0006163105590349814,0.6672720482870352,0.21561340104077092
0.30000000000000004,-0.1,0.1,0.3695094947500499,-0.050316701603126276,0.28,15,90.0,-90.0,0.09599295981671235,0.15098726093683826,0.3443159870887035,0.5521566570527813,0.001354512064415367,0.6744752655455217,-0.11164620424419786
0.30000000000000004,-0.1,0.1,0.3542820323027551,-0.03401923788646681,0.2800000000000001,30,90.0,-90.0,0.09443218454463316,0.09784875629841662,0.3840826172577198,0.4963241289338972,0.0010361856892166447,0.6909416714785332,-0.4275081449814996
0.30000000000000004,-0.1,0.1,0.3353553390593274,-0.022218254069479748,0.28,45,90.0,-90.0,0.09203323648270634,0.06075829309990704,0.43891566997207165,0.4178073018231528,0.0005718636104677466,0.7147475846481911,-0.7248461042381994
0.30000000000000004,-0.1,0.1,0.2917277488195296,-0.014961362543798915,0.2800000000000001,75,90.0,-90.0,0.08501697865533801,0.0367444321928873,0.5717558734173966,0.21729737599009508,-0.0003325182044625232,0.7824603885988215,-1.2712531703308898
0.30000000000000004,-0.1,0.1,0.27,-0.019999999999999976,0.2800000000000001,90,90.0,-90.0,0.08068791465444483,0.04614561364655525,0.6413107251521711,0.10762246623760206,0.0011402718823033096,0.8209637305995627,-1.5262980311685925
0.45,0.0,0.1,0.49968329839687375,-0.06950949475004985,0.2800000000000001,-75,90.0,-90.0,0.07445195446714525,0.3335945590585343,-0.06829189243652906,1.0287745361639682,0.0015967717680811242,0.6100950313362644,-4.641230367868387
0.45,0.0,0.1,0.5159807621135332,-0.05428203230275507,0.28,-60,90.0,-90.0,0.06758165697290996,0.2869446016447087,-0.15216598989222763,1.1019615082684036,-0.0011360460292231098,0.620215446403299,-4.948465900621921
0.45,0.0,0.1,0.5277817459305203,-0.03535533905932736,0.28,-45,90.0,-90.0,0.06214288487278616,0.2027526904983697,-0.22441960304939462,1.1584131314583315,-0.0001535141513823758,0.6355933799305316,-5.294573984794072
0.45,0.0,0.1,0.5350386374562011,0.008272251180470414,0.28,-15,90.0,-90.0,0.058631465851432356,-0.05056469148464112,-0.275344858373593,1.1950777967589505,0.001912531066485535,0.6518262964490821,-6.073233308060298
0.45,0.0,0.1,0.4853553390593274,0.07778174593052026,0.28,45,90.0,-90.0,0.07997670535752989,-0.34728728938334985,-0.005444341617452525,0.9689475872024622,-0.0010562042726375161,0.6081911378949004,-1.1312697315075815
0.45,0.0,0.1,0.42,0.08000000000000003,0.2800000000000001,90,90.0,-90.0,0.10035006899879056,-0.2782147841140731,0.20928711074588718,0.7286527710528802,-0.0002866135107746459,0.6330123846599706,-1.8479381176864915
0.4,0.1,0.1,0.44968329839687377,0.03049050524995016,0.2800000000000001,-75,90.0,-90.0,0.08622598344428087,-0.12147459268296282,0.07990329719038365,0.8795095853241156,0.0011782309482237935,0.6119851569191574,1.1870610142352027
0.4,0.1,0.1,0.47778174593052025,0.06464466094067264,0.28,-45,90.0,-90.0,0.07930502345574077,-0.2835076309597003,0.006213779121670747,0.9574077355533323,0.0022601675440615827,0.6074541253230378,0.5008641473788054
0.4,0.1,0.1,0.4842820323027551,0.08598076211353319,0.2800000000000001,-30,90.0,-90.0,0.07947756025623105,-0.37938739919275827,0.00882192841713603,0.9544514568491697,0.001355997148609509,0.6067227413894615,0.1423244760756538
0.4,0.1,0.1,0.4850386374562011,0.10827225118047042,0.28,-15,90.0,-90.0,0.08236847919697617,-0.46703427384084306,0.03948577453690823,0.9227978524286334,0.0014805380927237028,0.6086711743653077,-0.20700095012564687
0.4,0.1,0.1,0.48000000000000004,0.13000000000000003,0.2800000000000001,0,90.0,-90.0,0.08731626630189394,-0.5338133501122284,0.09178270386690224,0.8665697357284056,-0.0002455598972071057,0.6126874488400126,-0.5337178950447056
0.4,0.1,0.1,0.4695094947500499,0.14968329839687372,0.28,15,90.0,-90.0,0.09359204999468543,-0.5759716134172552,0.1565249568116491,0.7926768360111195,0.0010244419815053061,0.6212066158919767,-0.8391319671077826
0.4,0.1,0.1,0.4353553390593274,0.17778174593052026,0.28,45,90.0,-90.0,0.09915661496904514,-0.5918678479811024,0.2964328402353035,0.6169231123882518,0.001094417063873588,0.6572194674931557,-1.3776082689691538
0.4,0.1,0.1,0.3917277488195296,0.18503863745620108,0.2800000000000001,75,90.0,-90.0,0.09474331997983854,-0.540838252446161,0.4210331793714802,0.44371159801728877,0.0004997211423677974,0.7068461834999915,-1.8509486788485117
0.45,0.10000000000000002,0.1,0.48000000000000004,0.020000000000000018,0.2800000000000001,-90,90.0,-90.0,0.0769909073683377,-0.09059391018149968,-0.03362036557836969,0.9960714461988586,-0.00023425461383365208,0.6080585959856173,1.4796080560509213
0.45,0.10000000000000002,0.1,0.53,0.13000000000000006,0.2800000000000001,0,90.0,-90.0,0.07476888082909042,-0.6528170770281762,-0.06022071677180737,1.0211823942940372,-0.00021644749590987635,0.6104400077516158,-0.6533901288665143
0.5,-0.10000000000000002,0.1,0.53,-0.18000000000000002,0.2800000000000001,-90,90.0,-90.0,0.0868468486721212,0.8139902892848947,0.06359503361206714,0.8971020362267145,0.0018910494110356468,0.6100286815551245,2.3823807097303775
0.5,-0.10000000000000002,0.1,0.5842820323027551,-0.11401923788646684,0.2800000000000001,-30,90.0,-90.0,0.058152580991531824,0.7778597995860971,-0.2895250964227082,1.2048878124516502,0.0004285983116773754,0.6550746822370038,1.3019211411871765
0.5,-0.10000000000000002,0.1,0.5140192378864669,-0.015717967697244914,0.28,60,90.0,-90.0,0.06644703719160139,0.08380467729144779,-0.17437623403586988,1.1199446416290302,0.0005059867543715153,0.6253686623187678,-0.9636868040193297
0.15000000000000008,0.10000000000000002,0.1,0.19968329839687382,0.030490505249950173,0.2800000000000001,-75,90.0,-90.0,0.058932259788190174,-0.060894046999006926,0.8933338831073275,-0.3123257815254146,0.0002635486567705493,0.9895288089852282,1.2487785525660744
0.15000000000000008,0.10000000000000002,0.1,0.21598076211353326,0.04571796769724495,0.28,-60,90.0,-90.0,0.06382554174055104,-0.09440184890874036,0.8343479146116644,-0.2111359195865778,0.0014706236520680492,0.9475355878854503,0.9526514596853892
0.15000000000000008,0.10000000000000002,0.1,0.23503863745620118,0.10827225118047043,0.28,-15,90.0,-90.0,0.06638155390749044,-0.22882627823475546,0.801799735333609,-0.15654272344402542,0.0009285560671880425,0.9264284766746256,0.03254450798628413
0.15000000000000008,0.10000000000000002,0.1,0.21950949475004994,0.14968329839687375,0.28,15,90.0,-90.0,0.05819957806777271,-0.3020644185725527,0.9017920265024432,-0.3271559047079199,0.0005342672672433153,0.9970385360258489,-0.5632490737119555
0.15000000000000008,0.10000000000000002,0.1,0.18535533905932744,0.17778174593052026,0.28,45,90.0,-90.0,0.039875545279602034,-0.33278282110933494,1.0987809337878462,-0.6738393660746594,0.0003512548468087662,1.1456283640421023,-1.1191117839779607
0.4,-0.2,0.1,0.43000000000000005,-0.28,0.2800000000000001,-90,90.0,-90.0,0.08948979271971011,0.8034904195849489,0.5108232880385805,0.3111708670019705,0.00027554588527987423,0.7477279119988216,-3.908374233426617
0.4,-0.2,0.1,0.44968329839687377,-0.26950949475004987,0.2800000000000001,-75,90.0,-90.0,0.0927368515689476,0.822271601464627,0.44611470418473365,0.40745901615647995,0.001141887621393952,0.7166015738188807,-4.151903858253164
0.4,-0.2,0.1,0.4842820323027551,-0.21401923788646682,0.2800000000000001,-30,90.0,-90.0,0.09929583334410462,0.7813457390032373,0.24975775179972906,0.6778261896751362,0.0009416229773883534,0.6425071514823443,-4.978232593888699
0.4,-0.2,0.1,0.4695094947500499,-0.15031670160312627,0.28,15,90.0,-90.0,0.09240254734176694,0.5778777361275207,0.1574080006759674,0.7916085456252049,0.0006619632202968235,0.6221211726083062,-5.966746938358213
0.4,-0.2,0.1,0.4542820323027551,-0.1340192378864668,0.2800000000000001,30,90.0,-90.0,0.09379332515732096,0.4990635548780199,0.17253890353319262,0.7736372550207546,0.000736885862984444,0.6236490108979402,-6.307328681796516
0.4,-0.2,0.1,0.3917277488195296,-0.11496136254379892,0.2800000000000001,75,90.0,-90.0,0.0974876286419641,0.35666823907306544,0.32749559234397524,0.5746566111786524,0.0016558904552136495,0.6686386061655527,5.328643494514971
0.4,-0.10000000000000002,0.1,0.44968329839687377,-0.16950949475004987,0.2800000000000001,-75,90.0,-90.0,0.09994381868792135,0.5950124431211751,0.24456120833002432,0.6843497897168599,1.1052537355641671e-05,0.640941805609322,1.904508556788105
0.4,-0.10000000000000002,0.1,0.46598076211353323,-0.15428203230275508,0.28,-60,90.0,-90.0,0.095303570236536,0.5828704638260568,0.1739924380758368,0.7717686077354741,0.0011270506086514416,0.6240700096687145,1.6293759395366614
0.4,-0.10000000000000002,0.1,0.4850386374562011,-0.09172774881952961,0.28,-15,90.0,-90.0,0.0799195252855564,0.40342343813090054,0.013753866717781997,0.9492940068652389,-0.00017635997187947887,0.6066701036037571,0.6651709565864992
0.4,-0.10000000000000002,0.1,0.4695094947500499,-0.05031670160312629,0.28,15,90.0,-90.0,0.08082844674740938,0.21490945453900295,0.022599849384688515,0.9404892757700513,0.001665101853385989,0.6082529128749073,-0.04816585914346236
0.4,-0.10000000000000002,0.1,0.4542820323027551,-0.034019237886466824,0.2800000000000001,30,90.0,-90.0,0.08467835644978823,0.13772761201832853,0.06520696069628748,0.895652869868111,0.0009478643404174532,0.6090787957652676,-0.3868262099217995
0.4,-0.10000000000000002,0.1,0.37,-0.01999999999999999,0.2800000000000001,90,90.0,-90.0,0.0981255117668545,0.060392426686314137,0.3325617484109921,0.5678410077380308,0.0012047784378319414,0.6706935879163541,-1.5106903427091474
0.35000000000000003,0.05,0.1,0.38000000000000006,-0.03,0.2800000000000001,-90,90.0,-90.0,0.09830101856600242,0.09344879760507108,0.30462183800567444,0.6061038817700914,0.0009752268111443299,0.6600584483589964,1.6636485285703497
0.35000000000000003,0.05,0.1,0.3996832983968738,-0.019509494750049844,0.2800000000000001,-75,90.0,-90.0,0.09938450960554462,0.0650535413560823,0.24015331436758466,0.6901071000132628,-0.0011908369460180632,0.6394217038155104,1.3756203534700668
0.35000000000000003,0.05,0.1,0.4159807621135332,-0.004282032302755069,0.28,-60,90.0,-90.0,0.09539384450237565,0.014874558174030985,0.1863785916989416,0.7568758750131167,-5.126555774523176e-05,0.6264427450242546,1.062697697889487
0.35000000000000003,0.05,0.1,0.42778174593052026,0.01464466094067264,0.28,-45,90.0,-90.0,0.09162662803618848,-0.05394787975808626,0.14888252185494807,0.8016499410967449,0.00015336592978051683,0.6190579975582485,0.7304713170928191
0.35000000000000003,0.05,0.1,0.4195094947500499,0.09968329839687373,0.28,15,90.0,-90.0,0.09924173544042975,-0.3413238952693459,0.23033916689394734,0.7021940455743758,0.00010298646739154972,0.6390149459237675,-0.6024687625544819
0.35000000000000003,0.05,0.1,0.3417277488195296,0.1350386374562011,0.2800000000000001,75,90.0,-90.0,0.0906177708525841,-0.36055618672897066,0.4921566446206549,0.3392706219184042,0.001309809875601113,0.7394356934497888,-1.6709239356315775
0.4,-1.3877787807814457e-17,0.1,0.43000000000000005,-0.08000000000000002,0.2800000000000001,-90,90.0,-90.0,0.09625697993772499,0.2883039457496862,0.17848591890109058,0.7662358332958309,0.00018716678389509196,0.6256317236212374,1.8580253532303324
0.4,-1.3877787807814457e-17,0.1,0.4850386374562011,0.0082722511804704,0.28,-15,90.0,-90.0,0.07439174206793993,-0.03884521821105595,-0.05536041920986765,1.0170433730430701,0.0010025372926668517,0.6099877616056678,0.22210302220871508
0.4,-1.3877787807814457e-17,0.1,0.48000000000000004,0.03000000000000002,0.2800000000000001,0,90.0,-90.0,0.07658217674870828,-0.13549394099153103,-0.029293726147782386,0.9920401684708111,0.0010023855519398067,0.6077513503656511,-0.1357078391077593
0.4,-1.3877787807814457e-17,0.1,0.4542820323027551,0.06598076211353318,0.2800000000000001,30,90.0,-90.0,0.08736200318738792,-0.2629003555186887,0.08749905500146823,0.8710630717978911,0.0018130959475755482,0.6124259194133608,-0.7873348124248006
0.4,-1.3877787807814457e-17,0.1,0.4353553390593274,0.07778174593052024,0.28,45,90.0,-90.0,0.09452962215246143,-0.2857300495760987,0.15968475684844655,0.7884051587025299,-0.0006487678596860059,0.6234345700308485,-1.0713372661550835
0.15000000000000008,0.05000000000000002,0.1,0.1800000000000001,-0.029999999999999985,0.2800000000000001,-90,90.0,-90.0,0.051617932844058974,0.05767884987903714,0.9773847228302994,-0.4582796321113492,-0.0002642227858259013,1.0510660404257224,-4.654384590299988
0.15000000000000008,0.05000000000000002,0.1,0.19968329839687382,-0.01950949475004983,0.2800000000000001,-75,90.0,-90.0,0.05926333432663398,0.03918754082915886,0.8908138288747324,-0.3078275193267609,-0.0006562469789440323,0.9868873735303845,-4.935117359497758
0.15000000000000008,0.05000000000000002,0.1,0.2277817459305203,0.014644660940672655,0.28,-45,90.0,-90.0,0.0679168517782674,-0.03099920766390623,0.78343385938532,-0.12563015429089228,0.0003836734787876164,0.9122603447087783,-5.528374192088346
0.15000000000000008,0.05000000000000002,0.1,0.23428203230275518,0.035980762113533196,0.2800000000000001,-30,90.0,-90.0,0.06930066761339156,-0.0771961871096716,0.7652297281607525,-0.09502081443485577,0.0012277483537443108,0.9008391807439982,-5.836882554787607
0.15000000000000008,0.05000000000000002,0.1,0.23503863745620118,0.05827225118047043,0.28,-15,90.0,-90.0,0.06888697858924578,-0.12467444802514308,0.7708296226723059,-0.10421755116307108,0.00014155604334427688,0.9050546492670746,-6.146020398384738
0.15000000000000008,0.05000000000000002,0.1,0.1640192378864669,0.13428203230275512,0.28,60,90.0,-90.0,0.0348016175506899,-0.24556135311368057,1.1493866362979859,-0.7648976516338875,0.000901236389625929,1.1859641405802703,-1.2931523358530257
0.45,-0.2,0.1,0.48000000000000004,-0.28,0.2800000000000001,-90,90.0,-90.0,0.09511709365719344,0.9045596328645608,0.410548016801647,0.4590108521021371,0.00035926449211655907,0.7005257669199286,2.4752745262537337
0.45,-0.2,0.1,0.49968329839687375,-0.26950949475004987,0.2800000000000001,-75,90.0,-90.0,0.09753497028537839,0.9317146689256637,0.34811139759304427,0.5467660646577047,0.00013719596858180016,0.6747590834901572,2.2398175196537595
0.45,-0.2,0.1,0.5342820323027551,-0.21401923788646682,0.2800000000000001,-30,90.0,-90.0,0.09216881999864031,0.9118284868451811,0.14255468483866196,0.8087986509286332,0.0007937442571831324,0.619524010305131,1.4352436060247324
0.45,-0.2,0.1,0.53,-0.16999999999999998,0.2800000000000001,0,90.0,-90.0,0.08213245469520379,0.7851797132890264,0.03856511758887979,0.9237281344485633,0.0010024540913878234,0.6080901526217237,0.7852060309780785
0.45,-0.2,0.1,0.504282032302755,-0.1340192378864668,0.2800000000000001,30,90.0,-90.0,0.08113911973735134,0.6002945151237037,0.02686083059245597,0.9357498038683943,0.0011605599213720503,0.6087383229741936,0.07641116861221361
0.45,-0.2,0.1,0.4853553390593274,-0.12221825406947975,0.28,45,90.0,-90.0,0.08443954036570249,0.5176503489486157,0.06189835336233449,0.8990405262334593,0.0012202554447176773,0.6110599259934896,-0.26892043440862073
0.45,-0.2,0.1,0.4640192378864668,-0.1157179676972449,0.28,60,90.0,-90.0,0.08955795279723121,0.45563416260454065,0.11653107045549733,0.8388808310940878,0.00037942798000762046,0.6151954455335533,-0.5922739044726363
0.45,-0.2,0.1,0.4417277488195296,-0.11496136254379892,0.2800000000000001,75,90.0,-90.0,0.09623016986596952,0.4188498805867654,0.18264668780324,0.7614654391617249,-0.00038298887433472735,0.6279159858768145,-0.890651387806383
0.45,-0.2,0.1,0.42,-0.11999999999999998,0.2800000000000001,90,90.0,-90.0,0.0998605525421071,0.4050197320786112,0.25228690524282366,0.6743769007099953,-0.0004711409180149233,0.6449034571329486,-1.1644790737744348
0.4,0.15000000000000002,0.1,0.4842820323027551,0.13598076211353322,0.2800000000000001,-30,90.0,-90.0,0.08642245417908241,-0.5628146621613823,0.08927996689925527,0.869277805952643,0.0004429152359577076,0.6114745550449562,-0.039633188085267015
0.4,0.15000000000000002,0.1,0.48000000000000004,0.18000000000000005,0.2800000000000001,0,90.0,-90.0,0.09609775987845444,-0.6861331822974951,0.18721766203289275,0.7557609288367471,0.0018502641890413482,0.6275626581021208,-0.6873317490337261
0.4,0.15000000000000002,0.1,0.4542820323027551,0.21598076211353323,0.2800000000000001,30,90.0,-90.0,0.09810837976759094,-0.7212395137706172,0.32204305432933117,0.5822145736354368,0.0011362730934758862,0.6661600072713842,-1.2459806200982904
0.20000000000000007,0.04999999999999999,0.1,0.2300000000000001,-0.030000000000000013,0.2800000000000001,-90,90.0,-90.0,0.06921804211405491,0.0636174261854473,0.778339537450273,-0.11685868413548851,0.0006695049052713138,0.9091256604362384,1.6333567776761204
0.20000000000000007,0.04999999999999999,0.1,0.2659807621135333,-0.004282032302755083,0.28,-60,90.0,-90.0,0.07815067374117038,0.009907716108888203,0.6528512246249778,0.08909510809250494,-0.0005391835534429009,0.8281329182951975,1.0570460024920276
0.20000000000000007,0.04999999999999999,0.1,0.28428203230275517,0.03598076211353317,0.2800000000000001,-30,90.0,-90.0,0.08155392522886099,-0.08638187736104885,0.5991628648017155,0.17431442388804755,0.001240028389895789,0.7975028792289477,0.43663527234071436
0.20000000000000007,0.04999999999999999,0.1,0.2800000000000001,0.08000000000000002,0.2800000000000001,0,90.0,-90.0,0.0794925513407636,-0.1885065043665115,0.6322519086239327,0.12218282681806032,0.0005459894916978687,0.8165253602282502,-0.18793252889807907
0.20000000000000007,0.04999999999999999,0.1,0.23535533905932743,0.12778174593052025,0.28,45,90.0,-90.0,0.06604744042004983,-0.26832079489114535,0.8189748151647481,-0.1850538380768818,-0.0006729353568566041,0.9378491225413871,-1.0530303097193718
0.20000000000000007,0.04999999999999999,0.1,0.19172774881952964,0.1350386374562011,0.2800000000000001,75,90.0,-90.0,0.05009499130396251,-0.25957799068170667,1.0013497027352896,-0.5004364514845133,-0.0010113874359513851,1.0706712140337267,-1.5685423154394222
0.20000000000000007,0.04999999999999999,0.1,0.17000000000000004,0.13,0.2800000000000001,90,90.0,-90.0,0.03975468033014476,-0.24059921172380705,1.1063493969936464,-0.6872859405026174,-7.681817188982115e-05,1.1518939913623505,-1.8118215232253965
0.25000000000000006,0.05000000000000002,0.1,0.2800000000000001,-0.029999999999999985,0.2800000000000001,-90,90.0,-90.0,0.0818027376741747,0.07133476346423938,0.6113166056957852,0.1555015932249671,0.0010287203655435738,0.803183610329298,-4.64161656823719
0.25000000000000006,0.05000000000000002,0.1,0.3277817459305203,0.014644660940672655,0.28,-45,90.0,-90.0,0.0901974084941625,-0.03965332888502722,0.4605316163279409,0.38615279521807316,0.0008960535598181336,0.7246802186986552,-5.537893715039746
0.25000000000000006,0.05000000000000002,0.1,0.33000000000000007,0.08000000000000004,0.2800000000000001,0,90.0,-90.0,0.08927385847406966,-0.21315532096161086,0.47908731512332164,0.35864179287717957,0.001184461286267852,0.7332768402918367,-6.497158001577659
0.25000000000000006,0.05000000000000002,0.1,0.3195094947500499,0.09968329839687375,0.28,15,90.0,-90.0,0.08686975964481201,-0.25624940238617905,0.5246228831768489,0.2898351737774947,0.0008006287197266335,0.757107348913797,-6.800967958912103
0.25000000000000006,0.05000000000000002,0.1,0.30428203230275513,0.11598076211353321,0.2800000000000001,30,90.0,-90.0,0.08347668500798877,-0.2850390537633153,0.5839852371013867,0.19832778436404974,0.0003947841230068521,0.7892480634161896,5.473307541679598
0.25000000000000006,0.05000000000000002,0.1,0.2853553390593274,0.12778174593052027,0.28,45,90.0,-90.0,0.07912685490823279,-0.2991624441695608,0.6530686760240082,0.08895093834502614,0.0009521715191730428,0.8290624016609018,5.1975358345734035
0.25000000000000006,0.05000000000000002,0.1,0.26401923788646686,0.13428203230275512,0.28,60,90.0,-90.0,0.07397115763252586,-0.2987739857719671,0.7271149360498189,-0.031835617997681136,0.0012997135792727522,0.8755080833813322,4.936314827806592
0.25000000000000006,0.05000000000000002,0.1,0.24172774881952963,0.1350386374562011,0.2800000000000001,75,90.0,-90.0,0.06819318921561363,-0.28673698358532984,0.8029807669482695,-0.15833665978796121,0.0010478653071855299,0.9264815343942571,4.6860637915350445
0.20000000000000007,0.15000000000000002,0.1,0.2659807621135333,0.09571796769724494,0.28,-60,90.0,-90.0,0.07543316673073602,-0.21710092019172506,0.6875557637039467,0.032841733560014574,6.47742979271353e-05,0.8501437195645016,0.8292005729142321
0.20000000000000007,0.15000000000000002,0.1,0.28503863745620117,0.15827225118047045,0.28,-15,90.0,-90.0,0.07552685103155803,-0.36445374038788925,0.6864264123282758,0.03497797822178386,0.0011697004894343826,0.849699949931416,-0.10279091369932551
0.30000000000000004,0.0,0.1,0.3777817459305203,-0.03535533905932736,0.28,-45,90.0,-90.0,0.09729030191155523,0.1092826708153791,0.312594592519894,0.5950598872143205,0.0011534544368979123,0.6634134620498006,-5.389137674442058
0.30000000000000004,0.0,0.1,0.3353553390593274,0.07778174593052026,0.28,45,90.0,-90.0,0.09118951460044034,-0.21003898107159738,0.46187802714364945,0.38404800893375657,-0.00015567357096213895,0.7260744872557615,-0.9956118135974568
0.30000000000000004,0.0,0.1,0.2917277488195296,0.08503863745620109,0.2800000000000001,75,90.0,-90.0,0.08363509793248855,-0.20546217745066733,0.5987027171858534,0.17512873672400903,0.0010302152866622325,0.7969286867564852,-1.5144943835689295
0.4,-0.05000000000000002,0.1,0.44968329839687377,-0.11950949475004986,0.2800000000000001,-75,90.0,-90.0,0.09470387261231901,0.44554584365410665,0.16443805168371622,0.7832903208482302,-0.0018350314453900723,0.6224830010310436,-4.526982472213118
0.4,-0.05000000000000002,0.1,0.46598076211353323,-0.1042820323027551,0.28,-60,90.0,-90.0,0.08779908521635002,0.4192918166477599,0.09341695580294063,0.8645946967049091,0.0008768881565584946,0.6125758455997284,-4.816598563031187
0.4,-0.05000000000000002,0.1,0.47778174593052025,-0.08535533905932738,0.28,-45,90.0,-90.0,0.08171664150163051,0.36661869410676484,0.02958143362474892,0.9332060542666145,9.017933232012353e-05,0.6072226632186286,-5.130539004473541
0.4,-0.05000000000000002,0.1,0.4695094947500499,-0.0003167016031262876,0.28,15,90.0,-90.0,0.07938729507628357,0.0014228344070331906,0.002504915647236167,0.9608409567932296,0.001091167095573625,0.6084860186673413,-6.543864043651618
0.4,-0.05000000000000002,0.1,0.4353553390593274,0.02778174593052024,0.28,45,90.0,-90.0,0.09106495106800751,-0.10476036796813175,0.12754000600034818,0.8264254828315,0.0006083151940603666,0.6164274734678693,-0.8910228151159187
0.35000000000000003,-0.15000000000000002,0.1,0.3996832983968738,-0.21950949475004988,0.2800000000000001,-75,90.0,-90.0,0.09172155234600138,0.6312436287627838,0.45898849787435064,0.38878408986811425,0.0006292449106881917,0.7217945436651307,1.9390054482325771
0.35000000000000003,-0.15000000000000002,0.1,0.42778174593052026,-0.18535533905932738,0.28,-45,90.0,-90.0,0.09708470092379666,0.5974479030258265,0.32880092857452653,0.573515865789163,0.001454005360107349,0.6680380226021625,1.381069939064733
0.35000000000000003,-0.15000000000000002,0.1,0.43000000000000005,-0.12,0.2800000000000001,0,90.0,-90.0,0.09834098903540162,0.4180749265457629,0.2230970069245399,0.711640134553497,0.0009371429374098442,0.6354356105838741,0.4164466794487043
0.35000000000000003,-0.15000000000000002,0.1,0.36401923788646684,-0.06571796769724492,0.28,60,90.0,-90.0,0.09566898371212527,0.1929190644534615,0.36818084035522447,0.5188661374107609,0.0007353614183794787,0.6827689252449195,-0.8556592225540819
0.15000000000000008,-1.3877787807814457e-17,0.1,0.19968329839687382,-0.06950949475004986,0.2800000000000001,-75,90.0,-90.0,0.05771764796144961,0.13799153586075874,0.9090931735717519,-0.33966023971136056,0.0009515810325697468,1.0009413654141033,1.4465646810807402
0.15000000000000008,-1.3877787807814457e-17,0.1,0.21598076211353326,-0.054282032302755086,0.28,-60,90.0,-90.0,0.06368633203660538,0.11159325461479616,0.8379069850849692,-0.21727674268181973,0.0003434566621879603,0.9494095533112662,1.1586139448507646
0.15000000000000008,-1.3877787807814457e-17,0.1,0.2277817459305203,-0.035355339059327376,0.28,-45,90.0,-90.0,0.06760904167147837,0.07455994272132122,0.7880694074929349,-0.13320045540504463,0.0008841055774377396,0.915951466176626,0.8585814960680526
0.15000000000000008,-1.3877787807814457e-17,0.1,0.23428203230275518,-0.01401923788646683,0.2800000000000001,-30,90.0,-90.0,0.06970019812003464,0.029972465920184876,0.7604632063945707,-0.08703516802847085,0.0003256609068031072,0.8964932103018478,0.5542990711564247
0.15000000000000008,-1.3877787807814457e-17,0.1,0.2300000000000001,0.03000000000000002,0.2800000000000001,0,90.0,-90.0,0.068357168115596,-0.06391398566786119,0.778165443270538,-0.11686228412630884,0.0008266245446347752,0.9089857111629291,-0.06465957703446949
0.15000000000000008,-1.3877787807814457e-17,0.1,0.21950949475004994,0.049683298396873715,0.28,15,90.0,-90.0,0.06489141882820551,-0.1030372879091306,0.8228321984943114,-0.19193336621324114,0.0005221677743376918,0.9410521325880408,-0.36586920014929464
0.15000000000000008,-1.3877787807814457e-17,0.1,0.20428203230275516,0.06598076211353318,0.2800000000000001,30,90.0,-90.0,0.05948404745524912,-0.13252947210302385,0.888702178031578,-0.30415677389840856,0.0008276056577960544,0.986626532075799,-0.6556618729641701
0.15000000000000008,-1.3877787807814457e-17,0.1,0.1640192378864669,0.08428203230275509,0.28,60,90.0,-90.0,0.041101863979809194,-0.15617809279180817,1.087550767316903,-0.6537582560086143,0.0012404000437940287,1.137333070953453,-1.2046743197288123
0.30000000000000004,-0.10000000000000002,0.1,0.33000000000000007,-0.18000000000000002,0.2800000000000001,-90,90.0,-90.0,0.08448245606354494,0.45272614118414994,0.5806472783904183,0.2033427179262668,-0.00019421853085064395,0.7859961907040531,-4.258557045494874
0.30000000000000004,-0.10000000000000002,0.1,0.3777817459305203,-0.1353553390593274,0.28,-45,90.0,-90.0,0.0941784722671858,0.3979599906672457,0.39041410376014873,0.4877626567319844,-0.0010660430038855165,0.6918741474106846,-5.098763174823161
0.30000000000000004,-0.10000000000000002,0.1,0.38000000000000006,-0.06999999999999998,0.2800000000000001,0,90.0,-90.0,0.09673935355107255,0.2149635863127011,0.32340643059517904,0.5805751531096026,0.0009964367970945948,0.6674784661089703,-6.06829191964358
0.30000000000000004,-0.10000000000000002,0.1,0.3695094947500499,-0.05031670160312629,0.28,15,90.0,-90.0,0.09600685492025418,0.15078943157499564,0.3437535297979306,0.5525527610766093,0.001392831619769317,0.6750617998163418,-6.394901263862407
0.30000000000000004,-0.10000000000000002,0.1,0.3353553390593274,-0.022218254069479762,0.28,45,90.0,-90.0,0.09205261712219427,0.060668080204775036,0.43880262550046484,0.4183989408131087,0.0017659650804023482,0.713331248723603,-0.7257548604832741
0.30000000000000004,-0.10000000000000002,0.1,0.2917277488195296,-0.014961362543798928,0.2800000000000001,75,90.0,-90.0,0.08502191838295371,0.03651588304952682,0.5720183490284035,0.21736312447777795,0.0012945433884602347,0.7820092501602081,-1.2730693736135947
0.35000000000000003,-1.3877787807814457e-17,0.1,0.38000000000000006,-0.08000000000000002,0.2800000000000001,-90,90.0,-90.0,0.09759218581883057,0.2448046270727487,0.3300368081023862,0.5715678905552505,0.000964253266259781,0.6686644104547629,1.8140380327416519
0.35000000000000003,-1.3877787807814457e-17,0.1,0.4159807621135332,-0.054282032302755086,0.28,-60,90.0,-90.0,0.09709985183116474,0.18926874634346982,0.202472766838241,0.736926095094058,-0.0007388368370032781,0.6302299573049457,1.2370912957501603
0.35000000000000003,-1.3877787807814457e-17,0.1,0.42778174593052026,-0.035355339059327376,0.28,-45,90.0,-90.0,0.09234616131536948,0.12910400951791448,0.15508149820816736,0.7943814740387543,-0.00011708154232952912,0.620019483764653,0.9147839183397994
0.35000000000000003,-1.3877787807814457e-17,0.1,0.3853553390593274,0.07778174593052024,0.28,45,90.0,-90.0,0.09812564674713774,-0.2421896321717856,0.312732166087964,0.594697185895286,0.0002014368667161441,0.6638566997527454,-1.0273051963307296
0.35000000000000003,-1.3877787807814457e-17,0.1,0.36401923788646684,0.08428203230275509,0.28,60,90.0,-90.0,0.09575553490061597,-0.24614674971447442,0.38125035801756935,0.5005694422913234,0.0016860148491609167,0.6893261812773812,-1.2940928774478841
0.35000000000000003,0.10000000000000002,0.1,0.38000000000000006,0.020000000000000018,0.2800000000000001,-90,90.0,-90.0,0.09819505849898062,-0.062483081839830326,0.3020264546568774,0.6095582214844506,0.001378311556218361,0.6590820298055728,1.5069094394525953
0.35000000000000003,0.10000000000000002,0.1,0.4159807621135332,0.04571796769724495,0.28,-60,90.0,-90.0,0.09637769083259744,-0.15958346794441935,0.19800391630149672,0.7423716065421591,0.00044950406070322054,0.6304685781492982,0.8862834166761715
0.35000000000000003,0.10000000000000002,0.1,0.3853553390593274,0.17778174593052026,0.28,45,90.0,-90.0,0.09355459577905352,-0.5142427685270096,0.42684791118869514,0.4354230351170563,-0.0005192999632042724,0.7091096227253993,-1.3001371735934661
0.35000000000000003,0.10000000000000002,0.1,0.32,0.18000000000000005,0.2800000000000001,90,90.0,-90.0,0.08364908668688846,-0.44254602566929,0.6098647436851576,0.15788289920098472,0.0006244144724586984,0.8031152844471127,-2.0129744246673855
0.30000000000000004,-0.05,0.1,0.36598076211353325,-0.10428203230275507,0.28,-60,90.0,-90.0,0.09430333510922168,0.30250440384816596,0.39159034375962853,0.4860810097513423,-0.00015244054464231733,0.6924589423973174,1.3491665540815447
0.30000000000000004,-0.05,0.1,0.3777817459305203,-0.08535533905932736,0.28,-45,90.0,-90.0,0.09626086611678608,0.258733378080059,0.3408502974640341,0.5564363040028873,0.0020753101413040877,0.6732680283170691,1.0432666723507051
0.30000000000000004,-0.05,0.1,0.38428203230275515,-0.06401923788646682,0.2800000000000001,-30,90.0,-90.0,0.09745131526436879,0.19989123009585635,0.3063068321938658,0.6037056543204096,-0.0003585643886408871,0.660045599447391,0.7228087748389884
0.30000000000000004,-0.05,0.1,0.31401923788646685,0.0342820323027551,0.28,60,90.0,-90.0,0.08885467913038288,-0.08857966987482209,0.5068280653079189,0.31728456365818597,0.0002114708696110113,0.7475859746242262,-1.1352570544532081
0.30000000000000004,-0.05,0.1,0.2917277488195296,0.03503863745620109,0.2800000000000001,75,90.0,-90.0,0.08494719986719766,-0.08540052017521828,0.5761302770584045,0.21062771450067147,-0.00102800206508773,0.7850150507477344,-1.3941266842184379
0.30000000000000004,-0.05,0.1,0.27,0.030000000000000027,0.2800000000000001,90,90.0,-90.0,0.080713057223048,-0.06966303867259528,0.6438399570837212,0.10383106786411536,-0.0008072032050542129,0.8239637156158481,-1.6406569150581247
0.10000000000000007,0.04999999999999999,0.1,0.16598076211353324,-0.004282032302755083,0.28,-60,90.0,-90.0,0.044957455629493694,0.007885502052438077,1.04123285517938,-0.5711902783876933,-0.0003866941754413817,1.1001643007439728,1.0552439211625984
0.10000000000000007,0.04999999999999999,0.1,0.17778174593052032,0.014644660940672627,0.28,-45,90.0,-90.0,0.05019615199886445,-0.028277132103632245,0.9849997770997716,-0.4718075706375524,0.0013939584977648034,1.0574929305228562,0.7565184414551307
0.10000000000000007,0.04999999999999999,0.1,0.18000000000000008,0.08000000000000002,0.2800000000000001,0,90.0,-90.0,0.04863625952566723,-0.1527729980957679,1.0020031310840039,-0.5017525111477237,0.001224657843622472,1.0699304137417027,-0.15331030205463986
0.25000000000000006,0.10000000000000002,0.1,0.3159807621135332,0.04571796769724495,0.28,-60,90.0,-90.0,0.08782683327803324,-0.11854435530142696,0.5036887181650722,0.3215315361926425,-0.00045189785800755995,0.7443442234313435,0.929675988613679
0.25000000000000006,0.10000000000000002,0.1,0.3277817459305203,0.06464466094067266,0.28,-45,90.0,-90.0,0.08924793735235356,-0.17200224713936016,0.4764644036108783,0.362727728042341,0.0008241240501934636,0.7306520929741651,0.6132312932450874
0.25000000000000006,0.10000000000000002,0.1,0.33503863745620116,0.10827225118047043,0.28,-15,90.0,-90.0,0.08877047743556775,-0.28826382113131666,0.48569742091881996,0.34868153695291576,0.0003287354619351565,0.7373619837426725,-0.02630041662925882
0.25000000000000006,0.10000000000000002,0.1,0.33000000000000007,0.13000000000000006,0.2800000000000001,0,90.0,-90.0,0.08693266396609206,-0.3380737886037129,0.5205562686262105,0.29621250110812375,0.0009468039054335019,0.7536776699444222,-0.3378457447910076
0.25000000000000006,0.10000000000000002,0.1,0.3195094947500499,0.14968329839687375,0.28,15,90.0,-90.0,0.0839710354740102,-0.37505551910035634,0.5728764776059213,0.21567637649956378,0.0015688994600979163,0.7822925938905004,-0.6384414428306142
0.25000000000000006,0.10000000000000002,0.1,0.30428203230275513,0.16598076211353321,0.2800000000000001,30,90.0,-90.0,0.07998505437367016,-0.397295301206068,0.6372478975426074,0.11388977086388898,0.0006074056576946327,0.8203762744258066,-0.9220013005818939
0.25000000000000006,-0.05,0.1,0.2996832983968738,-0.11950949475004985,0.2800000000000001,-75,90.0,-90.0,0.08244642320161373,0.2898745897738448,0.6009908951814479,0.17189276113070515,0.00047210750810832455,0.7973698081581716,1.5984568873166531
0.25000000000000006,-0.05,0.1,0.33428203230275516,-0.06401923788646682,0.2800000000000001,-30,90.0,-90.0,0.09037067672516971,0.17319976362850714,0.456825538415694,0.39145018995778513,0.0012507088568840113,0.7226655311821458,0.6949608131236027
0.25000000000000006,-0.05,0.1,0.33503863745620116,-0.04172774881952959,0.28,-15,90.0,-90.0,0.0909708867322927,0.11369007816190452,0.4445441310769221,0.40962440748604534,0.0013909530668318936,0.7167460942746072,0.37473107255076094
0.25000000000000006,-0.05,0.1,0.33000000000000007,-0.01999999999999997,0.2800000000000001,0,90.0,-90.0,0.0905007506550029,0.05385268038394182,0.454395366659048,0.3953326401280271,0.0005949134354521685,0.7204724708433083,0.05418532336252065
0.4,0.0,0.1,0.43000000000000005,-0.08,0.2800000000000001,-90,90.0,-90.0,0.09620745685518803,0.28769543248993246,0.17836748323832993,0.7666880931887616,0.000996980498599099,0.6250701908514605,1.8580724358254754
0.4,0.0,0.1,0.44968329839687377,-0.06950949475004985,0.2800000000000001,-75,90.0,-90.0,0.08909735013848769,0.2705736078446094,0.10595230981534319,0.8507020538611791,0.0012579602744397086,0.6137154840427181,1.5782706880272233
0.4,0.0,0.1,0.4842820323027551,-0.014019237886466817,0.2800000000000001,-30,90.0,-90.0,0.07469115673040642,0.06449516740059273,-0.05162292394310755,1.0134563723498569,0.0008963148676389732,0.6093974448425787,0.586422291438025
0.4,0.0,0.1,0.4695094947500499,0.04968329839687373,0.28,15,90.0,-90.0,0.08120461256872585,-0.21256425324884648,0.021919901513631372,0.9410125055389831,0.0010448633433047037,0.6080719571509486,-0.4748715864499636
0.4,0.0,0.1,0.4542820323027551,0.0659807621135332,0.2800000000000001,30,90.0,-90.0,0.08741335577035862,-0.26234939492624954,0.08751933140527618,0.87086412221665,-0.00024854933910109663,0.6128500804320468,-0.7848503960890243
0.45,0.04999999999999999,0.1,0.48000000000000004,-0.030000000000000013,0.2800000000000001,-90,90.0,-90.0,0.07763108105432898,0.13539129208413583,-0.02995088986672536,0.9924383234659917,0.0013171436847526832,0.6076880313539382,1.7050629002715694
0.45,0.04999999999999999,0.1,0.49968329839687375,-0.019509494750049858,0.2800000000000001,-75,90.0,-90.0,0.070722527307024,0.096538479642029,-0.1118058665232547,1.067826212007188,0.001687102420154738,0.614435266393885,1.404957753848933
0.45,0.04999999999999999,0.1,0.5277817459305203,0.014644660940672627,0.28,-45,90.0,-90.0,0.06109249949927281,-0.08545451418503873,-0.2380169537992664,1.1688136851235287,0.0015361713344825638,0.6400686312473498,0.6989102220254204
0.45,0.2,0.1,0.5159807621135332,0.14571796769724493,0.28,-60,90.0,-90.0,0.08026227893991916,-0.670160174582691,0.017617801653627682,0.9454666928316179,0.0020271467752397366,0.6080430293701521,0.37561089795511543
0.45,0.2,0.1,0.5277817459305203,0.16464466094067265,0.28,-45,90.0,-90.0,0.0814223521184953,-0.7630313887260556,0.03090039833440713,0.9318597222672185,0.0010927356310924884,0.6078154398741077,0.021346041024415462
0.45,0.2,0.1,0.5342820323027551,0.1859807621135332,0.2800000000000001,-30,90.0,-90.0,0.08498638807309274,-0.8432000764381856,0.06906559504124028,0.8916249176960773,0.0002716102167013492,0.6100063488222526,-0.31948928434743684
0.45,0.2,0.1,0.53,0.23000000000000004,0.2800000000000001,0,90.0,-90.0,0.0972552826984508,-0.9341071605226026,0.19321140522467994,0.7483674505285242,-0.0005282225557811047,0.6302436664873118,-0.933356842111158
0.45,0.2,0.1,0.4640192378864668,0.2842820323027551,0.28,60,90.0,-90.0,0.09327844331616013,-0.8778439340268962,0.451156696093464,0.39964168858594745,-0.0005299666850890226,0.7203167132179651,-1.9245176104947193
0.10000000000000007,0.15000000000000002,0.1,0.1496832983968738,0.08049050524995018,0.2800000000000001,-75,90.0,-90.0,0.031621377112242624,-0.14528005077367148,1.1741265032989994,-0.8093544673655853,-0.0005455198525341212,1.204951126650276,-5.119846918998812
0.10000000000000007,0.15000000000000002,0.1,0.16598076211353324,0.09571796769724494,0.28,-60,90.0,-90.0,0.04026726067567847,-0.17750310907386385,1.0879501839000814,-0.6541490953825152,0.001151852859951109,1.1368285248875158,-5.414679809758866
0.10000000000000007,0.15000000000000002,0.1,0.18503863745620117,0.15827225118047045,0.28,-15,90.0,-90.0,0.04237257164729882,-0.2983036631570863,1.066061318149265,-0.6154102413457627,0.0010926996105503984,1.119189936542439,-6.319160001937545
0.10000000000000007,0.15000000000000002,0.1,0.18000000000000008,0.18000000000000005,0.2800000000000001,0,90.0,-90.0,0.03563053243051185,-0.33342734623205894,1.1346695579272186,-0.7381575840760509,8.116747228785928e-05,1.174749206715933,-6.616437949343589
0.45,0.05000000000000002,0.1,0.49968329839687375,-0.01950949475004983,0.2800000000000001,-75,90.0,-90.0,0.0707680960693375,0.09689330309361222,-0.11148805141162317,1.0676260072677222,0.0013472814249164858,0.6147448927495666,-4.8775005324897585
0.45,0.05000000000000002,0.1,0.5195094947500498,0.09968329839687375,0.28,15,90.0,-90.0,0.0723503155766749,-0.5050024691370085,-0.09145934952584205,1.050177858608489,0.0016257657016800413,0.6117711445006115,5.515867314708216
0.45,0.05000000000000002,0.1,0.4640192378864668,0.13428203230275512,0.28,60,90.0,-90.0,0.0942371375996445,-0.5176841743743376,0.14556205213495643,0.8052456982450384,0.0012803864750068191,0.6206293540320968,4.7170312163748935
0.45,0.05000000000000002,0.1,0.42,0.13000000000000006,0.2800000000000001,90,90.0,-90.0,0.10074246023334378,-0.4349011301145661,0.26489593388301175,0.6581619480925179,0.0007817552462248483,0.6486733723998552,4.276617605623541
0.30000000000000004,0.04999999999999999,0.1,0.33000000000000007,-0.030000000000000013,0.2800000000000001,-90,90.0,-90.0,0.09140026668507192,0.08105938516707434,0.4564883495080539,0.39242146586702187,-0.0012986138751533067,0.7211350257112277,1.653820180435475
0.30000000000000004,0.04999999999999999,0.1,0.3496832983968738,-0.019509494750049858,0.2800000000000001,-75,90.0,-90.0,0.09416898232612174,0.05566304401203843,0.3946942669625826,0.4816735054675931,0.0009937649856239645,0.6936795149024728,1.3629878295047795
0.30000000000000004,0.04999999999999999,0.1,0.36598076211353325,-0.004282032302755083,0.28,-60,90.0,-90.0,0.09619987392224141,0.012899627237015647,0.3429081702558468,0.5539467510183965,-0.0001519795369805347,0.6733549860726182,1.0595562791643662
0.30000000000000004,0.04999999999999999,0.1,0.38503863745620115,0.0582722511804704,0.28,-15,90.0,-90.0,0.09761641472116105,-0.18309947791148184,0.30108546918044315,0.6106978709318203,0.0010405232966900684,0.6585218514278395,0.07756359260550275
0.30000000000000004,0.04999999999999999,0.1,0.3695094947500499,0.09968329839687372,0.28,15,90.0,-90.0,0.09488167581847481,-0.2930948153511815,0.37752490776811526,0.5059470495978288,0.0009851014322946497,0.6872057388130292,-0.5562212610292759
0.30000000000000004,0.04999999999999999,0.1,0.27,0.13,0.2800000000000001,90,90.0,-90.0,0.07660220855695403,-0.29338637405082413,0.703448042296415,0.0069373247479010205,-0.000615345345886791,0.8609326714625487,-1.8632090149852398
0.4,0.05000000000000002,0.1,0.43000000000000005,-0.029999999999999985,0.2800000000000001,-90,90.0,-90.0,0.09286005887615516,0.11049007915193156,0.14593836923724526,0.8052572782186255,0.0010088368455956293,0.6189287094944177,1.6804596953262212
0.4,0.05000000000000002,0.1,0.44968329839687377,-0.01950949475004983,0.2800000000000001,-75,90.0,-90.0,0.08603140290242801,0.0776649759624719,0.07582850363978971,0.8839136567218039,-0.001092906841825854,0.6100814152309402,1.3878078136314453
0.4,0.05000000000000002,0.1,0.46598076211353323,-0.004282032302755055,0.28,-60,90.0,-90.0,0.08036309704067023,0.018692962409703466,0.015185902225542804,0.9481505475785408,-0.0003675355893377775,0.6063926486630568,1.0666203489911144
0.4,0.05000000000000002,0.1,0.4842820323027551,0.035980762113533196,0.2800000000000001,-30,90.0,-90.0,0.07531412364537991,-0.16528787647075788,-0.04241768106536925,1.0044806967353437,0.0011105594570171742,0.6080467819547711,0.35719471947899284
0.4,0.05000000000000002,0.1,0.4850386374562011,0.05827225118047043,0.28,-15,90.0,-90.0,0.07673675812287635,-0.26519808092418756,-0.026618443585263735,0.9895521052059926,0.0016703355771339936,0.6080999691066141,-0.00508893071190728
0.4,0.05000000000000002,0.1,0.48000000000000004,0.08000000000000004,0.2800000000000001,0,90.0,-90.0,0.08042651529241839,-0.34876182939181766,0.01527131028699542,0.9478266347319804,0.00042603411119267653,0.6071086662324967,-0.34836190277553947
0.25000000000000006,0.25,0.1,0.3159807621135332,0.19571796769724492,0.28,-60,90.0,-90.0,0.07854034385872709,-0.4714798824983539,0.6431708120134408,0.10448908329653205,0.001762116109865978,0.8234620645811275,0.5743811080002161
0.25000000000000006,0.25,0.1,0.3277817459305203,0.21464466094067264,0.28,-45,90.0,-90.0,0.07883627732676993,-0.5233236610723383,0.638627126394118,0.1118208837246205,0.0007779702148694308,0.8194885256105047,0.2616007931483515
0.25000000000000006,0.25,0.1,0.33503863745620116,0.2582722511804704,0.28,-15,90.0,-90.0,0.07497296026021143,-0.6160465852943435,0.6963803822611572,0.018668166409737754,0.0014884584312938186,0.8552811516963318,-0.35540249596905843
0.25000000000000006,0.25,0.1,0.33000000000000007,0.28,0.2800000000000001,0,90.0,-90.0,0.07081986706276232,-0.6478725591773424,0.7540677765534145,-0.07653837911716074,0.0007506358783460291,0.8937469348843216,-0.6486322547118083
0.25000000000000006,1.3877787807814457e-17,0.1,0.2996832983968738,-0.06950949475004983,0.2800000000000001,-75,90.0,-90.0,0.08465489625765786,0.17199552592454148,0.5649049178122583,0.22807827056449292,0.001189886321225791,0.7781309171665758,1.4796585152217316
0.25000000000000006,1.3877787807814457e-17,0.1,0.33503863745620116,0.008272251180470428,0.28,-15,90.0,-90.0,0.09134723609688346,-0.02258467476265553,0.43765132647046645,0.4196482025448514,0.0003686696567783207,0.7129611509315714,0.2398405258673966
0.25000000000000006,1.3877787807814457e-17,0.1,0.30428203230275513,0.06598076211353321,0.2800000000000001,30,90.0,-90.0,0.08558575315473564,-0.16546913811893027,0.5488133128076973,0.2530285459949297,0.000522985460751531,0.7685730387172427,-0.6897657299142279
0.25000000000000006,1.3877787807814457e-17,0.1,0.2853553390593274,0.07778174593052027,0.28,45,90.0,-90.0,0.08169839046394606,-0.18537789595454057,0.6138951777920261,0.15123172681869787,0.0013072391289634985,0.8056243251301549,-0.9726490711357101
0.25000000000000006,1.3877787807814457e-17,0.1,0.26401923788646686,0.08428203230275512,0.28,60,90.0,-90.0,0.07690637362644905,-0.19104411215979983,0.6866897072460237,0.03459189086884631,9.10146012204247e-05,0.8503702788590981,-1.2392323312249554
0.45,0.09999999999999999,0.1,0.48000000000000004,0.01999999999999999,0.2800000000000001,-90,90.0,-90.0,0.07710925049193203,-0.09085606285880908,-0.03355305734875761,0.9959745946672998,0.0015067727760626603,0.6093891746460259,-4.803777032597276
0.45,0.09999999999999999,0.1,0.5159807621135332,0.04571796769724492,0.28,-60,90.0,-90.0,0.06640566872021292,-0.2435780691378195,-0.16129178967729563,1.1097824119550224,-0.00017721167867029497,0.6213803862097499,-5.478485603104455
0.45,0.09999999999999999,0.1,0.5277817459305203,0.06464466094067263,0.28,-45,90.0,-90.0,0.0644624167265918,-0.35922448723606765,-0.1872565786198111,1.1299783233532112,0.0007806926415901516,0.627062103817545,-5.856806793646031
0.45,0.09999999999999999,0.1,0.5342820323027551,0.08598076211353317,0.2800000000000001,-30,90.0,-90.0,0.06540125203119444,-0.4789972032125985,-0.17507602689815688,1.120236523865862,0.0015994415421833562,0.6247654085943287,-6.240806292050301
0.45,0.09999999999999999,0.1,0.4853553390593274,0.17778174593052026,0.28,45,90.0,-90.0,0.0962961062310495,-0.6914055859630491,0.16954848624183283,0.7771505912611348,-0.0009760329703512756,0.6249120138073624,-1.4759042230140207
0.45,0.09999999999999999,0.1,0.4417277488195296,0.18503863745620108,0.2800000000000001,75,90.0,-90.0,0.10001616989948071,-0.6220990069041433,0.29294686339242554,0.6215841245878156,0.001385858327441172,0.6565048397296088,4.3512924208033406
0.45,0.09999999999999999,0.1,0.42,0.18000000000000002,0.2800000000000001,90,90.0,-90.0,0.09870756562499708,-0.5712494530065585,0.33998485853457844,0.5580531930994499,-0.0013747023629207217,0.6731325545778059,4.142250063752837
0.20000000000000007,-0.04999999999999999,0.1,0.2496832983968738,-0.11950949475004984,0.2800000000000001,-75,90.0,-90.0,0.07055371012437654,0.25921171393040027,0.7606408299126394,-0.08745910576529067,0.0011969350305020975,0.8981084893918504,1.566676718375812
0.20000000000000007,-0.04999999999999999,0.1,0.2659807621135333,-0.10428203230275507,0.28,-60,90.0,-90.0,0.07540203816838013,0.23563332560366074,0.6935417105669763,0.02325249696081315,0.0012206590403117518,0.8533999385216829,1.2828200168749484
0.20000000000000007,-0.04999999999999999,0.1,0.2777817459305203,-0.08535533905932735,0.28,-45,90.0,-90.0,0.07883545863163786,0.1994556538841146,0.6423439026919482,0.10595084432412549,0.0013276312802997638,0.8219873718583968,0.9840670054547301
0.20000000000000007,-0.04999999999999999,0.1,0.28428203230275517,-0.06401923788646681,0.2800000000000001,-30,90.0,-90.0,0.08091514314202769,0.15268782765640032,0.6097248047906663,0.15801883923818477,-0.00018112985893663127,0.8020208126915006,0.6768094953048581
0.20000000000000007,-0.04999999999999999,0.1,0.28503863745620117,-0.04172774881952958,0.28,-15,90.0,-90.0,0.08158539751244558,0.10019036123475321,0.5987231026591902,0.1751718387298589,9.228138656110116e-05,0.7967392105586275,0.36283918074486454
