fryumbla/Robot-Manipulability/log/abbrobot_manip_2021-03-26_23-04-23.csv
TCP x,TCP y,TCP z,eef x,eef y,eef z,Cr(rzyz),Pitch(rzyz),Roll(rzyz),Manipulability,joint_1,joint_2,joint_3,joint_4,joint_5,joint_6
0.4,0,0.1,0.42000000000000004,-0.09,0.25000000000000006,-90,90.0,-90.0,0.09901463359131296,0.3106393590832059,0.30593649302390663,0.7359090084206173,0.0015172203033726641,0.5293269199730857,1.880861863295151
0.4,0,0.1,0.4921097052680666,-0.003975197533445482,0.25,-15,90.0,-90.0,0.07110673800628765,0.018839900614861415,0.03345915840117526,1.0685279789061994,0.0014466550746205591,0.46800519211601116,0.2801374949380945
0.4,0,0.1,0.48175694346396575,0.04261223058500825,0.25,15,90.0,-90.0,0.07594199716463804,-0.19259782104757064,0.08423127718594331,1.0140869445441865,0.000980878152854045,0.47352026264479535,-0.4558207662737396
0.4,0,0.1,0.4679422863405995,0.0623205080756888,0.25000000000000006,30,90.0,-90.0,0.08162323166371241,-0.26255859613712007,0.14235137211802523,0.9467223921981474,0.001238895464840982,0.48233424320253654,-0.7864339849474651
0.4,0,0.1,0.42767949192431126,0.08794228634059949,0.25,60,90.0,-90.0,0.09659905274586714,-0.31255875762024854,0.2832418795293703,0.7675929190692649,0.00023960088767262285,0.5207541933313662,-1.360535700985543
0.4,0.05,0.1,0.42000000000000004,-0.039999999999999994,0.25000000000000006,-90,90.0,-90.0,0.09529337344362847,0.14150700778914296,0.2727930090014436,0.7814672413672482,0.0019874772239439975,0.5164485912904715,1.7096380700287264
0.4,0.05,0.1,0.44261223058500826,-0.03175694346396574,0.25000000000000006,-75,90.0,-90.0,0.08758994475531695,0.12271259483754894,0.20250431537897354,0.8733163331146974,0.0017086691386240813,0.4942885311811124,1.4297812069087943
0.4,0.05,0.1,0.4623205080756888,-0.01794228634059944,0.25,-60,90.0,-90.0,0.08085641830203785,0.07560556359390365,0.13669960280853535,0.9538853397566791,0.0007009460058318515,0.4800994408716286,1.1213937408223842
0.4,0.05,0.1,0.4879422863405995,0.02232050807568879,0.25000000000000006,-30,90.0,-90.0,0.07283259460721368,-0.10549551257937358,0.052158054083360265,1.0488295540052262,0.002341201388473978,0.4701865933334343,0.4167618616092108
0.4,0.05,0.1,0.4921097052680666,0.04602480246655452,0.25,-15,90.0,-90.0,0.07275056269313918,-0.21824112252214756,0.05130776881309834,1.049691431930128,0.0020043335633081766,0.47023678505150024,0.042773066031815285
0.35000000000000003,0.05,0.1,0.37000000000000005,-0.039999999999999994,0.25000000000000006,-90,90.0,-90.0,0.09887861162000841,0.12040178554192936,0.4159339704795109,0.5783293122125417,0.0012328545902981626,0.5755638341222359,-4.593246611560018
0.35000000000000003,0.05,0.1,0.43175694346396576,0.09261223058500825,0.25,15,90.0,-90.0,0.0944353010345765,-0.3323973384457443,0.2758406779567167,0.7769740351865881,0.00043002763483341536,0.5191793222294439,-6.876896498018966
0.35000000000000003,0.05,0.1,0.39949747468305835,0.12778174593052025,0.25,45,90.0,-90.0,0.0994438132493899,-0.4022334615895351,0.39919279757271386,0.6028860915570918,-0.00015689965083739413,0.5691749496817583,-1.1878076508685067
0.35000000000000003,0.05,0.1,0.3776794919243113,0.1379422863405995,0.25,60,90.0,-90.0,0.0968239599971459,-0.4044490219422061,0.4672068452558445,0.5003127670094903,0.0013207125795525933,0.6029195285155325,-1.4529772008098751
0.35000000000000003,0.05,0.1,0.35397519753344553,0.14210970526806657,0.25000000000000006,75,90.0,-90.0,0.09357192989368364,-0.3897531244725418,0.5343159859125567,0.39612846157424314,-0.00014965943542004812,0.6404880404694223,-1.697672601517709
0.35000000000000003,0.05,0.1,0.33,0.14,0.25000000000000006,90,90.0,-90.0,0.09007454273446196,-0.36189184520784645,0.5969302268053023,0.29598187995453984,-0.0001131676412209836,0.6786332705350324,-1.9330192923883152
0.4,-0.05,0.1,0.44261223058500826,-0.13175694346396574,0.25000000000000006,-75,90.0,-90.0,0.09725008308984517,0.4731795915562093,0.29156337825709727,0.7561843164634635,-0.0007892364503456767,0.5226664265225102,-4.499985850426253
0.4,-0.05,0.1,0.4679422863405995,0.012320508075688796,0.25000000000000006,30,90.0,-90.0,0.0788810182988648,-0.053079950071571874,0.11680248204192373,0.9768007981187283,0.0007903493901152514,0.47687680536730304,-6.8596375751978576
0.4,-0.05,0.1,0.44949747468305834,0.02778174593052024,0.25,45,90.0,-90.0,0.08542745959476072,-0.11069323336707117,0.18003981343995823,0.9011684392601349,-3.1788843438852006e-05,0.4905619658759993,-0.8969074503905793
0.4,-0.05,0.1,0.42767949192431126,0.037942286340599485,0.25,60,90.0,-90.0,0.09281945112454644,-0.13864916621977888,0.24964420440592588,0.8121284768356394,-0.0005922543100897006,0.5094435614644302,-1.1855441317745727
0.4,-0.05,0.1,0.38,0.04000000000000002,0.25000000000000006,90,90.0,-90.0,0.10052585438269639,-0.12446342913885737,0.38769768425160467,0.6198178837513368,0.0013873742064488715,0.5634672743707053,-1.696239976716724
0.35000000000000003,-0.05,0.1,0.37000000000000005,-0.14,0.25000000000000006,-90,90.0,-90.0,0.09579465938508179,0.40101280046029425,0.48977778742808464,0.46600341853862143,0.000940168256185737,0.6145326092088405,1.9702053617948159
0.35000000000000003,-0.05,0.1,0.39261223058500827,-0.13175694346396574,0.25000000000000006,-75,90.0,-90.0,0.0986851020278497,0.4053493086723947,0.4215619547430915,0.5696628188039456,-0.0018128707058257846,0.5789166367872133,1.715092652215613
0.35000000000000003,-0.05,0.1,0.4123205080756888,-0.11794228634059944,0.25,-60,90.0,-90.0,0.10037750797405576,0.38895899555620916,0.35430398073805563,0.6682048967620569,0.00043628130232574035,0.5476132229137107,1.4362819601990904
0.35000000000000003,-0.05,0.1,0.42778174593052026,-0.0994974746830583,0.25,-45,90.0,-90.0,0.09615591306270595,0.3501443351630107,0.2937940583973827,0.7533247212521917,0.002436561086594089,0.5233048761569669,1.1342742004648871
0.35000000000000003,-0.05,0.1,0.4179422863405995,0.012320508075688796,0.25000000000000006,30,90.0,-90.0,0.09373126057479679,-0.04408123250276312,0.2716682764020389,0.7829529144240805,0.002382028808116738,0.5158020738908327,-0.5705864215694468
0.35000000000000003,-0.05,0.1,0.39949747468305835,0.02778174593052024,0.25,45,90.0,-90.0,0.0995267505859248,-0.09224078874463089,0.32784785197368244,0.705463728779565,0.0007784476643657407,0.5367960305644268,-0.8777978209299144
0.30000000000000004,-0.05,0.1,0.32000000000000006,-0.14,0.25000000000000006,-90,90.0,-90.0,0.08749945289080781,0.3526707724814558,0.6241156390730992,0.2514839818721423,0.0009950276818468443,0.6951714056879846,1.922524705366391
0.30000000000000004,-0.05,0.1,0.36232050807568883,-0.11794228634059944,0.25,-60,90.0,-90.0,0.09503943861645343,0.3358935992695897,0.4875040123951273,0.46940596006241814,0.0008499238939446865,0.6133821843295766,1.3816219535565197
0.30000000000000004,-0.05,0.1,0.3777817459305203,-0.0994974746830583,0.25,-45,90.0,-90.0,0.09762791982389789,0.29957425934441595,0.4297201809482263,0.5579213254231089,0.00011192282208679987,0.5826102357480389,1.0853602059871608
0.30000000000000004,-0.05,0.1,0.3879422863405995,-0.07767949192431121,0.25000000000000006,-30,90.0,-90.0,0.09927369779185191,0.24359376338944716,0.3849339556164019,0.623759856161634,0.0021931054740101617,0.5621683789726338,0.7652787735553642
0.30000000000000004,-0.05,0.1,0.3921097052680666,-0.053975197533445485,0.25,-15,90.0,-90.0,0.10008148654325329,0.17325005861878334,0.3590785430261248,0.6608579693908512,0.0020016100552811365,0.5514751463313997,0.4325550938040523
0.30000000000000004,-0.05,0.1,0.39,-0.029999999999999975,0.25000000000000006,0,90.0,-90.0,0.1002013060162897,0.09661968438320745,0.35575941186828197,0.6658994921148232,0.0007057610757479325,0.5481814461318538,0.09529643557411069
0.30000000000000004,-0.05,0.1,0.38175694346396577,-0.007387769414991752,0.25,15,90.0,-90.0,0.09959551232130565,0.022870890041874137,0.3753423194582132,0.6375157588249548,0.0015261603958802287,0.5576123846525682,-0.2407429795267633
0.30000000000000004,-0.05,0.1,0.3679422863405995,0.012320508075688796,0.25000000000000006,30,90.0,-90.0,0.09818847913906104,-0.03726585481907567,0.4157944394006789,0.578681737983132,0.002020880231472,0.5763464268588538,-0.5632995015683965
0.35000000000000003,-0.1,0.1,0.37000000000000005,-0.19,0.25000000000000006,-90,90.0,-90.0,0.09235193220526874,0.5224312728699703,0.5536774874943713,0.36549873827721724,-0.0016419837398361395,0.651193899537665,-4.187698130441785
0.35000000000000003,-0.1,0.1,0.42778174593052026,-0.1494974746830583,0.25,-45,90.0,-90.0,0.10026369423523623,0.5024283900710271,0.3530710768180221,0.6697405553757096,-0.0007609310389275171,0.5469759366471137,-4.993981251455965
0.35000000000000003,-0.1,0.1,0.4379422863405995,-0.12767949192431122,0.25000000000000006,-30,90.0,-90.0,0.09637375202021928,0.4532466910194179,0.29865033114347805,0.7466453123732179,0.0015386916066946448,0.5249942223070106,-5.306757159348403
0.35000000000000003,-0.1,0.1,0.35397519753344553,-0.007890294731933437,0.25000000000000006,75,90.0,-90.0,0.0971966342233412,0.022642540373312217,0.45480959674630606,0.5196504088298802,0.0016658445506240304,0.5960792963021176,4.995304264006886
0.30000000000000004,0.1,0.1,0.36232050807568883,0.032057713659400563,0.25,-60,90.0,-90.0,0.09725688439389471,-0.09486874085021443,0.4352910490622757,0.5492890954055187,0.001931858664644149,0.5864286627875097,-5.3317598117063545
0.30000000000000004,0.1,0.1,0.3777817459305203,0.0505025253169417,0.25,-45,90.0,-90.0,0.09874581940293561,-0.1553936849990698,0.3978685641538335,0.6047109893551628,-5.793069226085507e-05,0.5679161650663189,-5.6532609581692945
0.30000000000000004,0.1,0.1,0.3879422863405995,0.0723205080756888,0.25000000000000006,-30,90.0,-90.0,0.09935752368596668,-0.227563347802244,0.38125119366883764,0.6291815312134647,0.000955197021067956,0.5594717974520969,-5.988030972847056
0.30000000000000004,0.1,0.1,0.3679422863405995,0.16232050807568882,0.25000000000000006,30,90.0,-90.0,0.09316433269708593,-0.454826683258481,0.5219095743778723,0.41569784215452094,-5.8085229626678603e-05,0.6339099442710731,-0.9784706180365583
0.30000000000000004,0.1,0.1,0.34949747468305836,0.17778174593052026,0.25,45,90.0,-90.0,0.08946222896151854,-0.4695249812696416,0.5887878987612835,0.308776440914369,0.0011637772411645778,0.6731484511447229,-1.2567986268430555
0.35000000000000003,0.0,0.1,0.39261223058500827,-0.08175694346396574,0.25000000000000006,-75,90.0,-90.0,0.10013684017299042,0.2598690279948624,0.3749091107590879,0.6383621578408872,0.000573562705233249,0.5568156248994641,-4.715776692510514
0.35000000000000003,0.0,0.1,0.39949747468305835,0.07778174593052024,0.25,45,90.0,-90.0,0.10046033797120658,-0.2535488501015769,0.35300792611075166,0.6697899506241559,0.000497402723381233,0.5489897649124471,5.24317920577052
0.35000000000000003,0.0,0.1,0.35397519753344553,0.09210970526806657,0.25000000000000006,75,90.0,-90.0,0.09591234005282137,-0.26053649366303555,0.48894384255851275,0.4673174037989863,0.001421801609896789,0.6154388164022088,4.712045882114496
0.35000000000000003,0.0,0.1,0.33,0.09000000000000002,0.25000000000000006,90,90.0,-90.0,0.09259731635237771,-0.23850898984093488,0.5536834034618239,0.3653402350550219,-0.0008443258515686997,0.6524959566430312,4.4752648571574625
0.35000000000000003,0.1,0.1,0.39261223058500827,0.018243056536034266,0.25000000000000006,-75,90.0,-90.0,0.10023063914875589,-0.05918065303759989,0.3461967598154796,0.6797905243350476,-3.3399740736256224e-06,0.5446955678885835,-5.033713665128711
0.35000000000000003,0.1,0.1,0.4123205080756888,0.032057713659400563,0.25,-60,90.0,-90.0,0.09569515688139035,-0.11123583633817546,0.2919713162342356,0.7551086803445293,0.0007267741152030397,0.523095629646865,-5.3473085738698565
0.35000000000000003,0.1,0.1,0.4179422863405995,0.16232050807568882,0.25000000000000006,30,90.0,-90.0,0.09940332164284045,-0.5226867311087263,0.3958879861337666,0.6075791154237031,0.0020317434755790665,0.5675433632861532,5.2343094282818905
0.30000000000000004,0.05,0.1,0.36232050807568883,-0.01794228634059944,0.25,-60,90.0,-90.0,0.09752376580856645,0.05341918402597393,0.43216089161465554,0.5539641844947691,-0.0008576821982271333,0.5837612156810311,-5.180996244177881
0.30000000000000004,0.05,0.1,0.3921097052680666,0.04602480246655452,0.25,-15,90.0,-90.0,0.10020700261859526,-0.1484721212938003,0.35581086400535866,0.66596876759105,0.0011632269359840863,0.5484651626500372,-6.170638108201731
0.30000000000000004,0.05,0.1,0.39,0.07000000000000003,0.25000000000000006,0,90.0,-90.0,0.09962698939615204,-0.22204331831540863,0.3742560777468453,0.6390576868989621,0.0007966131214778113,0.5580020511600178,-6.50508420643694
0.30000000000000004,0.05,0.1,0.3679422863405995,0.1123205080756888,0.25000000000000006,30,90.0,-90.0,0.09599329467450317,-0.32643692687500564,0.4671813720179791,0.5004797258438879,0.0010737768568450554,0.6025038615823712,-0.8516524671775144
0.30000000000000004,0.05,0.1,0.3276794919243113,0.1379422863405995,0.25,60,90.0,-90.0,0.08891486721168813,-0.3549075108826129,0.6010472284264772,0.289128512184876,0.0013077145337028907,0.681397958343996,-1.4033895015546267
0.30000000000000004,0.05,0.1,0.30397519753344554,0.14210970526806657,0.25000000000000006,75,90.0,-90.0,0.08445463512884678,-0.3443341656385572,0.6713633936216625,0.173252257166701,-0.0007331842889161381,0.7269906277934348,-1.6524679495655605
0.25000000000000006,0.15000000000000002,0.1,0.2700000000000001,0.060000000000000026,0.25000000000000006,-90,90.0,-90.0,0.0803485779462073,-0.13874490742629886,0.7122991612805087,0.10490261392121801,0.000993726983202685,0.7531369118742393,1.4317727012830725
0.25000000000000006,0.15000000000000002,0.1,0.2926122305850083,0.06824305653603428,0.25000000000000006,-75,90.0,-90.0,0.08467376488422317,-0.165990807557422,0.6481656437500761,0.2120415681890534,-0.00044030771445537076,0.7095741499198526,1.142536136296665
0.25000000000000006,0.15000000000000002,0.1,0.33794228634059953,0.12232050807568881,0.25000000000000006,-30,90.0,-90.0,0.09016108033484473,-0.32610996421512956,0.5578727734448417,0.35897532661006987,0.0013200145669240216,0.6536962386168137,0.1971989163109901
0.25000000000000006,0.15000000000000002,0.1,0.3317569434639658,0.19261223058500826,0.25,15,90.0,-90.0,0.08420192203201217,-0.4821445078124466,0.65561152011439,0.19990072421660524,0.0006267949490730083,0.7151630963431108,-0.7442191844072387
0.25000000000000006,0.15000000000000002,0.1,0.2994974746830584,0.22778174593052025,0.25,45,90.0,-90.0,0.07405452534942357,-0.5169217803933415,0.7976589818436217,-0.04021526505296633,-0.00044988247260436154,0.8136515915081433,-1.3010540767753103
0.25000000000000006,0.15000000000000002,0.1,0.25397519753344555,0.24210970526806658,0.25000000000000006,75,90.0,-90.0,0.05969539859797771,-0.49730023719212774,0.9668602995755322,-0.33684485656905033,0.0008774857962792322,0.9406408480299825,-1.807605791391212
0.25000000000000006,0.15000000000000002,0.1,0.23000000000000004,0.24000000000000005,0.25000000000000006,90,90.0,-90.0,0.05134057479875422,-0.47220908050183136,1.0544703031746872,-0.4939272343183953,0.0006829991261635576,1.010611344906696,-2.042537147028181
0.25000000000000006,0.0,0.1,0.3277817459305203,-0.049497474683058304,0.25,-45,90.0,-90.0,0.0916157291232561,0.13210606041113238,0.5389099254021645,0.38907841728112386,0.0009030804945971028,0.6435735255687672,-5.365418146484703
0.25000000000000006,0.0,0.1,0.33794228634059953,-0.02767949192431121,0.25000000000000006,-30,90.0,-90.0,0.09352999733982112,0.07612284349835037,0.5027020260209736,0.4458558113464929,0.0004306581262219589,0.62139149653504,-5.683542572993004
0.25000000000000006,0.0,0.1,0.3421097052680666,-0.003975197533445482,0.25,-15,90.0,-90.0,0.09426192232450778,0.010852843711351319,0.48813544919291324,0.46826779759957327,0.001763219619340501,0.6150906269750724,-6.012578307364073
0.25000000000000006,0.0,0.1,0.3400000000000001,0.020000000000000028,0.25000000000000006,0,90.0,-90.0,0.09389559925627138,-0.05569327461794981,0.4955581616346946,0.457001665599769,7.73237730957657e-05,0.6174947147783808,-6.338141324728917
0.25000000000000006,0.0,0.1,0.2776794919243113,0.08794228634059949,0.25,60,90.0,-90.0,0.0813738280530911,-0.2054051314483129,0.7041892555418895,0.11883428533279086,-0.0007161656445131023,0.7488417995423852,-1.2514113540975735
0.25000000000000006,0.0,0.1,0.25397519753344555,0.09210970526806657,0.25000000000000006,75,90.0,-90.0,0.07582140206944238,-0.20363306899458491,0.7801995619616569,-0.010542799621132977,-8.67106015241103e-05,0.8019839934366982,-1.51279294878812
0.25000000000000006,0.0,0.1,0.23000000000000004,0.09000000000000002,0.25000000000000006,90,90.0,-90.0,0.06959556846647762,-0.18897443071481512,0.8581966000120139,-0.14550055353007985,-0.0003976684085294417,0.8587022876584751,-1.7601203963801857
0.25000000000000006,0.2,0.1,0.2926122305850083,0.11824305653603427,0.25000000000000006,-75,90.0,-90.0,0.0821551705708126,-0.2825112851062977,0.6814604449983965,0.1567424053946366,9.594528103809021e-05,0.7322149515121072,-5.25593445472979
0.25000000000000006,0.2,0.1,0.3317569434639658,0.24261223058500825,0.25,15,90.0,-90.0,0.07851101561912506,-0.5827014627355945,0.7334941656345223,0.06881089417602922,0.0011949206811136723,0.7688366701015181,5.43726995897419
0.25000000000000006,0.2,0.1,0.3179422863405995,0.2623205080756888,0.25000000000000006,30,90.0,-90.0,0.0730305895475844,-0.601512566003859,0.8067068668355699,-0.055871516508380584,-0.0003460207968704575,0.8204202465419144,5.1576714319059915
0.25000000000000006,0.2,0.1,0.2994974746830584,0.27778174593052024,0.25,45,90.0,-90.0,0.06618411316765764,-0.606559692480533,0.8904310085205649,-0.20170757458413924,0.0014486343715894804,0.8828586361874118,4.88957956470784
0.25000000000000006,0.2,0.1,0.2776794919243113,0.2879422863405995,0.25,60,90.0,-90.0,0.058030604110892205,-0.5984237315711433,0.9818303614975484,-0.3638110013156756,-0.0007363064004472153,0.9536706921559993,4.637018661455088
0.20000000000000007,0.2,0.1,0.2921097052680666,0.19602480246655452,0.25,-15,90.0,-90.0,0.07499708426048018,-0.4482054654326141,0.7705617741734834,0.006174552016213726,0.000350959861281164,0.793606624582503,-6.468870244688694
0.20000000000000007,0.2,0.1,0.2679422863405995,0.2623205080756888,0.25000000000000006,30,90.0,-90.0,0.0594378577868793,-0.5457640931645863,0.9588006797468142,-0.3227728222524497,0.0011004067807160697,0.9353719104528125,-1.0705406820044614
0.20000000000000007,0.2,0.1,0.20397519753344553,0.29210970526806657,0.25000000000000006,75,90.0,-90.0,0.013561621107836786,-0.5321593277657525,1.399143691810286,-1.1258778476228293,0.00037820891321202715,1.297723056425461,-1.8406299747673076
0.15000000000000008,0.25,0.1,0.1700000000000001,0.16,0.25000000000000006,-90,90.0,-90.0,0.035630088770269484,-0.2931980729757434,1.1941591254289199,-0.7477637209060142,0.0005809401208880606,1.1247196296710489,1.278112180971888
0.15000000000000008,0.25,0.1,0.2277817459305203,0.20050252531694168,0.25,-45,90.0,-90.0,0.05572537044753879,-0.40168204761648374,0.9889501694355866,-0.37658977058230536,0.0006621685946639963,0.9579444075749515,0.3835130398648092
0.35000000000000003,0.15000000000000002,0.1,0.37000000000000005,0.060000000000000026,0.25000000000000006,-90,90.0,-90.0,0.09814455196033044,-0.18023176100159863,0.42450788115686483,0.5653212794689491,0.0014435002475833487,0.5813244253941051,-4.89283409456021
0.35000000000000003,0.15000000000000002,0.1,0.39261223058500827,0.06824305653603428,0.25000000000000006,-75,90.0,-90.0,0.09997399807759913,-0.21846040359528549,0.3657368523136042,0.6518620275269634,-8.324132041767206e-05,0.5520827037886407,-5.192215123705605
0.35000000000000003,0.15000000000000002,0.1,0.42778174593052026,0.10050252531694172,0.25,-45,90.0,-90.0,0.09542514394051986,-0.3539365253921707,0.29448907189442297,0.7520014016803243,0.0006477660409304582,0.5232770734471845,-5.85161635714138
0.35000000000000003,0.15000000000000002,0.1,0.4379422863405995,0.12232050807568881,0.25000000000000006,-30,90.0,-90.0,0.09516543061047307,-0.4368271148749839,0.29126597622743533,0.7560734647140724,0.001807651236491229,0.52294451017136,-6.197198998194838
0.35000000000000003,0.15000000000000002,0.1,0.4421097052680666,0.14602480246655453,0.25,-15,90.0,-90.0,0.09758678408117069,-0.5152070991762419,0.31272195285781523,0.7269047299585234,-0.00025501689135525593,0.5314944050737436,-6.535749237022142
0.35000000000000003,0.15000000000000002,0.1,0.44000000000000006,0.17000000000000004,0.25000000000000006,0,90.0,-90.0,0.10015915391871566,-0.5793585567739318,0.3536022704093642,0.6689466066076626,0.0021040150029955195,0.5482316402119239,-6.863548744955619
0.35000000000000003,0.15000000000000002,0.1,0.43175694346396576,0.19261223058500826,0.25,15,90.0,-90.0,0.09871119728418672,-0.6232516389572519,0.40962399997584137,0.5874553103228791,0.0022917198889562057,0.5739390069138472,-0.8862597210760346
0.35000000000000003,0.15000000000000002,0.1,0.4179422863405995,0.2123205080756888,0.25000000000000006,30,90.0,-90.0,0.09602910806516371,-0.6450606815021462,0.47463650021595366,0.4892144745574646,-0.00023872940286940252,0.6080313032398401,-1.1693307438880451
0.35000000000000003,0.15000000000000002,0.1,0.33,0.24000000000000005,0.25000000000000006,90,90.0,-90.0,0.08049631145697446,-0.57550069716611,0.7342466765615835,0.06816591824302555,0.00034311075607458053,0.7694175628885387,4.1358190827268295
0.25000000000000006,0.1,0.1,0.31232050807568884,0.032057713659400563,0.25,-60,90.0,-90.0,0.08925432235947757,-0.08272009546184525,0.5773599970043188,0.32752809768602653,0.001753162964699074,0.6658340905288971,0.9625930469850944
0.25000000000000006,0.1,0.1,0.33794228634059953,0.0723205080756888,0.25000000000000006,-30,90.0,-90.0,0.09243839851830785,-0.1973968471761112,0.5204221022412355,0.4183038602728387,0.001357624950972611,0.6318213390021551,0.32565302709183086
0.25000000000000006,0.1,0.1,0.2994974746830584,0.17778174593052026,0.25,45,90.0,-90.0,0.07971267999470531,-0.41779764733925717,0.7248541924927661,0.08378821132407512,0.00033250497599088594,0.7629439125482851,-1.2027207937780364
0.30000000000000004,0.15000000000000002,0.1,0.3426122305850083,0.06824305653603428,0.25000000000000006,-75,90.0,-90.0,0.09376215284759826,-0.18882553501581287,0.5051634719420051,0.44181602476647847,0.00044908135559659215,0.6242804545018753,1.1190693076054303
0.30000000000000004,0.15000000000000002,0.1,0.3777817459305203,0.10050252531694172,0.25,-45,90.0,-90.0,0.09727539482832637,-0.3023939615166068,0.4302531698626597,0.556510323819698,7.232849655088361e-05,0.5831587683426441,0.4824138054127214
0.30000000000000004,0.15000000000000002,0.1,0.3879422863405995,0.12232050807568881,0.25000000000000006,-30,90.0,-90.0,0.09756657277435807,-0.37390019403271485,0.42368832772145393,0.5666436827376135,0.0003257132762831397,0.5804841247100994,0.15041083464573615
0.30000000000000004,0.15000000000000002,0.1,0.39,0.17000000000000004,0.25000000000000006,0,90.0,-90.0,0.09521210808785216,-0.5018535779928396,0.4758167336724921,0.48733325463190896,0.0007416103127794343,0.6080613526626091,-0.5029282583088388
0.30000000000000004,0.15000000000000002,0.1,0.38175694346396577,0.19261223058500826,0.25,15,90.0,-90.0,0.0925561602582373,-0.5442747997650043,0.5286463855353386,0.40519225359080574,0.00012373878797388902,0.6376204156316356,-0.8070364245019277
0.15000000000000008,0.2,0.1,0.1700000000000001,0.11000000000000001,0.25000000000000006,-90,90.0,-90.0,0.04328318865345283,-0.20456418939433696,1.1214573752598243,-0.6150679800416293,9.972325253438004e-05,1.0644137845425352,1.3668111466428343
0.15000000000000008,0.2,0.1,0.21232050807568886,0.13205771365940056,0.25,-60,90.0,-90.0,0.058830996702375904,-0.26465259268527036,0.9578288521061658,-0.3206977438154259,0.0006930842995254434,0.933957331680103,0.7822465272718405
0.15000000000000008,0.2,0.1,0.2277817459305203,0.1505025253169417,0.25,-45,90.0,-90.0,0.06213996962904389,-0.3087106431031482,0.9201571321002301,-0.2540011412381177,0.0005212105044293697,0.9040073894667325,0.4756389365169129
0.15000000000000008,0.2,0.1,0.23794228634059955,0.1723205080756888,0.25000000000000006,-30,90.0,-90.0,0.06287001717586772,-0.35698634972965804,0.9115826805533509,-0.23904261222228765,0.0004385943468331249,0.8988134323193802,0.1669570671701275
0.30000000000000004,0.2,0.1,0.32000000000000006,0.11000000000000001,0.25000000000000006,-90,90.0,-90.0,0.08836774120122011,-0.2819697296655261,0.596450067018354,0.2965532252737262,0.0017261654615037363,0.6775363695908881,1.287362777179753
0.30000000000000004,0.2,0.1,0.3921097052680666,0.19602480246655452,0.25,-15,90.0,-90.0,0.09326603292084974,-0.5670337540023804,0.5088217863076009,0.43660591736205623,-0.00036250133424335456,0.6258976623159489,-0.30412544853337803
0.30000000000000004,0.2,0.1,0.38175694346396577,0.24261223058500825,0.25,15,90.0,-90.0,0.08753996653776455,-0.6514387051101705,0.6104065656680976,0.27409555584319695,0.00039507266560465516,0.6866253352712376,-0.9140923922172833
0.30000000000000004,0.2,0.1,0.3276794919243113,0.2879422863405995,0.25,60,90.0,-90.0,0.07187434399924146,-0.6580380923881224,0.8310382905721061,-0.0981103605159861,-0.0014647610198636899,0.8385341824381597,-1.7037212726874662
0.20000000000000007,-0.05,0.1,0.22000000000000008,-0.14,0.25000000000000006,-90,90.0,-90.0,0.061926595184036044,0.2837885019883693,0.9373385790152579,-0.28448880769868023,0.0009350243894476624,0.9183139223061658,1.8543378862563853
0.20000000000000007,-0.05,0.1,0.26232050807568885,-0.11794228634059944,0.25,-60,90.0,-90.0,0.07541011010405921,0.2631996947844078,0.7733258169986769,0.0014268136496857577,0.001092775052073445,0.7967195501015718,1.3086698451425247
0.20000000000000007,-0.05,0.1,0.2777817459305203,-0.0994974746830583,0.25,-45,90.0,-90.0,0.07991635424032562,0.23124735835944768,0.7112054641824577,0.10667214221511312,0.0018232241580895027,0.7526804557539258,1.015720550682697
0.20000000000000007,-0.05,0.1,0.28794228634059954,-0.07767949192431121,0.25000000000000006,-30,90.0,-90.0,0.0829374337455217,0.18625158359896604,0.6671623782768085,0.18067376453410147,0.0015260958248852917,0.7228922939067294,0.7091622704683467
0.20000000000000007,-0.05,0.1,0.24949747468305838,0.02778174593052024,0.25,45,90.0,-90.0,0.07589374079032406,-0.061724594690850815,0.7667760844794246,0.01231272986951319,0.001686390125238579,0.7915731930629755,-0.8488357369709982
0.25000000000000006,0.05,0.1,0.2700000000000001,-0.039999999999999994,0.25000000000000006,-90,90.0,-90.0,0.08125718171164213,0.0927930503559633,0.7048317868188001,0.11723794755775135,-0.0006567016735308781,0.7477994428766762,1.6638634573779283
0.25000000000000006,0.05,0.1,0.2926122305850083,-0.03175694346396574,0.25000000000000006,-75,90.0,-90.0,0.08590468097690591,0.07769317781224423,0.6349466482906225,0.2337024465164751,-0.0002259478370122977,0.7016250362338151,1.386515342011077
0.25000000000000006,0.05,0.1,0.31232050807568884,-0.01794228634059944,0.25,-60,90.0,-90.0,0.08955871884890311,0.046351884275404584,0.5747675937464488,0.3319540122795261,0.00018439929518584798,0.6635104700472406,1.0924347118091269
0.25000000000000006,0.05,0.1,0.3277817459305203,0.0005025253169416988,0.25,-45,90.0,-90.0,0.09208773468365652,-0.0014100673890031622,0.5291758905667474,0.40420360536288064,0.00046182796059772587,0.6375926639509417,0.7827807302236315
0.25000000000000006,0.05,0.1,0.3179422863405995,0.1123205080756888,0.25000000000000006,30,90.0,-90.0,0.08779278185926571,-0.2862060517840396,0.6045518947861643,0.28357380524755443,0.00046448544855556373,0.683153043779929,-0.8095243772481164
0.25000000000000006,0.05,0.1,0.23000000000000004,0.14,0.25000000000000006,90,90.0,-90.0,0.06590093273460372,-0.2894726596993675,0.9012448844019599,-0.2206240720348465,0.0005356206948328664,0.8904725614669005,-1.8605312590524206
0.30000000000000004,0.10000000000000002,0.1,0.3426122305850083,0.01824305653603428,0.25000000000000006,-75,90.0,-90.0,0.09488124663297125,-0.05086849801527892,0.4877720177668196,0.4690848121923159,-0.0005200368138853233,0.6131440881771518,-5.0251087613462
0.30000000000000004,0.10000000000000002,0.1,0.3879422863405995,0.07232050807568881,0.25000000000000006,-30,90.0,-90.0,0.09935170400892812,-0.2277285472791401,0.3816253043578566,0.6289397519280127,0.0005846159547010668,0.5597443902496456,-5.987251330754363
0.30000000000000004,0.10000000000000002,0.1,0.38175694346396577,0.14261223058500827,0.25,15,90.0,-90.0,0.09605588076441968,-0.421230442709301,0.462743918670389,0.5076254861424074,-2.682349243473372e-05,0.6016310183414084,-6.965284485122136
0.30000000000000004,0.10000000000000002,0.1,0.3679422863405995,0.16232050807568882,0.25000000000000006,30,90.0,-90.0,0.09317274762542593,-0.4548130946694945,0.5217950927827827,0.4158730993156605,0.00017202135539715253,0.6339797403721819,-0.9792882703804505
0.30000000000000004,0.10000000000000002,0.1,0.30397519753344554,0.1921097052680666,0.25000000000000006,75,90.0,-90.0,0.08014886905980764,-0.451694819123558,0.7313235441328103,0.07319957094284105,0.0007586096368540649,0.7669217520142525,-1.760397426866648
0.10000000000000007,0.25,0.1,0.17778174593052032,0.20050252531694168,0.25,-45,90.0,-90.0,0.03119762635960268,-0.36671797673053036,1.2325617353769072,-0.8180190247521814,4.937052323277999e-05,1.1560908149828073,0.4195481034965071
0.20000000000000007,0.10000000000000002,0.1,0.2777817459305203,0.050502525316941715,0.25,-45,90.0,-90.0,0.08163091998027533,-0.11918957650687154,0.684494082181511,0.1513929667890899,0.00013452422991431677,0.7337756528259649,-5.616363031448232
0.20000000000000007,0.10000000000000002,0.1,0.29000000000000004,0.12000000000000005,0.25000000000000006,0,90.0,-90.0,0.08120955202226848,-0.2849489956271963,0.6909956347953424,0.14103067574004366,0.0013278293787169818,0.7384227602211195,-6.56913030132435
0.20000000000000007,0.10000000000000002,0.1,0.2679422863405995,0.16232050807568882,0.25000000000000006,30,90.0,-90.0,0.07324529993313764,-0.35964067571602876,0.8000286301620586,-0.0444039477966897,0.0011444692372470635,0.8149037028904642,-0.8843641099323073
0.20000000000000007,0.10000000000000002,0.1,0.22767949192431128,0.1879422863405995,0.25,60,90.0,-90.0,0.05885944949770945,-0.3788984292033067,0.9700060737819219,-0.3426806202818157,0.0008313554639659071,0.9437835311605799,-1.4262408921638978
0.20000000000000007,0.10000000000000002,0.1,0.20397519753344553,0.1921097052680666,0.25000000000000006,75,90.0,-90.0,0.04897100016574351,-0.3695748607561223,1.073978767725377,-0.5287771030461105,0.00103357901285181,1.0255079698087106,-1.6786247704062298
0.15000000000000008,0.15000000000000002,0.1,0.19261223058500831,0.06824305653603428,0.25000000000000006,-75,90.0,-90.0,0.05662135553811609,-0.13382893640309063,0.9847688078596707,-0.36865654110601337,0.0008612691914282107,0.9541188431531424,-5.107799229062162
0.15000000000000008,0.15000000000000002,0.1,0.21232050807568886,0.08205771365940058,0.25,-60,90.0,-90.0,0.0627201868303525,-0.1665266820846882,0.9160927058925501,-0.24689711932295805,5.365586119243491e-05,0.9005594406939135,-5.402946139791389
0.15000000000000008,0.15000000000000002,0.1,0.2277817459305203,0.10050252531694172,0.25,-45,90.0,-90.0,0.06634231682398173,-0.20968711988572172,0.8733919627304902,-0.17176617784476111,0.0007542489820122561,0.8688695993787067,-5.707395304508544
0.15000000000000008,0.15000000000000002,0.1,0.24000000000000007,0.17000000000000004,0.25000000000000006,0,90.0,-90.0,0.06403064953843361,-0.353973387104309,0.9006905086063887,-0.22003737162771736,-5.296804327876303e-05,0.8906041937655961,-6.637159284342524
0.15000000000000008,0.15000000000000002,0.1,0.21794228634059953,0.2123205080756888,0.25000000000000006,30,90.0,-90.0,0.05052396853530074,-0.4148603082482918,1.0497354636808043,-0.4852651671873917,0.0006127243499609722,1.0057154112287663,5.343720338937263
0.15000000000000008,0.15000000000000002,0.1,0.1994974746830584,0.22778174593052025,0.25,45,90.0,-90.0,0.03849501163582762,-0.42708292110184154,1.1700346929033965,-0.7035748836351503,0.0006731005634405683,1.1040299693291276,5.069634991223184
0.20000000000000007,0.25,0.1,0.2426122305850083,0.16824305653603427,0.25000000000000006,-75,90.0,-90.0,0.06515981759298177,-0.35255620294767287,0.8896488073484411,-0.20024372266095916,0.001211316390090462,0.8816578644811335,0.956166546580803
0.20000000000000007,0.25,0.1,0.26232050807568885,0.18205771365940054,0.25,-60,90.0,-90.0,0.06904951472684219,-0.3942737395322568,0.8424566904957778,-0.11789690786448395,0.0007246275668319039,0.8453775709390511,0.6530705787833668
0.20000000000000007,0.25,0.1,0.2777817459305203,0.20050252531694168,0.25,-45,90.0,-90.0,0.07086994165623596,-0.4434448888188945,0.8196539401181019,-0.07838723001468814,0.0011656005466744645,0.829088296354653,0.34185177640028697
0.20000000000000007,0.25,0.1,0.28794228634059954,0.2223205080756888,0.25000000000000006,-30,90.0,-90.0,0.0706388584908059,-0.4949480262063797,0.8225305579529752,-0.08347143361604871,0.0009629522118991885,0.832336123662157,0.028596888309969266
0.20000000000000007,0.25,0.1,0.2921097052680666,0.2460248024665545,0.25,-15,90.0,-90.0,0.06840744547224385,-0.5427262260563787,0.8504489549205316,-0.13174695114664325,0.0006080228880846908,0.8522544889357127,-0.28134715727460463
0.20000000000000007,0.25,0.1,0.29000000000000004,0.27,0.25000000000000006,0,90.0,-90.0,0.06406989416214542,-0.5824644626051476,0.9024850612195279,-0.22285135031862946,0.0008473752433558151,0.8905770495058054,-0.5839420937356424
0.20000000000000007,0.25,0.1,0.2679422863405995,0.3123205080756888,0.25000000000000006,30,90.0,-90.0,0.04770939051661784,-0.6259503322822664,1.0802421167197267,-0.540279338499823,-0.0004576230512459514,1.031580087337294,-1.150286041165469
0.20000000000000007,0.25,0.1,0.24949747468305838,0.32778174593052023,0.25,45,90.0,-90.0,0.033622675359464525,-0.6291282567253418,1.2174347639512746,-0.7902705858126718,0.0006834183477179689,1.1439381611071875,-1.415208706041265
0.20000000000000007,0.05,0.1,0.26232050807568885,-0.01794228634059944,0.25,-60,90.0,-90.0,0.07898660792397742,0.04085978043048185,0.7243208869493849,0.08438449971610257,0.000864190389106982,0.7622914929930713,1.088328452735859
0.20000000000000007,0.05,0.1,0.2777817459305203,0.0005025253169416988,0.25,-45,90.0,-90.0,0.0823860328328656,-0.0013477756420647107,0.675438915475838,0.1668704098900633,0.0007419863459879111,0.7278944715269803,0.7839734174638203
0.20000000000000007,0.05,0.1,0.2921097052680666,0.04602480246655452,0.25,-15,90.0,-90.0,0.08468859685169983,-0.11266595356532236,0.6402981188458412,0.22493622712471967,0.0007381516132425655,0.7051235708495963,0.1477484609429888
0.20000000000000007,0.05,0.1,0.29000000000000004,0.07000000000000003,0.25000000000000006,0,90.0,-90.0,0.0836316618049044,-0.16916057279031077,0.6567141909829175,0.19806270228474365,0.0007621592671646745,0.7151809818959062,-0.1689635746226649
0.20000000000000007,0.05,0.1,0.22767949192431128,0.1379422863405995,0.25,60,90.0,-90.0,0.06456962695068708,-0.2840610083655131,0.9071822959336717,-0.23131840323221473,0.0002862872920054065,0.8957345499130179,-1.3305481937182955
0.20000000000000007,0.05,0.1,0.20397519753344553,0.14210970526806657,0.25000000000000006,75,90.0,-90.0,0.056004767738408914,-0.27905603682056496,1.0020633013821423,-0.3997113143188021,-0.0011095116503371204,0.9693523858058897,-1.5867855310811063
0.30000000000000004,-0.15000000000000002,0.1,0.36232050807568883,-0.21794228634059948,0.25,-60,90.0,-90.0,0.08762455212133245,0.5730007851067792,0.6150781993668945,0.2667295256973956,0.0006332813638370864,0.6880208045051251,1.6189411517230166
0.30000000000000004,-0.15000000000000002,0.1,0.39,-0.13,0.25000000000000006,0,90.0,-90.0,0.0974308813437725,0.3969486544922148,0.42682061494505413,0.5619834271587898,0.001588831889850305,0.5825960568726312,0.39549249802519426
0.30000000000000004,-0.15000000000000002,0.1,0.34949747468305836,-0.07221825406947978,0.25,45,90.0,-90.0,0.09463073953080864,0.20282484980249174,0.4881073369071023,0.46870526507212434,0.0020471571615437298,0.6135955131822788,-0.5841005666987364
0.30000000000000004,-0.15000000000000002,0.1,0.3276794919243113,-0.062057713659400535,0.25,60,90.0,-90.0,0.09172078321366652,0.16513589110837315,0.544268785059036,0.3805748008186438,0.001308235168487956,0.6456467069367522,-0.8831369339790665
0.15000000000000008,-0.05,0.1,0.1700000000000001,-0.14,0.25000000000000006,-90,90.0,-90.0,0.03977498590267251,0.25818273869346464,1.159600841883549,-0.6843702256408594,0.000813423123513848,1.0947651492330013,-4.454293746442086
0.15000000000000008,-0.05,0.1,0.21232050807568886,-0.11794228634059944,0.25,-60,90.0,-90.0,0.06058024921174049,0.2372097967562025,0.9437177141882225,-0.29574590330199607,-0.00031595955688213393,0.9217349387563831,-4.9991675307774095
0.15000000000000008,-0.05,0.1,0.23794228634059955,-0.07767949192431121,0.25000000000000006,-30,90.0,-90.0,0.07069181278598641,0.16669275629872665,0.8234562979712765,-0.08472843642099187,-0.0005195825320791744,0.831152124110469,-5.59181867104384
0.15000000000000008,-0.05,0.1,0.24000000000000007,-0.029999999999999975,0.25000000000000006,0,90.0,-90.0,0.0726672707417427,0.06518075407552688,0.7979987120157224,-0.041133258375816946,0.0005881625394508856,0.8131751287636242,-6.217776732182559
0.4,0.1,0.1,0.42000000000000004,0.010000000000000009,0.25000000000000006,-90,90.0,-90.0,0.09405137716309711,-0.03566250887994096,0.26518975935506783,0.7918542741466711,-0.0003390300836059836,0.5133669230042088,-4.7470237199441225
0.4,0.1,0.1,0.4679422863405995,0.16232050807568882,0.25000000000000006,30,90.0,-90.0,0.09522074303112389,-0.6101437733801284,0.27439732990460775,0.7793124156684069,0.00018447045211257817,0.5178858255658101,-1.134474827015161
0.4,0.1,0.1,0.4039751975334455,0.1921097052680666,0.25000000000000006,75,90.0,-90.0,0.09716141292769101,-0.5753455368777701,0.47398063985558164,0.48996124880746783,-0.001315234926912803,0.6076001152640733,-1.8830975583569198
0.10000000000000007,0.10000000000000002,0.1,0.14261223058500833,0.01824305653603428,0.25000000000000006,-75,90.0,-90.0,0.03279617156551573,-0.03277710498955667,1.2209047701660292,-0.7966032085027192,-0.0003993623190942114,1.145863022109289,1.2761722210430257
0.10000000000000007,0.10000000000000002,0.1,0.16232050807568887,0.03205771365940058,0.25,-60,90.0,-90.0,0.04440654940493215,-0.059633891536303864,1.1073309827021796,-0.5895696107742993,-0.0003503651711399627,1.0521591882145422,0.9873296767399334
0.10000000000000007,0.10000000000000002,0.1,0.17778174593052032,0.050502525316941715,0.25,-45,90.0,-90.0,0.050989790708505685,-0.09640776119260493,1.0394897093138311,-0.46679583349711357,6.933878028086435e-05,0.9974297906366278,0.6884371505022073
0.10000000000000007,0.10000000000000002,0.1,0.16794228634059954,0.16232050807568882,0.25000000000000006,30,90.0,-90.0,0.03387480955075556,-0.2962020442609126,1.2107620043258456,-0.777805472671801,0.0007618387277432935,1.137260774435298,-0.8192476646648909
0.10000000000000007,0.10000000000000002,0.1,0.14949747468305838,0.17778174593052026,0.25,45,90.0,-90.0,0.006009103150134162,-0.31256001047143056,1.4633306152325574,-1.2453103357975577,0.000757750024509042,1.3525104686417402,-1.097798468011467
0.25000000000000006,-0.05,0.1,0.2700000000000001,-0.14,0.25000000000000006,-90,90.0,-90.0,0.07660259914950739,0.31478323349611603,0.769266478856056,0.008274118757542514,0.0004959629411861164,0.7933239015292097,1.8847944803901941
0.25000000000000006,-0.05,0.1,0.33794228634059953,-0.07767949192431121,0.25000000000000006,-30,90.0,-90.0,0.09239332548220006,0.21112608677388342,0.5237133694473618,0.4132091294348326,0.0014539467305881427,0.6338723518696721,0.7342434435245108
0.25000000000000006,-0.05,0.1,0.3400000000000001,-0.029999999999999975,0.25000000000000006,0,90.0,-90.0,0.093758728774239,0.08297464352792523,0.49754624739035486,0.4540755819971663,0.00018486086001516132,0.6182482471330387,0.08316580440765198
0.25000000000000006,-0.05,0.1,0.25397519753344555,0.042109705268066566,0.25000000000000006,75,90.0,-90.0,0.07759533240386159,-0.09414503085203274,0.7560896239184786,0.030941788334698402,0.0010005226570045677,0.7832976517848271,-1.4043207856803452
0.20000000000000007,0.1,0.1,0.22000000000000008,0.010000000000000009,0.25000000000000006,-90,90.0,-90.0,0.06814751821021714,-0.020865635354470544,0.8633756458323372,-0.1545643899273184,0.0006774314976225439,0.8612632680576803,1.5487447410156612
0.20000000000000007,0.1,0.1,0.26232050807568885,0.032057713659400563,0.25,-60,90.0,-90.0,0.07869175367713356,-0.07332654969709451,0.7269696043041137,0.08052644638521271,0.0011393235451941668,0.7631565972351316,0.9732131313682626
0.20000000000000007,0.1,0.1,0.28794228634059954,0.0723205080756888,0.25000000000000006,-30,90.0,-90.0,0.08302132692901429,-0.17382579710211743,0.6640142829378353,0.18590093499045332,0.00021694987440423687,0.7201095796668012,0.35016434307515165
0.20000000000000007,0.1,0.1,0.2921097052680666,0.09602480246655452,0.25,-15,90.0,-90.0,0.08287193037362671,-0.23132115228638936,0.666053912741208,0.18213942158402366,0.0003867655761845294,0.7229935786904107,0.031194173268089893
0.20000000000000007,0.1,0.1,0.2817569434639658,0.14261223058500827,0.25,15,90.0,-90.0,0.07800367732317133,-0.32859627360641014,0.7364156590005343,0.06423434179826108,0.0012204711167160599,0.7695727615210579,-0.5916759211239613
0.20000000000000007,0.1,0.1,0.2679422863405995,0.16232050807568882,0.25000000000000006,30,90.0,-90.0,0.07322061104468688,-0.3593987285007058,0.8003357353754167,-0.044903273160026645,-0.0004976595297379498,0.8163975981089039,-0.8819657324631728
0.20000000000000007,0.1,0.1,0.24949747468305838,0.17778174593052026,0.25,45,90.0,-90.0,0.06685240170241252,-0.3760898490832532,0.879108376130323,-0.18182627513933428,0.0014725462522921704,0.8736922518661001,-1.162995934516088
0.20000000000000007,0.1,0.1,0.22767949192431128,0.1879422863405995,0.25,60,90.0,-90.0,0.05885345007201166,-0.37883164823485765,0.9700812730342869,-0.3428732190631865,0.0012461088195391042,0.9444323233672844,-1.4277147466053448
0.35000000000000003,0.10000000000000002,0.1,0.37000000000000005,0.010000000000000023,0.25000000000000006,-90,90.0,-90.0,0.098955564158683,-0.030666909822211885,0.40921634764516485,0.5881322408869216,0.0007666199889852494,0.5729802035184169,-4.742785222514362
0.35000000000000003,0.10000000000000002,0.1,0.4379422863405995,0.07232050807568881,0.25000000000000006,-30,90.0,-90.0,0.09005640653296934,-0.2696998637883193,0.2402963001907294,0.8245219525878659,0.0010897227263300538,0.5056054994917427,-6.029833482932105
0.35000000000000003,0.10000000000000002,0.1,0.43175694346396576,0.14261223058500827,0.25,15,90.0,-90.0,0.09977992365115827,-0.48883727574530933,0.3343450432400164,0.6968208894134125,0.0013350334541372623,0.5392093018740458,-0.7526201703232073
0.35000000000000003,0.10000000000000002,0.1,0.4179422863405995,0.16232050807568882,0.25000000000000006,30,90.0,-90.0,0.09939919414005355,-0.5223697393384944,0.39612976457015003,0.6074821419413583,0.0022110552769658686,0.5673637800340648,-1.0472541734468062
0.35000000000000003,0.10000000000000002,0.1,0.3776794919243113,0.1879422863405995,0.25,60,90.0,-90.0,0.09353685098480657,-0.5281154792862485,0.5313871838399573,0.40050677883654284,0.0011398612987426027,0.639228204564053,-1.577023551091255
0.35000000000000003,0.10000000000000002,0.1,0.35397519753344553,0.1921097052680666,0.25000000000000006,75,90.0,-90.0,0.08985519378041078,-0.5067573380077683,0.5974201943924816,0.29516034546487374,0.0005936967516681506,0.6790965663381857,-1.8159404220364423
0.25000000000000006,-0.1,0.1,0.2926122305850083,-0.18175694346396576,0.25000000000000006,-75,90.0,-90.0,0.07789613837629646,0.4195318515567467,0.7499966435970778,0.04132212054856074,0.00155582824378521,0.7800043998026136,1.7283712517570793
0.25000000000000006,-0.1,0.1,0.31232050807568884,-0.16794228634059943,0.25,-60,90.0,-90.0,0.08305315487515094,0.40864395385900615,0.6762898736893226,0.16502479420920357,0.0009930475913679485,0.729529285013601,1.4541148229199463
0.25000000000000006,-0.1,0.1,0.33794228634059953,-0.12767949192431122,0.25000000000000006,-30,90.0,-90.0,0.0900931014451682,0.33865055829721674,0.5627333797381475,0.35088299932101985,0.0011546220021908425,0.6575473563637196,0.8608854364878266
0.25000000000000006,-0.1,0.1,0.3421097052680666,-0.10397519753344549,0.25,-15,90.0,-90.0,0.09188475327607647,0.2825480056011465,0.530502818040096,0.40217261068128596,0.002117563125831562,0.6383503982578393,0.541773153022661
0.25000000000000006,-0.1,0.1,0.3400000000000001,-0.07999999999999997,0.25000000000000006,0,90.0,-90.0,0.09248391026981045,0.21830236302618614,0.5194563872271257,0.41966061093464013,0.0017329616778658573,0.6322279674017043,0.21601732394879516
0.25000000000000006,-0.1,0.1,0.3317569434639658,-0.057387769414991754,0.25,15,90.0,-90.0,0.09190748534092552,0.1541935382009782,0.5301405218374219,0.4026865640307792,0.0015110990960230462,0.6374160836095457,-0.10811405533861759
0.25000000000000006,-0.1,0.1,0.2994974746830584,-0.022218254069479762,0.25,45,90.0,-90.0,0.0871419827098133,0.05538742595943302,0.6126260220262694,0.27002260475435,0.0007984890711063173,0.68837757838022,-0.7313269764186036
0.25000000000000006,-0.1,0.1,0.2776794919243113,-0.012057713659400518,0.25,60,90.0,-90.0,0.08306736665297869,0.028446539964264106,0.6763668727460261,0.1651633725593031,0.001755916624545977,0.7294242962586649,-1.0203465047263263
0.25000000000000006,-0.1,0.1,0.25397519753344555,-0.007890294731933437,0.25000000000000006,75,90.0,-90.0,0.07788105880925061,0.017508042004327623,0.7500191179201624,0.040879956815276335,0.0007891186703118787,0.7804872743272943,-1.2923047986315033
0.25000000000000006,-0.1,0.1,0.23000000000000004,-0.009999999999999981,0.25000000000000006,90,90.0,-90.0,0.07177968940232762,0.021264302520066034,0.8292269223583777,-0.09508475895559401,-0.0006417290711152871,0.8375443400548852,-1.5483040225020759
0.15000000000000008,0.05000000000000002,0.1,0.1700000000000001,-0.03999999999999998,0.25000000000000006,-90,90.0,-90.0,0.04864259499685746,0.07524262852887927,1.0715227087228603,-0.5246550666024717,0.0004874924133517937,1.022926560202504,1.6464098067765105
0.15000000000000008,0.05000000000000002,0.1,0.21232050807568886,-0.017942286340599425,0.25,-60,90.0,-90.0,0.06504558500048949,0.03684206125521453,0.8920500916117122,-0.20483876852678343,-0.0007368486179865554,0.8825843668805541,1.084412113448339
0.15000000000000008,0.05000000000000002,0.1,0.23794228634059955,0.022320508075688805,0.25000000000000006,-30,90.0,-90.0,0.07222920475575316,-0.048418623422808546,0.8038207827791413,-0.05082253983975648,0.0011113266891294893,0.8172345797426767,0.4734409938950303
0.15000000000000008,0.05000000000000002,0.1,0.24210970526806663,0.046024802466554535,0.25,-15,90.0,-90.0,0.07284311300544348,-0.10020358476281187,0.7957781818350692,-0.03722093463389807,0.0013167639534079963,0.8125967445996483,0.1600314642684357
0.15000000000000008,0.05000000000000002,0.1,0.1994974746830584,0.12778174593052027,0.25,45,90.0,-90.0,0.05503875665111414,-0.24997650152780446,1.0045922592942806,-0.4043672357188919,-0.00044194017375797956,0.971761782732554,-1.034287431643351
0.15000000000000008,0.05000000000000002,0.1,0.1776794919243113,0.13794228634059952,0.25,60,90.0,-90.0,0.044205147518661905,-0.258400791430613,1.1162078516136398,-0.6055103104176689,0.0008973923434233287,1.0594689220180444,-1.3064410228875023
0.10000000000000007,-0.1,0.1,0.17778174593052032,-0.1494974746830583,0.25,-45,90.0,-90.0,0.041988304960131756,0.27852569139715255,1.131761672080637,-0.6336080434550728,0.001217300347558177,1.0722248684878395,-5.2189738082902
0.10000000000000007,-0.1,0.1,0.19210970526806664,-0.10397519753344549,0.25,-15,90.0,-90.0,0.05356794920626985,0.20184313248840005,1.0120094808582831,-0.41739240819045503,0.0002775678214286619,0.9749630995341436,-5.818856747005309
0.20000000000000007,0.15000000000000002,0.1,0.26232050807568885,0.08205771365940058,0.25,-60,90.0,-90.0,0.07700731375573223,-0.1853886910962558,0.7470101963363296,0.045931635520015925,0.0001783866722350974,0.7770065903023885,-5.420722534386533
0.20000000000000007,0.15000000000000002,0.1,0.2817569434639658,0.19261223058500826,0.25,15,90.0,-90.0,0.07328789307309241,-0.43156753918176644,0.7965059314030329,-0.03874264120021677,0.00035560785286492275,0.8136731413468308,-6.97590338530729
0.20000000000000007,0.15000000000000002,0.1,0.24949747468305838,0.22778174593052025,0.25,45,90.0,-90.0,0.0599397869645973,-0.4681006395104448,0.956244455293615,-0.3178852356112397,-0.000244729054080139,0.9334279511108544,5.028969216024823
0.10000000000000007,-0.05,0.1,0.14261223058500833,-0.13175694346396574,0.25000000000000006,-75,90.0,-90.0,0.018288385998731976,0.23205195006910673,1.3548903384837394,-1.0436956783895066,-0.0006329645714271982,1.2585893985470604,-4.741637846552708
0.10000000000000007,-0.05,0.1,0.16232050807568887,-0.11794228634059944,0.25,-60,90.0,-90.0,0.03772594616140209,0.21584025441520024,1.1742124873360584,-0.7111168340661261,0.0010779114741580813,1.1069729605371323,-5.020085905599686
0.10000000000000007,-0.05,0.1,0.18794228634059956,-0.07767949192431121,0.25000000000000006,-30,90.0,-90.0,0.05382547439687079,0.15051308446825543,1.0101671473023794,-0.41406455250403085,0.00017684258105932031,0.9739450993734492,-5.608201876057241
0.10000000000000007,-0.05,0.1,0.19210970526806664,-0.053975197533445485,0.25,-15,90.0,-90.0,0.05659933362770615,0.10578527637465689,0.9796806166809378,-0.35999171640173633,0.0007157299378951194,0.9500469506011062,-5.916113889982493
0.10000000000000007,-0.05,0.1,0.16794228634059954,0.012320508075688796,0.25000000000000006,30,90.0,-90.0,0.04756377304452799,-0.023081909636609905,1.0759351776814026,-0.5327099485102371,-0.00016101823516962278,1.0280584800905321,-6.8298198095290905
0.10000000000000007,0.15000000000000002,0.1,0.14261223058500833,0.06824305653603428,0.25000000000000006,-75,90.0,-90.0,0.02973579217787557,-0.12201775386970132,1.2488102848483484,-0.848073384184222,0.0013907789241766155,1.1695495534953513,1.1864460065409559
0.10000000000000007,0.15000000000000002,0.1,0.16232050807568887,0.08205771365940058,0.25,-60,90.0,-90.0,0.04144460926520624,-0.15151271096547295,1.1358986773241246,-0.6413445012752039,-0.00015306264630892937,1.0756494395747103,0.8952331665144014
0.10000000000000007,0.15000000000000002,0.1,0.17778174593052032,0.10050252531694172,0.25,-45,90.0,-90.0,0.04761503707960556,-0.19022350356767637,1.0732787832761301,-0.5279010618047865,0.0012647352604920864,1.025292773227157,0.5944074709235957
0.10000000000000007,0.15000000000000002,0.1,0.19210970526806664,0.14602480246655453,0.25,-15,90.0,-90.0,0.049142648238379494,-0.2802125703019374,1.0574416810426128,-0.49924143293336765,0.000694442547472216,1.0123210164600949,-0.018958487670893406
0.10000000000000007,0.15000000000000002,0.1,0.19000000000000006,0.17000000000000004,0.25000000000000006,0,90.0,-90.0,0.04483316029518638,-0.3218764333687519,1.1018045899076732,-0.579520751165283,0.000948015564058561,1.0479705983007879,-0.32248958623685603
0.25000000000000006,-0.2,0.1,0.2700000000000001,-0.29000000000000004,0.25000000000000006,-90,90.0,-90.0,0.055137659478575386,0.5933133100606008,1.012685698756622,-0.4188037558489854,0.00011782567178632118,0.9756990673448206,2.1638342172864196
0.25000000000000006,-0.2,0.1,0.31232050807568884,-0.26794228634059947,0.25,-60,90.0,-90.0,0.07096314223778885,0.6046539295101706,0.8324366749693463,-0.10089358447392678,0.0009236014253453125,0.8382346715938548,1.6517510631583538
0.25000000000000006,-0.2,0.1,0.33794228634059953,-0.22767949192431122,0.25000000000000006,-30,90.0,-90.0,0.08140154260333174,0.5611599454303378,0.6924004925266984,0.13833769209380115,0.0017238861911571981,0.7396655589724084,1.0842696137047032
0.25000000000000006,-0.2,0.1,0.3421097052680666,-0.2039751975334455,0.25,-15,90.0,-90.0,0.08456831223919127,0.5179867205799821,0.6447938236724317,0.21746378181899914,-0.0004453925134312711,0.7079443238102371,0.7807194446781909
0.25000000000000006,-0.2,0.1,0.3317569434639658,-0.15738776941499177,0.25,15,90.0,-90.0,0.08669915894541187,0.40393426644324487,0.6110530355802586,0.27288149241319776,0.0003732925191312315,0.687112802082247,0.14116764063521844
0.25000000000000006,-0.2,0.1,0.3179422863405995,-0.13767949192431123,0.25000000000000006,30,90.0,-90.0,0.08567617835865045,0.34558502643806926,0.6275529382468019,0.24605044229637624,0.001254943670117327,0.696380535206453,-0.17816886164309845
0.25000000000000006,-0.2,0.1,0.2776794919243113,-0.11205771365940052,0.25,60,90.0,-90.0,0.07941150261322542,0.25926236587420387,0.7209801486488135,0.0901748529774319,3.701152224627941e-05,0.760854451298815,-0.787320606373424
0.25000000000000006,-0.2,0.1,0.23000000000000004,-0.10999999999999999,0.25000000000000006,90,90.0,-90.0,0.067661083997216,0.22997759616004756,0.8727863970375722,-0.17108917857335873,-8.982384286288486e-06,0.8699048189040759,-1.3413053061387363
0.30000000000000004,0.0,0.1,0.3426122305850083,-0.08175694346396574,0.25000000000000006,-75,90.0,-90.0,0.09383418693373805,0.22473311629777135,0.5131818060354233,0.42964984802991174,0.00011672051632018805,0.6270764680803592,-4.7486917551615795
0.30000000000000004,0.0,0.1,0.3777817459305203,-0.049497474683058304,0.25,-45,90.0,-90.0,0.09887693126986426,0.15212420710188035,0.3976673605883067,0.6052498802395324,0.0010661016123979343,0.5682760016664885,-5.346564367429677
0.30000000000000004,0.0,0.1,0.3921097052680666,-0.003975197533445482,0.25,-15,90.0,-90.0,0.10045809530527454,0.012491111605719604,0.34578130474559166,0.6802435459829534,0.0011707688343570394,0.5446691820912167,-6.0091749700423565
0.30000000000000004,0.0,0.1,0.38175694346396577,0.04261223058500825,0.25,15,90.0,-90.0,0.09935955306750048,-0.1334644617844098,0.38346043199227225,0.6257683719904983,0.001236975038905064,0.5620999385508759,-6.678833668653707
0.30000000000000004,0.0,0.1,0.3679422863405995,0.0623205080756888,0.25000000000000006,30,90.0,-90.0,0.09761564344365808,-0.18582644051387273,0.43128330090174544,0.5554485756211248,0.0019164071120430983,0.584186046739402,-0.7119649837929926
0.30000000000000004,0.0,0.1,0.28,0.09000000000000002,0.25000000000000006,90,90.0,-90.0,0.08269868116905209,-0.21122976351241493,0.698398039619829,0.12861113706127925,0.0005280747207226218,0.7447591226385827,-1.7816936377008399
0.4,-0.1,0.1,0.42000000000000004,-0.19,0.25000000000000006,-90,90.0,-90.0,0.09886949184643355,0.5959931114074467,0.43257663589580164,0.5531211775367314,0.0018205174778082272,0.5851628663877816,-4.118817915600683
0.4,-0.1,0.1,0.44261223058500826,-0.18175694346396576,0.25000000000000006,-75,90.0,-90.0,0.10078381362236029,0.6146304178368613,0.36656351869650056,0.6506047821391299,0.0003522977879285407,0.5535511330916132,-4.359124159523374
0.4,-0.1,0.1,0.4679422863405995,-0.037679491924311206,0.25000000000000006,30,90.0,-90.0,0.07958020528002964,0.16059112271775694,0.1259790833892563,0.9660673548403269,0.0018437594657486117,0.4791866773202257,-6.648190212001747
0.4,-0.1,0.1,0.4039751975334455,-0.007890294731933437,0.25000000000000006,75,90.0,-90.0,0.09919659907540021,0.02646944254964874,0.3121019024206677,0.7273825442414161,0.0016415592650849723,0.5321025819744905,-1.2846240699367997
0.4,-0.1,0.1,0.38,-0.009999999999999981,0.25000000000000006,90,90.0,-90.0,0.10051365197179575,0.031242126615140812,0.3806302141800246,0.6299212654919203,0.0013115579904641231,0.560190361686799,-1.5409116140145647
0.35000000000000003,-0.15000000000000002,0.1,0.39261223058500827,-0.23175694346396575,0.25000000000000006,-75,90.0,-90.0,0.0913789197779371,0.6460376926025287,0.5657092793855669,0.34647236498743744,-0.00012055858338886691,0.6582010526364701,-4.328566093746051
0.35000000000000003,-0.15000000000000002,0.1,0.4123205080756888,-0.21794228634059948,0.25,-60,90.0,-90.0,0.0949810642041837,0.6484519730343938,0.49699785780157085,0.45491229407541817,-0.0010002810329536932,0.6184084611008077,-4.586013940084421
0.35000000000000003,-0.15000000000000002,0.1,0.4379422863405995,-0.17767949192431123,0.25000000000000006,-30,90.0,-90.0,0.09987484233259246,0.5961095512575164,0.37061982429520474,0.6446832708089928,-0.0007188612532265204,0.5542174890562387,-5.162715882209861
0.35000000000000003,-0.15000000000000002,0.1,0.4421097052680666,-0.15397519753344552,0.25,-15,90.0,-90.0,0.0986141397003746,0.5382086595269953,0.324071849625486,0.711080723488373,0.0001286217350762592,0.5347085238075533,-5.483077977761618
0.15000000000000008,0.0,0.1,0.19261223058500831,-0.08175694346396574,0.25000000000000006,-75,90.0,-90.0,0.056166493789325755,0.15965382252155136,0.9928100655804107,-0.3832176076414658,0.0009457838711108672,0.9605438953971821,1.468016564661338
0.15000000000000008,0.0,0.1,0.2277817459305203,-0.049497474683058304,0.25,-45,90.0,-90.0,0.06899897328709752,0.10447334090007297,0.845032958955106,-0.12217500928685832,-0.0003903942672955338,0.8468978755950871,0.8895203220553396
0.15000000000000008,0.0,0.1,0.23794228634059955,-0.02767949192431121,0.25000000000000006,-30,90.0,-90.0,0.0722193084207065,0.05973945577082531,0.8041676253370765,-0.051927442964013644,-0.00018103935482037954,0.8175422585868776,0.5835755698589116
0.15000000000000008,0.0,0.1,0.24000000000000007,0.020000000000000028,0.25000000000000006,0,90.0,-90.0,0.07282275219333528,-0.04347004184275163,0.7964422696403184,-0.0385449550976867,0.001283141556047108,0.8136702035595252,-0.04411576801518516
0.15000000000000008,0.0,0.1,0.2317569434639658,0.04261223058500825,0.25,15,90.0,-90.0,0.07027843729412442,-0.09063126001719596,0.8290106543375597,-0.09454872338838186,0.00032395825555883983,0.836019663400598,-0.3518280399408625
0.30000000000000004,-0.10000000000000002,0.1,0.32000000000000006,-0.19,0.25000000000000006,-90,90.0,-90.0,0.0834768916358016,0.46363947164265235,0.6836497060334127,0.15331202798508492,5.3065589487858084e-05,0.7330678196188603,2.0339791729706866
0.30000000000000004,-0.10000000000000002,0.1,0.3426122305850083,-0.18175694346396576,0.25000000000000006,-75,90.0,-90.0,0.08806909460439745,0.4703866937324784,0.6121283606559046,0.27107704283139855,-0.0005003810133903118,0.6868826100544514,1.7803855708366687
0.30000000000000004,-0.10000000000000002,0.1,0.36232050807568883,-0.16794228634059946,0.25,-60,90.0,-90.0,0.09205467026527812,0.4615820514994389,0.5429120031987184,0.3826414176243204,-0.00042100610569895065,0.6447047375879401,1.5082788823493367
0.30000000000000004,-0.10000000000000002,0.1,0.3777817459305203,-0.14949747468305832,0.25,-45,90.0,-90.0,0.09521828797287565,0.4340973370235368,0.4804920143529365,0.48006391485202043,0.0014619833120762642,0.6108362623267843,1.2189478002595626
0.30000000000000004,-0.10000000000000002,0.1,0.3921097052680666,-0.1039751975334455,0.25,-15,90.0,-90.0,0.09887118791808479,0.32537859893710896,0.3944007313444725,0.6097454561734582,0.0005115591691871654,0.5655894746478919,0.5872005690826301
0.30000000000000004,-0.10000000000000002,0.1,0.39,-0.07999999999999999,0.25000000000000006,0,90.0,-90.0,0.09936472656490658,0.25238649078600134,0.38106015592629877,0.629461099757043,0.0012545635820085377,0.5604146180919909,0.25227259163910837
0.30000000000000004,-0.10000000000000002,0.1,0.3679422863405995,-0.03767949192431122,0.25000000000000006,30,90.0,-90.0,0.09784749173877001,0.11260577278037592,0.4212001360657088,0.5703163902748352,0.0015300679735413018,0.5797429867758177,-0.41231815681912315
0.30000000000000004,-0.10000000000000002,0.1,0.34949747468305836,-0.022218254069479776,0.25,45,90.0,-90.0,0.09575380018150814,0.06332555277738916,0.46912670378957955,0.4974437158458381,0.0006949042648246254,0.6040094848662092,-0.7235183026888711
0.30000000000000004,-0.10000000000000002,0.1,0.28,-0.009999999999999995,0.25000000000000006,90,90.0,-90.0,0.08440381739263376,0.023588161980996544,0.6698125056756179,0.1761082755600508,0.000865175144169039,0.7258578446409726,-1.5485525791880144
0.30000000000000004,-0.1,0.1,0.32000000000000006,-0.19,0.25000000000000006,-90,90.0,-90.0,0.08348714702216979,0.4637682193969286,0.6835140660534218,0.15341740187940192,-0.0009685563998539295,0.7332367951168619,-4.247059625622356
0.30000000000000004,-0.1,0.1,0.36232050807568883,-0.16794228634059943,0.25,-60,90.0,-90.0,0.09204606145110508,0.461801199323133,0.5432084609361947,0.3823354320331281,-0.0011797798505185453,0.6444336210962145,-4.772823430501242
0.30000000000000004,-0.1,0.1,0.39,-0.07999999999999997,0.25000000000000006,0,90.0,-90.0,0.09937304393074448,0.25255631212048063,0.38075082041698277,0.6297775450302203,8.843442238253458e-05,0.5592983103674253,-6.029845617090854
0.30000000000000004,-0.1,0.1,0.38175694346396577,-0.057387769414991754,0.25,15,90.0,-90.0,0.09902658642360537,0.1783342008691636,0.39040619112648844,0.6157927418269196,0.0007108384627911015,0.5651492277215137,-6.367165958323522
0.30000000000000004,-0.1,0.1,0.34949747468305836,-0.022218254069479762,0.25,45,90.0,-90.0,0.09575486503570142,0.06296049315970713,0.4692342879519191,0.4974318187585608,0.0015239630835484964,0.603935085223218,-0.7232696623468524
0.30000000000000004,-0.1,0.1,0.28,-0.009999999999999981,0.25000000000000006,90,90.0,-90.0,0.08441750523116869,0.023905477333928612,0.669620112184269,0.1765381307704743,0.00022295362175559364,0.7255936834479484,-1.546238392867189
0.25000000000000006,0.10000000000000002,0.1,0.2700000000000001,0.010000000000000023,0.25000000000000006,-90,90.0,-90.0,0.08145990227226237,-0.02321153453900236,0.6998517200300037,0.12584012668877706,0.0007572096565144418,0.7450370601181197,1.5468750335879486
0.25000000000000006,0.10000000000000002,0.1,0.31232050807568884,0.03205771365940058,0.25,-60,90.0,-90.0,0.08923862626558457,-0.0825290064572964,0.5775352062140894,0.3270521405307993,0.0010664011909855221,0.6668863826607498,0.9631435120304421
0.25000000000000006,0.10000000000000002,0.1,0.3400000000000001,0.12000000000000005,0.25000000000000006,0,90.0,-90.0,0.09082696097026789,-0.3216619934141234,0.5499012987569407,0.3715306048534795,0.0013489613278499348,0.6489334716391957,-0.32360214640162505
0.25000000000000006,0.10000000000000002,0.1,0.2776794919243113,0.1879422863405995,0.25,60,90.0,-90.0,0.07389934674011535,-0.41890796075274656,0.8024404158428101,-0.04900697642999842,0.0005772661957927064,0.8179761953853493,-1.4665838646859641
0.20000000000000007,0.0,0.1,0.22000000000000008,-0.09,0.25000000000000006,-90,90.0,-90.0,0.06581158152614305,0.18536642099622933,0.8932801457509449,-0.20668998381671186,-0.0008460342474639774,0.8835418479172952,1.7560494354438427
0.20000000000000007,0.0,0.1,0.29000000000000004,0.020000000000000028,0.25000000000000006,0,90.0,-90.0,0.0847123539270866,-0.04884596273006519,0.6406295425897182,0.22447928538650888,0.00017964971387510312,0.7060276687107316,-0.04820532656905138
0.20000000000000007,0.0,0.1,0.2817569434639658,0.04261223058500825,0.25,15,90.0,-90.0,0.0827731044483909,-0.10163816506537612,0.6700832085557402,0.17541144711500642,0.0006302224521510284,0.724818786605083,-0.364090426046654
0.20000000000000007,0.0,0.1,0.2679422863405995,0.0623205080756888,0.25000000000000006,30,90.0,-90.0,0.07936082626587417,-0.143370652891967,0.7198374754246913,0.09220628663886636,0.0008581200697028172,0.75918147388607,-0.6669717292596995
0.20000000000000007,0.0,0.1,0.24949747468305838,0.07778174593052024,0.25,45,90.0,-90.0,0.07450993103287001,-0.17110374162644185,0.7858403613043693,-0.02005696545785331,0.00040586464422811067,0.8060246059523476,-0.9572266311755093
0.20000000000000007,0.0,0.1,0.20397519753344553,0.09210970526806657,0.25000000000000006,75,90.0,-90.0,0.06041837036498808,-0.1835955864259535,0.9545885917610057,-0.3151043487618684,0.001108449679037228,0.9305384025987216,-1.4939523764805955
0.20000000000000007,-0.2,0.1,0.2426122305850083,-0.28175694346396574,0.25000000000000006,-75,90.0,-90.0,0.045964637134918974,0.5521809195070179,1.1005362049827407,-0.5767715541041776,-0.0005661375902350832,1.0466147137533088,1.8611908147562661
0.20000000000000007,-0.2,0.1,0.26232050807568885,-0.26794228634059947,0.25,-60,90.0,-90.0,0.05659230590106527,0.5492603095618325,0.9898896506827265,-0.3782389517537957,0.0010829394698478184,0.9582576202719334,1.5963154270110562
0.20000000000000007,-0.2,0.1,0.2777817459305203,-0.24949747468305833,0.25,-45,90.0,-90.0,0.06453368441758862,0.5338672600089958,0.9009237966169794,-0.22002679343311446,-0.0004799172430466961,0.8888902785027709,1.32034577716769
0.20000000000000007,-0.2,0.1,0.28794228634059954,-0.22767949192431122,0.25000000000000006,-30,90.0,-90.0,0.07026690144554204,0.5046144477882015,0.8315130876906688,-0.09890539434626648,0.0007731720014803331,0.8382928443218859,1.0272621446205
0.20000000000000007,-0.2,0.1,0.2817569434639658,-0.15738776941499177,0.25,15,90.0,-90.0,0.0763722225904349,0.3598641674401167,0.7521218662667708,0.037696969132065265,0.0009611602991194397,0.7806519990361559,0.09707545003451507
0.20000000000000007,-0.2,0.1,0.2679422863405995,-0.13767949192431123,0.25000000000000006,30,90.0,-90.0,0.07479535806809245,0.30848344810905687,0.7732630405641782,0.0015508956913813977,0.0004417721372669519,0.7954893536530925,-0.21481657301888757
0.20000000000000007,-0.2,0.1,0.24949747468305838,-0.12221825406947977,0.25,45,90.0,-90.0,0.07136779383076469,0.2645832987651776,0.8177098376599038,-0.07497953660497503,0.0017510536447211832,0.8276619806249695,-0.5217883033581203
0.15000000000000008,0.1,0.1,0.1700000000000001,0.010000000000000009,0.25000000000000006,-90,90.0,-90.0,0.049215206037430126,-0.01913948321621467,1.064778533854479,-0.5124097857426099,0.001150653561057203,1.0177676472574844,1.5511097998209626
0.15000000000000008,0.1,0.1,0.19261223058500831,0.018243056536034266,0.25000000000000006,-75,90.0,-90.0,0.05836398408282032,-0.03595963572716952,0.9673915888029372,-0.3377015714256201,-0.000578578948866035,0.9401032585359884,1.2726434896859637
0.15000000000000008,0.1,0.1,0.21232050807568886,0.032057713659400563,0.25,-60,90.0,-90.0,0.06472733747929277,-0.06584335606806688,0.8946772245178229,-0.20916258768919893,0.0013045409687283448,0.8849068220412925,0.9796629872244319
0.15000000000000008,0.1,0.1,0.2277817459305203,0.0505025253169417,0.25,-45,90.0,-90.0,0.06882051363964113,-0.10649897108750002,0.8452278060446683,-0.1228623264662866,0.0002445969787352024,0.8481788531438542,0.6779289941281524
0.15000000000000008,0.1,0.1,0.24210970526806663,0.09602480246655452,0.25,-15,90.0,-90.0,0.07073952668845364,-0.20680584949968248,0.8214338875623325,-0.08125780405806105,0.0009415507759791301,0.8309579762580209,0.05520331178586855
0.25000000000000006,0.25,0.1,0.2700000000000001,0.16,0.25000000000000006,-90,90.0,-90.0,0.07386455815034504,-0.3563582993557162,0.7907835453003618,-0.0286239251538039,0.00100279986141743,0.8085169841033291,1.21389368581162
0.25000000000000006,0.25,0.1,0.2926122305850083,0.16824305653603427,0.25000000000000006,-75,90.0,-90.0,0.07817249646713029,-0.3917387169697634,0.7329631104166598,0.07031713798423658,0.0013367679831883408,0.7671994682143571,0.9153269387784994
0.25000000000000006,0.25,0.1,0.31232050807568884,0.18205771365940054,0.25,-60,90.0,-90.0,0.08086972930045717,-0.4391410435376133,0.6946806654599188,0.13485000624273638,0.0002521493769087267,0.741826072280216,0.6072029757914389
0.25000000000000006,0.25,0.1,0.3277817459305203,0.20050252531694168,0.25,-45,90.0,-90.0,0.08204829326848119,-0.49430316634905175,0.6772292191933792,0.16374931194106163,0.0004089801304840028,0.7287611570525034,0.29014067633895063
0.25000000000000006,0.25,0.1,0.3421097052680666,0.2460248024665545,0.25,-15,90.0,-90.0,0.07959932102364575,-0.6023494966979528,0.7128168719813675,0.10408308183971869,0.0010889099452025257,0.7541185447127421,-0.3421127580395138
0.25000000000000006,0.25,0.1,0.3317569434639658,0.29261223058500824,0.25,15,90.0,-90.0,0.07077860371231985,-0.6713995649664453,0.830014404842615,-0.09657235738340891,-0.0007421751470808248,0.8379293726006485,-0.9319826682270039
0.25000000000000006,0.25,0.1,0.3179422863405995,0.3123205080756888,0.25000000000000006,30,90.0,-90.0,0.06393052065471941,-0.6853663853975058,0.9122041275186107,-0.24026292396981386,0.0010446406300589203,0.8986281596872133,-1.209462575319517
0.25000000000000006,0.25,0.1,0.25397519753344555,0.34210970526806656,0.25000000000000006,75,90.0,-90.0,0.030014599413376152,-0.6541146380081375,1.254323746395139,-0.8580082433171844,-0.0012729445834783243,1.1748738067877642,-1.961727046152691
0.25000000000000006,-0.25,0.1,0.2700000000000001,-0.33999999999999997,0.25000000000000006,-90,90.0,-90.0,0.04014186694449531,0.6691241026424118,1.1598656806856724,-0.6850458697462994,9.395128741819406e-05,1.0952745372135557,2.239276206902803
0.25000000000000006,-0.25,0.1,0.31232050807568884,-0.31794228634059946,0.25,-60,90.0,-90.0,0.06129804351936009,0.6867359866739035,0.9420448102117062,-0.29311828721428107,0.0003387125922252641,0.9209872868730398,1.7337079669727946
0.25000000000000006,-0.25,0.1,0.3277817459305203,-0.2994974746830583,0.25,-45,90.0,-90.0,0.06873203134951163,0.6777239864406411,0.8552379703492309,-0.14049346302174162,-0.0011341365206763035,0.8549720876740213,1.4634998273164568
0.25000000000000006,-0.25,0.1,0.33794228634059953,-0.2776794919243112,0.25000000000000006,-30,90.0,-90.0,0.0744925644320053,0.6541574705051015,0.7824082595928203,-0.014499984542024943,-0.0002603238696983946,0.8020664140755469,1.1773579874266493
0.25000000000000006,-0.25,0.1,0.3179422863405995,-0.18767949192431121,0.25000000000000006,30,90.0,-90.0,0.0814324300781411,0.4566314895724732,0.6863049071044722,0.1485818090075058,0.0012980244498157557,0.7356300413562832,-0.06701562515875319
0.25000000000000006,-0.25,0.1,0.2994974746830584,-0.17221825406947977,0.25,45,90.0,-90.0,0.07922303527862187,0.40584709749466175,0.7182545584786769,0.09511044559416035,0.0009656624709506844,0.7582745896855356,-0.3794501391940924
0.25000000000000006,-0.25,0.1,0.2776794919243113,-0.16205771365940053,0.25,60,90.0,-90.0,0.07545132250637568,0.3663694481807461,0.770013771567736,0.007227808054967242,0.00019939838219272163,0.7935899929735075,-0.6799755346108948
0.25000000000000006,-0.25,0.1,0.25397519753344555,-0.15789029473193344,0.25000000000000006,75,90.0,-90.0,0.07002283164974654,0.34021713898684236,0.8395715360512923,-0.11298828747113975,0.0009784351780716468,0.8445440258869408,-0.9700442423802053
0.25000000000000006,-0.25,0.1,0.23000000000000004,-0.15999999999999998,0.25000000000000006,90,90.0,-90.0,0.0629238187731944,0.32808444855870583,0.9239106765460599,-0.26065348885003475,0.0007773990726221575,0.9076307872194312,-1.244087918398413
0.10000000000000007,0.2,0.1,0.14261223058500833,0.11824305653603427,0.25000000000000006,-75,90.0,-90.0,0.02181673836272161,-0.20890260200561653,1.3214720925745496,-0.98158137493058,-0.00026551086083759977,1.229701091952702,1.1005949028012316
0.10000000000000007,0.2,0.1,0.17778174593052032,0.1505025253169417,0.25,-45,90.0,-90.0,0.04156727747755564,-0.280743778189068,1.1331873501707839,-0.6363094660063437,0.0010204540318240964,1.0740716851654708,0.5050241091281694
0.10000000000000007,0.2,0.1,0.19210970526806664,0.19602480246655452,0.25,-15,90.0,-90.0,0.04104381786723934,-0.3684302644225204,1.1384054132126726,-0.6457968239963208,0.0009165658236674479,1.07734943742932,-0.1074528978763505
0.30000000000000004,0.25,0.1,0.3426122305850083,0.16824305653603427,0.25000000000000006,-75,90.0,-90.0,0.0880454459459977,-0.4401313903137293,0.5949135575340381,0.29946332797629316,0.0008163195886803182,0.6758275316339203,0.8689064479036448
0.30000000000000004,0.25,0.1,0.36232050807568883,0.18205771365940054,0.25,-60,90.0,-90.0,0.08998994284257723,-0.4945191481481628,0.5614044929059003,0.3529262560652521,0.00014517711688801513,0.6555852906731181,0.5519350522666038
0.30000000000000004,0.25,0.1,0.3777817459305203,0.20050252531694168,0.25,-45,90.0,-90.0,0.09065144320369813,-0.5568886374707772,0.549923837313919,0.3715930201402894,0.0010273164937592652,0.648194038555914,0.2280823372460623
0.30000000000000004,0.25,0.1,0.3879422863405995,0.2223205080756888,0.25000000000000006,-30,90.0,-90.0,0.09006530248306745,-0.6190848933907944,0.5602066132663359,0.3549989816957494,0.001104755195172027,0.6549863661725646,-0.09667095119529624
0.30000000000000004,0.25,0.1,0.39,0.27,0.25000000000000006,0,90.0,-90.0,0.08508913500058686,-0.7164767410783903,0.6424511848248824,0.22141210239211304,0.000488148346470894,0.7075096377657184,-0.7158465883841582
0.30000000000000004,0.25,0.1,0.34949747468305836,0.32778174593052023,0.25,45,90.0,-90.0,0.06881515553757384,-0.7518916456013205,0.8631712134056243,-0.15414362146978666,0.0006413010001791976,0.8619272564287946,-1.5368364736813689
0.30000000000000004,0.25,0.1,0.3276794919243113,0.3379422863405995,0.25,60,90.0,-90.0,0.06142649855089215,-0.7370002801845221,0.9482688870957123,-0.3039046596640428,0.0007119474452481161,0.9266924785563065,-1.7853412413811172
0.35000000000000003,0.2,0.1,0.37000000000000005,0.11000000000000001,0.25000000000000006,-90,90.0,-90.0,0.096334540616061,-0.32160438473020375,0.45986902962854254,0.5121632028570198,-7.130102885296826e-05,0.5981896653150623,-5.033257860109563
0.35000000000000003,0.2,0.1,0.39261223058500827,0.11824305653603427,0.25000000000000006,-75,90.0,-90.0,0.0984887467007841,-0.3675467019116339,0.4070894893508549,0.5909476575694852,0.0015778603226123933,0.5732032342479012,-5.342939027530457
0.35000000000000003,0.2,0.1,0.4379422863405995,0.1723205080756888,0.25000000000000006,-30,90.0,-90.0,0.09999358901101142,-0.5814709331335611,0.3625637280417865,0.6565214057539032,-0.000467768570619875,0.5524549755118905,-6.340554113580216
0.35000000000000003,0.2,0.1,0.44000000000000006,0.22000000000000003,0.25000000000000006,0,90.0,-90.0,0.09721883475041393,-0.7024068888554913,0.4392926460584842,0.5430762719255103,-0.000173722114714243,0.5887521007890412,-0.7014181809466381
0.35000000000000003,0.2,0.1,0.4179422863405995,0.2623205080756888,0.25000000000000006,30,90.0,-90.0,0.09092504717730245,-0.7490004747464093,0.5663412506946727,0.3451733534359779,-0.0006916784772184128,0.6598325667201195,-1.2718563884829772
0.35000000000000003,0.2,0.1,0.3776794919243113,0.2879422863405995,0.25,60,90.0,-90.0,0.08207481396843762,-0.7291099571274282,0.70653615970636,0.11489884291434657,0.0012516735040723954,0.7499776940355602,-1.7772262409520987
0.15000000000000008,-0.1,0.1,0.19261223058500831,-0.18175694346396576,0.25000000000000006,-75,90.0,-90.0,0.044770567258854116,0.343835663418859,1.1097543817512185,-0.5938089557265108,0.0007795645873862305,1.0551729565959775,1.651730301614147
0.15000000000000008,-0.1,0.1,0.2277817459305203,-0.1494974746830583,0.25,-45,90.0,-90.0,0.06258761953259805,0.30651987001708075,0.9195203305792682,-0.2530865224431867,0.0008802246318930557,0.9040136637412595,1.0905685373996103
0.15000000000000008,-0.1,0.1,0.23794228634059955,-0.12767949192431122,0.25000000000000006,-30,90.0,-90.0,0.06751491567847695,0.26949870361404316,0.8610728326181629,-0.15073400534320358,0.0007849577559250568,0.8602579057754003,0.7935821845310358
0.15000000000000008,-0.1,0.1,0.24000000000000007,-0.07999999999999997,0.25000000000000006,0,90.0,-90.0,0.07101182846300756,0.17194373912842106,0.8179843367770221,-0.07528061989087399,0.0011951291157681386,0.8274364287939646,0.17129249676854924
0.15000000000000008,-0.1,0.1,0.1994974746830584,-0.022218254069479762,0.25,45,90.0,-90.0,0.06069949068716545,0.04421368628117931,0.9410109308015517,-0.29129810113750765,0.0008162469263217663,0.9205375352917996,-0.7412884006114785
0.15000000000000008,-0.1,0.1,0.15397519753344555,-0.007890294731933437,0.25000000000000006,75,90.0,-90.0,0.040860541174591154,0.014452831123071682,1.1481882695500296,-0.6638957252051826,0.00013053721410553174,1.086982497041051,-1.294167884606278
0.30000000000000004,0.05000000000000002,0.1,0.32000000000000006,-0.03999999999999998,0.25000000000000006,-90,90.0,-90.0,0.0914287924011226,0.10484094928928404,0.5574130831069931,0.35962268946427156,0.001537307385913414,0.6541262223181613,1.6753849213309695
0.30000000000000004,0.05000000000000002,0.1,0.3879422863405995,0.022320508075688805,0.25000000000000006,-30,90.0,-90.0,0.10005281132841824,-0.07175891747750986,0.36023228573750293,0.6596208643016311,0.002103144542902948,0.5512059989677577,0.45040310102186215
0.30000000000000004,0.05000000000000002,0.1,0.39,0.07000000000000005,0.25000000000000006,0,90.0,-90.0,0.09963235709091495,-0.222167769223657,0.3740099812613133,0.6393899569817131,0.0009991788932122525,0.5565781748673387,-0.22350103391466852
0.30000000000000004,0.05000000000000002,0.1,0.34949747468305836,0.12778174593052027,0.25,45,90.0,-90.0,0.09282321022222596,-0.34958921616014327,0.5316100489615387,0.40052931016953053,-0.000789448709192681,0.6396369507328059,-1.1339464216316344
0.10000000000000007,0.1,0.1,0.17778174593052032,0.0505025253169417,0.25,-45,90.0,-90.0,0.050992289379033516,-0.09641229540099396,1.0393882107376453,-0.4667450311695656,5.1089805356655915e-05,0.997200056534219,0.6886412542631868
0.10000000000000007,0.1,0.1,0.19000000000000006,0.12000000000000004,0.25000000000000006,0,90.0,-90.0,0.05122263587243469,-0.2312428371322526,1.0369227654699185,-0.4623768503730445,0.0004743142112293282,0.9969344295638443,-0.23105394855909178
0.25000000000000006,-0.10000000000000002,0.1,0.2700000000000001,-0.19,0.25000000000000006,-90,90.0,-90.0,0.07182140415233353,0.41606899883947024,0.8288801521200934,-0.09422477962582364,-0.0013297293360443343,0.8357382886631791,-4.294981001716866
0.25000000000000006,-0.10000000000000002,0.1,0.2926122305850083,-0.18175694346396576,0.25000000000000006,-75,90.0,-90.0,0.07790140458588957,0.41961598421673646,0.7499490620039581,0.04151252574963499,0.0012890131689000646,0.7788925432952108,-4.554671720292143
0.25000000000000006,-0.10000000000000002,0.1,0.31232050807568884,-0.16794228634059946,0.25,-60,90.0,-90.0,0.0830702423867022,0.40873404222001214,0.6761927056064535,0.16539242144149371,0.0007563843588624093,0.7286770408061407,-4.826946851710241
0.25000000000000006,-0.10000000000000002,0.1,0.2994974746830584,-0.022218254069479776,0.25,45,90.0,-90.0,0.0871455174341985,0.05508161402339497,0.6126790441935835,0.2701579911541278,0.0008849033109570521,0.6873962256548276,-0.7315648587780964
0.25000000000000006,-0.10000000000000002,0.1,0.2776794919243113,-0.012057713659400532,0.25,60,90.0,-90.0,0.0830701241352574,0.02825303138270751,0.6761692718909629,0.16535813908689556,0.000830901442798329,0.7283930134368323,-1.019278935285156
0.25000000000000006,-0.10000000000000002,0.1,0.23000000000000004,-0.009999999999999995,0.25000000000000006,90,90.0,-90.0,0.0717949466277839,0.02117607278747772,0.8289612241724478,-0.09474160480093174,0.0005062571651272239,0.8362045405372435,-1.549946303335881
0.15000000000000008,0.10000000000000002,0.1,0.1700000000000001,0.010000000000000023,0.25000000000000006,-90,90.0,-90.0,0.04920742913967667,-0.01883518121171516,1.0650262814971698,-0.5125794656360221,-3.90381681629879e-05,1.0176138879564969,1.552552151010677
0.15000000000000008,0.10000000000000002,0.1,0.19261223058500831,0.01824305653603428,0.25000000000000006,-75,90.0,-90.0,0.05834022883184802,-0.035853012118480625,0.9675778843684149,-0.33816804214343565,0.0008139185875429395,0.9410139156056475,1.2725668136822752
0.15000000000000008,0.10000000000000002,0.1,0.21232050807568886,0.03205771365940058,0.25,-60,90.0,-90.0,0.06474530817672275,-0.06578874518815964,0.8944008982225052,-0.2088364542546949,0.000964937853839733,0.8850044292960885,0.9804391396473376
0.15000000000000008,0.10000000000000002,0.1,0.24000000000000007,0.12000000000000005,0.25000000000000006,0,90.0,-90.0,0.06866462845076678,-0.2553533870283937,0.8471803995990445,-0.12625588180793143,0.0006656558208214766,0.8508739096812467,-0.2552922783621494
0.15000000000000008,0.10000000000000002,0.1,0.21794228634059953,0.16232050807568882,0.25000000000000006,30,90.0,-90.0,0.05797031213509841,-0.324847814172556,0.9715378422280562,-0.3455121355813006,0.0005600539113909989,0.94540221560673,-0.8486314912414595
0.15000000000000008,0.10000000000000002,0.1,0.1994974746830584,0.17778174593052026,0.25,45,90.0,-90.0,0.04870971021896687,-0.34149544196666204,1.0699830960100938,-0.5218191619873628,0.0006631614032060445,1.0226130805220786,-1.126398449178645
0.15000000000000008,1.3877787807814457e-17,0.1,0.1700000000000001,-0.08999999999999998,0.25000000000000006,-90,90.0,-90.0,0.04563481601838661,0.16820332938936194,1.1023745637462552,-0.5801673759439391,0.0011329398906128217,1.0487399935665715,1.7379777881223921
0.15000000000000008,1.3877787807814457e-17,0.1,0.23794228634059955,-0.027679491924311198,0.25000000000000006,-30,90.0,-90.0,0.07220491094848236,0.05948638214749132,0.80438563168298,-0.05225179899530942,0.0017151469856773304,0.8190045999502299,0.5824546220180887
0.15000000000000008,1.3877787807814457e-17,0.1,0.24210970526806663,-0.003975197533445468,0.25,-15,90.0,-90.0,0.07345369973961344,0.008676915311602605,0.7882601297592556,-0.024361770959092786,0.0011842457083397796,0.8068002042954718,0.269011087708219
0.15000000000000008,1.3877787807814457e-17,0.1,0.24000000000000007,0.020000000000000042,0.25000000000000006,0,90.0,-90.0,0.07281751743469644,-0.04338023023603929,0.7966028796757136,-0.03864618305494613,0.0008165692492374566,0.813526546218514,-0.04426981665452055
0.20000000000000007,-0.1,0.1,0.26232050807568885,-0.16794228634059943,0.25,-60,90.0,-90.0,0.07134042221339364,0.3664422206806473,0.8241774052748773,-0.086249164639994,-0.0005978679265631706,0.8318362022694132,-4.8682673374669765
0.20000000000000007,-0.1,0.1,0.2921097052680666,-0.10397519753344549,0.25,-15,90.0,-90.0,0.08249718182871738,0.24954217925617744,0.6716203814121724,0.1728017519875669,-0.00016865228952306138,0.7260650546823375,-5.77150374896542
0.20000000000000007,-0.1,0.1,0.24949747468305838,-0.022218254069479762,0.25,45,90.0,-90.0,0.07584837597523153,0.048970326609168634,0.7656537559520082,0.01428653967125738,0.0010381387620748653,0.7905257652263733,5.545726702875464
0.20000000000000007,-0.1,0.1,0.22767949192431128,-0.012057713659400518,0.25,60,90.0,-90.0,0.0703219118039093,0.025219038594766582,0.836925056345029,-0.10842450809890669,0.0014951829355424587,0.8427187614088036,5.259388040052483
0.20000000000000007,-0.1,0.1,0.18000000000000005,-0.009999999999999981,0.25000000000000006,90,90.0,-90.0,0.054227373939109126,0.019017993470546522,1.0196905455169867,-0.4314240816451107,0.0007145456557041064,0.982977678186103,4.730252465121168
0.20000000000000007,0.05000000000000002,0.1,0.22000000000000008,-0.03999999999999998,0.25000000000000006,-90,90.0,-90.0,0.06779147785083071,0.08287435943898692,0.8692052967763257,-0.16463376863308488,0.0011493336648792812,0.8657927783952571,1.6519751169917105
0.20000000000000007,0.05000000000000002,0.1,0.2426122305850083,-0.03175694346396572,0.25000000000000006,-75,90.0,-90.0,0.0741704063031572,0.06946535358793085,0.789599439975904,-0.026615612447637875,-0.0003499038108737673,0.806983827592506,1.37883469045524
0.20000000000000007,0.05000000000000002,0.1,0.26232050807568885,-0.017942286340599425,0.25,-60,90.0,-90.0,0.07900622880838509,0.0407358907270685,0.7242276649065993,0.08487841248382887,0.0014986325314909998,0.7616442491709302,1.0873176747265698
0.20000000000000007,0.05000000000000002,0.1,0.2817569434639658,0.09261223058500827,0.25,15,90.0,-90.0,0.08109743918161527,-0.21801189640541377,0.6944599686453551,0.13514148084288194,0.0010648022522256057,0.7408494755660815,-0.48000247967727083
0.20000000000000007,0.05000000000000002,0.1,0.24949747468305838,0.12778174593052027,0.25,45,90.0,-90.0,0.07156388760868529,-0.2765495256024859,0.8230582076551992,-0.0841893256861169,0.0006091681943067833,0.8321840826827678,-1.0629141683789378
0.20000000000000007,0.05000000000000002,0.1,0.18000000000000005,0.14000000000000004,0.25000000000000006,90,90.0,-90.0,0.045784996639691544,-0.26316265063532035,1.1065447831146362,-0.5879721719949369,0.0010202257016169284,1.052083950739878,-1.8342969054267722
0.25000000000000006,-0.15000000000000002,0.1,0.2700000000000001,-0.24000000000000002,0.25000000000000006,-90,90.0,-90.0,0.06494585650042897,0.5090837171995621,0.9079631276693317,-0.2328857469964618,0.0005940119541678467,0.8949063730862634,2.0797637683206704
0.25000000000000006,-0.15000000000000002,0.1,0.2926122305850083,-0.23175694346396575,0.25000000000000006,-75,90.0,-90.0,0.07195321190549332,0.5172329167688138,0.8241620548722423,-0.08624609089677439,0.0007411637127405654,0.8319674454753284,1.8264438530666687
0.25000000000000006,-0.15000000000000002,0.1,0.31232050807568884,-0.21794228634059948,0.25,-60,90.0,-90.0,0.07798780501463588,0.5119282894243619,0.7452594670211025,0.049101119081391184,0.0005514785481462866,0.7758948376115353,1.5584818780670144
0.25000000000000006,-0.15000000000000002,0.1,0.3400000000000001,-0.13,0.25000000000000006,0,90.0,-90.0,0.09007656152191977,0.34639659341596857,0.5592248123537961,0.35657524724156925,0.0014126308874641779,0.6551411745405532,0.3446189422398566
0.25000000000000006,0.05000000000000002,0.1,0.2926122305850083,-0.03175694346396572,0.25000000000000006,-75,90.0,-90.0,0.08591407553895379,0.0776886257095162,0.6348548151578078,0.23391920940910374,-6.279068763935958e-05,0.7011802902123184,1.387669499138548
0.25000000000000006,0.05000000000000002,0.1,0.33794228634059953,0.022320508075688805,0.25000000000000006,-30,90.0,-90.0,0.09351197261073414,-0.0617915312313243,0.5019319742610825,0.44664174859524297,0.0015332985373490132,0.6228432063270622,0.4611962090801975
0.25000000000000006,0.05000000000000002,0.1,0.3421097052680666,0.046024802466554535,0.25,-15,90.0,-90.0,0.09381680660996125,-0.1279790154891105,0.4961077353997946,0.4558300218392857,0.0007133979221634781,0.6180742573358337,0.13225230666684423
0.25000000000000006,0.05000000000000002,0.1,0.3400000000000001,0.07000000000000005,0.25000000000000006,0,90.0,-90.0,0.09294241436730016,-0.19235820754909505,0.5130437567044612,0.42938524070697476,0.0012457735737936907,0.6276821554325941,-0.1940856760663072
0.25000000000000006,0.05000000000000002,0.1,0.3179422863405995,0.11232050807568882,0.25000000000000006,30,90.0,-90.0,0.08781650418620474,-0.28586505158274716,0.6041841179141273,0.2841754508495091,0.001110595031222734,0.6821019517039576,-0.8099677141572063
0.25000000000000006,0.05000000000000002,0.1,0.25397519753344555,0.1421097052680666,0.25000000000000006,75,90.0,-90.0,0.0725048200695785,-0.30852044706839854,0.821917337218423,-0.08256958984804713,0.001179647599446691,0.831350581398395,-1.618448947585721
0.4,0.15000000000000002,0.1,0.42000000000000004,0.060000000000000026,0.25000000000000006,-90,90.0,-90.0,0.09547021299596523,-0.21109964480139448,0.2830224834532228,0.7676991928211349,0.0002367831407889589,0.519486183585641,1.3586406356299001
0.4,0.15000000000000002,0.1,0.47778174593052025,0.10050252531694172,0.25,-45,90.0,-90.0,0.08188271145097985,-0.4246460732925249,0.15409363271613916,0.9329798768151529,0.0013075697406447074,0.48391682774615213,0.36019188141150327
0.4,0.15000000000000002,0.1,0.4921097052680666,0.14602480246655453,0.25,-15,90.0,-90.0,0.08500647295721224,-0.612768238676682,0.1856017821525456,0.8941999256405792,0.0021939082430906115,0.49031795306981635,-0.35326890655376103
0.4,0.15000000000000002,0.1,0.49,0.17000000000000004,0.25000000000000006,0,90.0,-90.0,0.09044933736615707,-0.6805091601793772,0.23512644587899326,0.8309043409230117,0.0002888633302054438,0.5054253554867679,-0.6807819227946033
0.4,0.15000000000000002,0.1,0.48175694346396575,0.19261223058500826,0.25,15,90.0,-90.0,0.09705906840455034,-0.7234098378002799,0.2970254747787783,0.748462819584589,0.0020851448934730036,0.525447329903588,-0.9877749062242814
0.4,0.15000000000000002,0.1,0.4679422863405995,0.2123205080756888,0.25000000000000006,30,90.0,-90.0,0.10052874098577504,-0.740787917569386,0.36500565970060356,0.6526498175461477,-0.0004741068122075221,0.5535212492105288,-1.2643320739433306
0.4,0.15000000000000002,0.1,0.44949747468305834,0.22778174593052025,0.25,45,90.0,-90.0,0.09852969284346116,-0.7377739924203857,0.43340513926803537,0.5518036418374229,0.00023285151164029769,0.5862403614174756,-1.5223642186250133
0.4,0.15000000000000002,0.1,0.4039751975334455,0.24210970526806658,0.25000000000000006,75,90.0,-90.0,0.09260286724763646,-0.6855316916631297,0.5584550005456578,0.3578514035514415,-0.000997547570478379,0.6552558861561215,-1.993772882317078
0.4,0.15000000000000002,0.1,0.38,0.24000000000000005,0.25000000000000006,90,90.0,-90.0,0.08961968329300098,-0.6432532750568211,0.6096370861165544,0.27501299006609686,-0.0016129054148286374,0.6863605100995802,-2.213692728205503
0.35000000000000003,-0.10000000000000002,0.1,0.37000000000000005,-0.19,0.25000000000000006,-90,90.0,-90.0,0.09236137769139394,0.5224810111479519,0.5534400641153865,0.36578652700727377,-0.0010711839939507627,0.6510840655729844,-4.188188866236593
0.35000000000000003,-0.10000000000000002,0.1,0.39261223058500827,-0.18175694346396576,0.25000000000000006,-75,90.0,-90.0,0.09581133898450961,0.5342486145049448,0.4857179479043026,0.47226522571649293,-0.0015836405873204096,0.6122402256453999,-4.439410102029478
0.35000000000000003,-0.10000000000000002,0.1,0.4379422863405995,-0.12767949192431122,0.25000000000000006,-30,90.0,-90.0,0.09626171404735952,0.4532693547169492,0.29797239978318935,0.7470984759142764,-0.00042906488506897736,0.5246368535488284,-5.304961997698695
0.35000000000000003,-0.10000000000000002,0.1,0.4421097052680666,-0.1039751975334455,0.25,-15,90.0,-90.0,0.09196109981561001,0.38349660685634307,0.25847520823321873,0.8003434750968922,-9.40144913042769e-05,0.5109180127606003,-5.636825385646758
0.35000000000000003,-0.10000000000000002,0.1,0.44000000000000006,-0.07999999999999999,0.25000000000000006,0,90.0,-90.0,0.09015779387964014,0.29807187565137694,0.24095774653760788,0.8238794871340842,0.0015559445281347795,0.5059909901839964,-5.986887722976595
0.35000000000000003,-0.10000000000000002,0.1,0.43175694346396576,-0.05738776941499177,0.25,15,90.0,-90.0,0.09097134963883036,0.210616878051685,0.24759460376478432,0.8147481781257675,0.0015325746959315729,0.5089965943375823,-6.334754652570915
0.35000000000000003,-0.10000000000000002,0.1,0.39949747468305835,-0.022218254069479776,0.25,45,90.0,-90.0,0.09940351511920899,0.0738839458255166,0.32717275245354427,0.7064679835879779,0.0011335985685709104,0.5379733170468775,5.570561864519275
0.10000000000000007,0.0,0.1,0.19000000000000006,0.020000000000000028,0.25000000000000006,0,90.0,-90.0,0.05672758599302673,-0.03939465124762273,0.9785656755305429,-0.35808782524395355,0.0008460286744542064,0.9507722664291497,-6.323198273799588
0.10000000000000007,0.0,0.1,0.18175694346396581,0.04261223058500825,0.25,15,90.0,-90.0,0.052991348911379195,-0.08214006331843485,1.0194374432300566,-0.4307152787793553,0.0002783667122447928,0.9828464744221826,-6.627174830594048
0.10000000000000007,0.0,0.1,0.16794228634059954,0.0623205080756888,0.25000000000000006,30,90.0,-90.0,0.045885481817694675,-0.11662439390467574,1.0935455604042452,-0.5642625883186618,9.898368124644269e-05,1.0424859733772958,-6.923026374147989
0.10000000000000007,0.0,0.1,0.14949747468305838,0.07778174593052024,0.25,45,90.0,-90.0,0.03419782368449834,-0.1405525155824226,1.2083845052776612,-0.7735613162627861,0.0009217276650882422,1.1354842124202584,5.357498663691392
0.10000000000000007,0.0,0.1,0.1276794919243113,0.08794228634059949,0.25,60,90.0,-90.0,0.0007805472316683077,-0.15244738400077756,1.5089661090282123,-1.3303950672608205,2.834807632047397e-05,1.3931316332526704,5.083262369715147
0.35000000000000003,-0.2,0.1,0.39261223058500827,-0.28175694346396574,0.25000000000000006,-75,90.0,-90.0,0.08522490579173163,0.7415906932814245,0.6598136413306379,0.19274791665329916,0.001492098054477463,0.7179879341373135,2.0494477762424124
0.35000000000000003,-0.2,0.1,0.43175694346396576,-0.15738776941499177,0.25,15,90.0,-90.0,0.10023867709343434,0.5306021334212638,0.3549926765069372,0.6674581043227711,0.0017143733509168016,0.5485181055325108,0.2671332744027193
0.35000000000000003,-0.2,0.1,0.4179422863405995,-0.13767949192431123,0.25000000000000006,30,90.0,-90.0,0.09998479295428818,0.4536712776876619,0.3626413253979689,0.6559080115164889,0.0016426634759972654,0.5514339312974887,-0.07136921705998277
0.35000000000000003,-0.2,0.1,0.39949747468305835,-0.12221825406947977,0.25,45,90.0,-90.0,0.09900909071638947,0.3863003715627923,0.3931016024622601,0.6117452143316022,0.0016328447712460191,0.5657787518418236,-0.39948473506010174
0.35000000000000003,-0.2,0.1,0.35397519753344553,-0.10789029473193344,0.25000000000000006,75,90.0,-90.0,0.09437953000979804,0.3022133220184998,0.5011652867314718,0.448160295668033,0.001033645300118405,0.6211224139424391,-1.0079645224632943
0.20000000000000007,-0.25,0.1,0.2426122305850083,-0.3317569434639657,0.25000000000000006,-75,90.0,-90.0,0.027103541595843703,0.6276774567114882,1.2776514206464415,-0.9010535424950205,-0.0012967188684232585,1.1938129999061922,1.9365305762032916
0.20000000000000007,-0.25,0.1,0.26232050807568885,-0.31794228634059946,0.25,-60,90.0,-90.0,0.043792356181877365,0.62844613438218,1.119450965853761,-0.6114881589086759,-0.0011850749003250957,1.0620592203914632,1.67537628403294
0.20000000000000007,-0.25,0.1,0.2777817459305203,-0.2994974746830583,0.25,-45,90.0,-90.0,0.05453289804473063,0.6170170553300662,1.0091367802578246,-0.4121691087254423,-0.00032812624063141115,0.9730413894975779,1.4032025906856131
0.20000000000000007,-0.25,0.1,0.28794228634059954,-0.2776794919243112,0.25000000000000006,-30,90.0,-90.0,0.06212197197022152,0.5931083495446954,0.9249491008462456,-0.26259604505254086,-0.00037395875304050064,0.9072475222738504,1.1165948365451943
0.20000000000000007,-0.25,0.1,0.20397519753344553,-0.15789029473193344,0.25000000000000006,75,90.0,-90.0,0.05337777333446326,0.308116817200776,1.0211927548268545,-0.4342848992442623,0.00029100126959813314,0.9833361737550754,-1.0020007925313463
0.20000000000000007,-0.25,0.1,0.18000000000000005,-0.15999999999999998,0.25000000000000006,90,90.0,-90.0,0.04206804205925074,0.2983758243781236,1.1364827957111916,-0.6424334864294863,0.000988248745420001,1.0769475137936886,-1.2728337504523426
0.35000000000000003,0.25,0.1,0.37000000000000005,0.16,0.25000000000000006,-90,90.0,-90.0,0.0933048398181621,-0.45176899962147277,0.5134104184259651,0.42939936472816825,0.001535105054088555,0.6278060466238107,1.1177556550163168
0.35000000000000003,0.25,0.1,0.39261223058500827,0.16824305653603427,0.25000000000000006,-75,90.0,-90.0,0.09559007725331717,-0.5010145835075406,0.4668436404627608,0.5011465014797906,-4.6564352751542084e-05,0.6021247483934755,0.8073895882454273
0.35000000000000003,0.25,0.1,0.44000000000000006,0.27,0.25000000000000006,0,90.0,-90.0,0.09207256454339312,-0.8044078975811129,0.5368367091960953,0.39238872375076994,0.0010558016776100127,0.6416184186934952,-0.8049851857209017
0.35000000000000003,0.25,0.1,0.4179422863405995,0.3123205080756888,0.25000000000000006,30,90.0,-90.0,0.08396590342585827,-0.8365003267930629,0.6712922325595514,0.17340825192908244,0.001210013156285364,0.7258531002725974,-1.3619872557352974
0.35000000000000003,0.25,0.1,0.39949747468305835,0.32778174593052023,0.25,45,90.0,-90.0,0.07876263409841189,-0.8285840619123037,0.7458320088086748,0.048462579650847215,-0.0013924735563295024,0.7772747576172516,-1.613633882223769
0.35000000000000003,0.25,0.1,0.33,0.34,0.25000000000000006,90,90.0,-90.0,0.06215141644535504,-0.7433024605668507,0.9473021114033109,-0.30197529967532927,0.000558639176600688,0.9260536278202068,-2.3142105638698296
0.20000000000000007,-0.10000000000000002,0.1,0.22000000000000008,-0.19,0.25000000000000006,-90,90.0,-90.0,0.05578979008018687,0.3767370076595032,1.0032639787144948,-0.4017070611596196,0.00036827292357061777,0.9691448501574199,1.9470600774268418
0.20000000000000007,-0.10000000000000002,0.1,0.29000000000000004,-0.07999999999999999,0.25000000000000006,0,90.0,-90.0,0.08314875737783234,0.19273793796892902,0.6619148713703573,0.18909328834500624,0.0011363380013633595,0.7186656037049594,0.1914796625770246
0.20000000000000007,-0.10000000000000002,0.1,0.2679422863405995,-0.03767949192431122,0.25000000000000006,30,90.0,-90.0,0.07984269015136204,0.08694915124850519,0.7106936900576217,0.10792399669322451,0.0002091476229609952,0.7516611272078861,-0.43625033035832333
0.20000000000000007,-0.10000000000000002,0.1,0.20397519753344553,-0.00789029473193345,0.25000000000000006,75,90.0,-90.0,0.06318344489862385,0.015780550117030348,0.9218749697586054,-0.2569469423147128,0.0009799360978923733,0.9049677618265161,-1.2935992460971824
0.10000000000000007,-0.15000000000000002,0.1,0.17778174593052032,-0.19949747468305834,0.25,-45,90.0,-90.0,0.031686037504200626,0.3647202706904806,1.230647606896885,-0.8142940339364847,0.0008854914386645235,1.1539368272901354,1.1502347579777743
0.10000000000000007,-0.15000000000000002,0.1,0.18794228634059956,-0.17767949192431123,0.25000000000000006,-30,90.0,-90.0,0.042562199695873354,0.33403097207728666,1.124865789095896,-0.621084101956065,0.00022190178122886983,1.0662617651962807,0.8578509433525299
0.10000000000000007,-0.15000000000000002,0.1,0.19000000000000006,-0.13,0.25000000000000006,0,90.0,-90.0,0.05008741644070677,0.24952307097357168,1.0476446068531167,-0.481351960841549,0.0009439908253228355,1.0036364779134264,0.24875305742428125
0.10000000000000007,-0.15000000000000002,0.1,0.18175694346396581,-0.10738776941499177,0.25,15,90.0,-90.0,0.04879971095207865,0.20444497006626158,1.0610878232526557,-0.5056894168883203,0.0001726095016295281,1.014658852003241,-0.05839205201189828
0.10000000000000007,-0.15000000000000002,0.1,0.16794228634059954,-0.08767949192431122,0.25000000000000006,30,90.0,-90.0,0.04395152796719479,0.16318897238600394,1.110849943954317,-0.5957079852954162,0.0008504753440893318,1.055486018043871,-0.36111140418788024
0.15000000000000008,-0.10000000000000002,0.1,0.1700000000000001,-0.19,0.25000000000000006,-90,90.0,-90.0,0.02898228643898028,0.34409778536425867,1.2606736090787571,-0.869370860123458,0.0005405569696498044,1.1795241209518554,1.914306395745573
0.15000000000000008,-0.10000000000000002,0.1,0.19261223058500831,-0.18175694346396576,0.25000000000000006,-75,90.0,-90.0,0.04484653441030132,0.34381886954296015,1.1090467571786256,-0.5924117047603615,0.0006652035239390159,1.0532536078898227,1.6519297681560516
0.15000000000000008,-0.10000000000000002,0.1,0.21232050807568886,-0.16794228634059946,0.25,-60,90.0,-90.0,0.05527838436856731,0.3316427569578954,1.001056991284707,-0.39782926068895835,1.0020904904567364e-06,0.9670582907787377,1.3786744422788506
0.15000000000000008,-0.10000000000000002,0.1,0.2277817459305203,-0.14949747468305832,0.25,-45,90.0,-90.0,0.06261141815113165,0.3064588030229346,0.9192528740930421,-0.2526143378561435,0.0012400375710142641,0.9036540635680914,1.0906601193437144
0.15000000000000008,-0.10000000000000002,0.1,0.23794228634059955,-0.12767949192431122,0.25000000000000006,-30,90.0,-90.0,0.06756915771451784,0.2695290478245277,0.8606260198001658,-0.1495917410002263,4.959341104012046e-05,0.8587543601542437,0.7923940546379947
0.15000000000000008,-0.10000000000000002,0.1,0.24210970526806663,-0.1039751975334455,0.25,-15,90.0,-90.0,0.07029739455988462,0.22315945931130873,0.8268361688112956,-0.09092576108741306,0.0005728148572662625,0.8351850580474285,0.48438130891970316
0.15000000000000008,-0.10000000000000002,0.1,0.24000000000000007,-0.07999999999999999,0.25000000000000006,0,90.0,-90.0,0.07101050317609449,0.17213567182532666,0.8179615612209563,-0.07531587968218201,0.0005177395329433647,0.8276910947499639,0.17122678863599192
0.15000000000000008,-0.10000000000000002,0.1,0.2317569434639658,-0.05738776941499177,0.25,15,90.0,-90.0,0.06970707826759419,0.12173352830783216,0.8342342950498658,-0.10377446003069732,0.0014347420846707126,0.8399153416399406,-0.14174381323674365
0.15000000000000008,-0.10000000000000002,0.1,0.21794228634059953,-0.03767949192431122,0.25000000000000006,30,90.0,-90.0,0.06629768878516974,0.07784141492662622,0.8761129535501743,-0.17648962594883263,0.0006790864154070537,0.8715526213224352,-0.44684708252855476
