fryumbla/Robot-Manipulability/log/indyrobot_manip_2021-04-17_22-52-34.csv
TCP x,TCP y,TCP z,eef x,eef y,eef z,Cr(rzyz),Pitch(rzyz),Roll(rzyz),Manipulability,joint0,joint1,joint2,joint3,joint4,joint5
-0.1,0,0.2,-0.10000000000000005,0.23000000000000007,0.2,-90,90.0,-90.0,0.09327962883752543,0.8762843145209612,-1.2476774966502735,-1.431306092200844,-0.7485207477992223,-1.9202515475389168,1.262237489892607
-0.1,0,0.2,-0.15952838037357978,0.22216294004648574,0.19999999999999998,-75,90.0,-90.0,0.11650189468508979,0.9888072638506553,-1.095047293556296,-1.872253318737917,-0.8513347115450417,-1.6853838236596075,1.4396831130841206
-0.1,0,0.2,-0.21500000000000002,0.19918584287042088,0.19999999999999998,-60,90.0,-90.0,0.12782941780846152,1.0732344542472751,-0.9811495689890919,-2.2707350814388385,-1.0236266062311672,-1.5127005289170659,1.6645625682056757
-0.1,0,0.2,-0.26263455967290594,0.16263455967290594,0.19999999999999998,-45,90.0,-90.0,0.08553305587266699,1.0810693627329955,-0.910968577654311,-2.6310386328096964,-1.296318170089801,-1.4573465795632554,1.9557738431070133
-0.1,0,0.2,-0.29918584287042094,0.115,0.19999999999999998,-30,90.0,-90.0,0.04844042971890852,0.8846435135739654,-0.9359574023206126,-2.9340008466465872,-1.6912990595253279,-1.6787696910961794,2.291897649141661
-0.1,0,0.2,-0.3221629400464857,0.05952838037357977,0.19999999999999996,-15,90.0,-90.0,0.06293622928925197,1.0747136037031506,-1.1889369662324294,-2.2494574096084645,1.346710356838774,1.6380350869466331,-1.2811465183633712
-0.1,0,0.2,-0.3221629400464857,-0.05952838037357975,0.19999999999999993,15,90.0,-90.0,0.06856487546178337,2.0285309675980625,1.1167461747986724,2.204736430682256,-1.3774630043872662,-1.6047405066431908,1.3952840427411106
-0.1,0,0.2,-0.29918584287042094,-0.115,0.2,30,90.0,-90.0,0.10613653075238652,2.112746302963308,0.9176862305606098,1.9243485022374476,-1.552533173960412,-1.5649414153822443,1.8698166604233728
-0.1,0,0.2,-0.26263455967290594,-0.1626345596729059,0.19999999999999993,45,90.0,-90.0,0.1379482035747464,2.2085919890435664,0.9096847595517266,1.626999487808969,-1.6920727944803662,-1.6538381120131285,2.170661789033284
-0.1,0,0.2,-0.21500000000000002,-0.1991858428704209,0.19999999999999998,60,90.0,-90.0,0.13049341683843066,2.303261317818842,0.9812964593559929,1.3103092223966708,-1.7819932188481056,-1.8064876456309793,2.3948742926674136
-0.1,0,0.2,-0.15952838037357978,-0.22216294004648574,0.2,75,90.0,-90.0,0.1090799354638445,2.394145644678608,1.094776905712635,0.9647775558363844,-1.8132731704479756,-1.9949529829897756,2.6002326155206408
-0.1,0,0.2,-0.10000000000000005,-0.23000000000000007,0.2,90,90.0,-90.0,0.08081434803089756,2.4756962603559014,1.246121834440993,0.5671651774933126,-1.7568114054964517,-2.2132012997884707,2.836822364215367
-0.1,0.0,0.15000000000000002,-0.10000000000000005,0.23000000000000007,0.15000000000000002,-90,90.0,-90.0,0.08291090436047201,0.6264319949164593,-1.3060998855684844,-0.5983891393731917,1.8024992118751226,2.1581168379416966,3.5449501347888592
-0.1,0.0,0.15000000000000002,-0.15952838037357978,0.22216294004648574,0.15,-75,90.0,-90.0,0.11044146789426407,0.7115693539175334,-1.1692592616646706,-0.9884552016902318,1.832103657996798,1.9421144228932652,-2.5050952475867883
-0.1,0.0,0.15000000000000002,-0.21500000000000002,0.19918584287042088,0.15,-60,90.0,-90.0,0.13125421166258902,0.8051621167215273,-1.0749762815941206,-1.3269456480541248,1.7815434874345752,1.7597143238555943,-2.289879809549095
-0.1,0.0,0.15000000000000002,-0.26263455967290594,0.16263455967290594,0.15,-45,90.0,-90.0,0.13733665049943675,0.9022955316331431,-1.0362298158903993,-1.6328689062413646,1.6743891481361168,1.624688248511111,-2.0403893719068513
-0.1,0.0,0.15000000000000002,-0.29918584287042094,0.115,0.15,-30,90.0,-90.0,0.10705711616400246,0.9996872397840202,-1.0945763425784867,-1.9140745438348816,1.5241486134221232,1.5635993458612123,-1.7027050947844757
-0.1,0.0,0.15000000000000002,-0.3221629400464857,0.05952838037357977,0.14999999999999997,-15,90.0,-90.0,0.07553081467341288,1.07140623017327,-1.359409119603538,-2.1606918656368954,1.3498314401961,1.656846986893993,-1.2017775692739587
-0.1,0.0,0.15000000000000002,-0.3221629400464857,-0.05952838037357975,0.14999999999999994,15,90.0,-90.0,0.08021653781416876,-1.090233365116429,-1.2911730665874859,-2.1225230395162975,1.781338225687345,-1.6282517688339762,1.3051765454373254
-0.1,0.0,0.15000000000000002,-0.29918584287042094,-0.115,0.15000000000000002,30,90.0,-90.0,0.11306551588086285,-1.0132777265208124,-1.0735776078998072,-1.8667029547375649,1.6030905694287432,-1.5637043290407235,1.7726972652034023
-0.1,0.0,0.15000000000000002,-0.26263455967290594,-0.1626345596729059,0.14999999999999994,45,90.0,-90.0,0.13914834160956566,-0.9181576181203297,-1.0364164789371169,-1.582186001352331,1.455094639355507,-1.636556254145098,2.09018872347609
-0.1,0.0,0.15000000000000002,-0.21500000000000002,-0.1991858428704209,0.15,60,90.0,-90.0,0.1283469540194435,-0.8231862561462048,-1.0867213027012252,-1.2722959375927838,1.3542468221861945,-1.7799382881521637,2.33021401942995
-0.1,0.0,0.15000000000000002,-0.15952838037357978,-0.22216294004648574,0.15000000000000002,75,90.0,-90.0,0.10635892510724289,-0.7317068695179524,-1.1882586456531943,-0.9276019244698537,1.3124497665732096,-1.9679068520035625,2.543592352517598
-0.1,0.0,0.15000000000000002,-0.10000000000000005,-0.23000000000000007,0.15000000000000002,90,90.0,-90.0,0.07739420838972118,-0.6499388557969105,-1.3339134762614722,-0.5237716276208364,1.359962450174979,-2.189594293836387,2.7868747452420854
-0.05,-0.05,0.10000000000000002,-0.05000000000000004,0.18000000000000005,0.10000000000000002,-90,90.0,-90.0,0.07586249211175264,0.5393410722730702,-1.4180272762562032,-0.4823862556055528,1.762664295325248,2.0771294532263953,-2.761004911356511
-0.05,-0.05,0.10000000000000002,-0.10952838037357976,0.17216294004648575,0.09999999999999999,-75,90.0,-90.0,0.1067108975516452,0.6118103886321569,-1.2701871309009298,-0.9151647728536434,1.7793992325281938,1.8549685258954969,-2.4970837881533026
-0.05,-0.05,0.10000000000000002,-0.16500000000000004,0.14918584287042086,0.09999999999999999,-60,90.0,-90.0,0.12896444213844976,0.6922550171049452,-1.1820192516422774,-1.2707632474744217,1.701846076662645,1.6772276773928474,-2.2521363431382966
-0.05,-0.05,0.10000000000000002,-0.21263455967290595,0.11263455967290593,0.09999999999999999,-45,90.0,-90.0,0.13734285428761522,0.7725022694135312,-1.162087840194622,-1.580581544692105,1.5594741390880633,1.5650829335372967,-1.9690417102077082
-0.05,-0.05,0.10000000000000002,-0.24918584287042095,0.065,0.09999999999999999,-30,90.0,-90.0,0.11245674988774007,0.841673189473685,-1.252625893558949,-1.8561431658171075,1.3659739109535702,1.5641171031148793,-1.603674917457681
-0.05,-0.05,0.10000000000000002,-0.2721629400464857,-0.10952838037357976,0.09999999999999994,15,90.0,-90.0,0.10657181622158353,2.0825238170276847,1.2916948000465487,1.9091589074344026,-1.3207850834542525,-1.5849010184544274,1.5126091031231286
-0.05,-0.05,0.10000000000000002,-0.24918584287042095,-0.165,0.10000000000000002,30,90.0,-90.0,0.13405214350893974,-0.9828840382228896,-1.1702530567862883,-1.6403517906626717,1.6313639203811565,-1.5495446300222169,1.9010779998998575
-0.05,-0.05,0.10000000000000002,-0.2126345596729059,-0.2126345596729059,0.09999999999999994,45,90.0,-90.0,0.13246670006124459,-0.9053692326930518,-1.1715253302889028,-1.337507828244062,1.4735207553908074,-1.6422580371515298,2.198930035688851
-0.05,-0.05,0.10000000000000002,-0.165,-0.2491858428704209,0.09999999999999999,60,90.0,-90.0,0.11209298843992084,-0.8260969152154745,-1.2469791499106808,-0.9944686275374823,1.379249669756861,-1.8071149155639092,2.4491156614283685
-0.05,-0.05,0.10000000000000002,-0.10952838037357977,-0.2721629400464857,0.1,75,90.0,-90.0,0.08322262704109706,-0.7516328015140143,-1.3812963316040852,-0.5830813255722732,1.3690697183756533,-2.0198010774088466,2.7025431077270787
-0.05,-0.05,0.10000000000000002,-0.05000000000000004,-0.2800000000000001,0.10000000000000002,90,90.0,-90.0,0.037261361440185256,-0.7045106182262649,-1.619254598469009,0.01941992176704737,1.5451925074149253,-2.273932625016151,3.102047196700587
0.0,0.0,0.10000000000000002,-3.611212654972683e-17,0.23000000000000007,0.10000000000000002,-90,90.0,-90.0,0.0452987079038701,-2.4680414799052786,2.0667628802353915,-0.9511471722470224,-1.9096512974622888,2.165580358197247,-3.7015791576363157
0.0,0.0,0.10000000000000002,-0.05952838037357976,0.22216294004648574,0.09999999999999999,-75,90.0,-90.0,0.08840046139251483,0.6414245685734963,-1.3581903353875024,-0.6419142907808928,1.7353991894769254,1.9139192285824822,-2.684275535656723
0.0,0.0,0.10000000000000002,-0.11500000000000003,0.19918584287042088,0.09999999999999999,-60,90.0,-90.0,0.11672327022007073,0.7074116233118484,-1.2276892600506348,-1.0568432314625804,1.6909486345300297,1.7091074733269471,-2.419644973324319
0.0,0.0,0.10000000000000002,-0.16263455967290594,0.16263455967290594,0.09999999999999999,-45,90.0,-90.0,0.13461057880140595,0.7739716946587033,-1.1636178331387446,-1.4007631277213486,1.5610458420418074,1.5642902240544936,-2.1470877775048725
0.0,0.0,0.10000000000000002,-0.19918584287042093,0.115,0.09999999999999999,-30,90.0,-90.0,0.1259819230534208,0.8318362007902589,-1.1865922206879598,-1.7043138589269549,1.3620673058469173,1.5167578672548219,-1.8153088420142685
0.0,0.0,0.10000000000000002,-0.22216294004648574,0.05952838037357977,0.09999999999999996,-15,90.0,-90.0,0.1015117717494865,0.843688506192652,-1.3409294157816147,-1.9700004757733582,1.1118965113551609,1.6456130563773919,-1.4188309072211622
0.0,0.0,0.10000000000000002,-0.2221629400464857,-0.05952838037357975,0.09999999999999994,15,90.0,-90.0,0.03212481316510444,0.2966530617399738,-1.6101831400457587,-2.4736861893407296,0.05808165139978703,2.5118570405691742,-1.5245652490458135
0.0,0.0,0.10000000000000002,-0.19918584287042093,-0.115,0.10000000000000002,30,90.0,-90.0,0.06688239283466464,-0.5366308212159762,-1.1947473730467555,-2.592657569226218,-1.1504091100974856,1.8681152935072955,-2.153002372376023
0.0,0.0,0.10000000000000002,-0.1626345596729059,-0.1626345596729059,0.09999999999999994,45,90.0,-90.0,0.10751324676964004,-0.7974256214910574,-1.1680990598482663,-2.3168337159700387,-1.581564721176026,1.565919931738549,-1.9142867651404474
0.0,0.0,0.10000000000000002,-0.115,-0.1991858428704209,0.09999999999999999,60,90.0,-90.0,0.11198817262993999,-0.8714157826478632,-1.2492503526751308,-1.934732220609215,-1.9179734135634423,1.555676487571344,-1.6108379735689653
0.0,0.0,0.10000000000000002,-0.05952838037357977,-0.22216294004648574,0.1,75,90.0,-90.0,0.08505306071266022,-0.8425423902399845,-1.4021195624141873,-1.4465038316659273,-2.1312672023034276,1.7288761974343159,-1.3238944598540747
0.0,0.0,0.10000000000000002,-3.6112126549726834e-17,-0.23000000000000007,0.10000000000000002,90,90.0,-90.0,0.03165178919909767,-0.6894575665100529,-1.9904168791033439,0.8015438609772135,1.869826097057365,-2.2019071445995686,-2.660481900863931
-0.05,0.0,0.10000000000000002,-0.05000000000000004,0.23000000000000007,0.10000000000000002,-90,90.0,-90.0,0.06418065771303991,-2.545751099329118,1.4769288314760352,0.3278336014412216,-1.414238103406781,2.147848225513798,-2.8600832607600157
-0.05,0.0,0.10000000000000002,-0.10952838037357976,0.22216294004648574,0.09999999999999999,-75,90.0,-90.0,0.09870152825962406,-2.4784889483246166,1.306300514272825,0.7999277213967969,-1.3567181343536607,1.9128940331197304,-2.5686394278094546
-0.05,0.0,0.10000000000000002,-0.16500000000000004,0.19918584287042088,0.09999999999999999,-60,90.0,-90.0,0.12330433046590245,-2.3992487616464233,1.2018456756686777,1.171758565125349,-1.4127802367756535,1.7215085389046862,-2.326180136676901
-0.05,0.0,0.10000000000000002,-0.21263455967290595,0.16263455967290594,0.09999999999999999,-45,90.0,-90.0,0.13793278212954735,-2.3191246097022478,1.1591231107047115,1.4916599804547497,-1.5381714275427187,1.5876210948554943,-2.0622122150133246
-0.05,0.0,0.10000000000000002,-0.24918584287042095,0.115,0.09999999999999999,-30,90.0,-90.0,0.12122729735992609,-2.244730399989491,1.2111415888252413,1.7770931097666058,-1.720385078694869,1.5483560537121304,-1.7215631305310823
-0.05,0.0,0.10000000000000002,-0.2721629400464857,0.05952838037357977,0.09999999999999996,-15,90.0,-90.0,0.09524623182123602,-2.215347013152856,1.4135359318758831,2.0218746800296175,-1.9380544269615017,1.679125911362243,-1.29784718106516
-0.05,0.0,0.10000000000000002,-0.2721629400464857,-0.05952838037357975,0.09999999999999994,15,90.0,-90.0,0.09845654278679589,2.15199653675722,1.3701679835343763,1.9866644615242044,-1.258145645748584,-1.6380882284534388,1.3659336195421445
-0.05,0.0,0.10000000000000002,-0.24918584287042095,-0.115,0.10000000000000002,30,90.0,-90.0,0.12601749264087495,2.1994583686101095,1.1941734859916031,1.7340117509446291,-1.467111521333524,-1.548595848415814,1.782257603471329
-0.05,0.0,0.10000000000000002,-0.2126345596729059,-0.1626345596729059,0.09999999999999994,45,90.0,-90.0,0.13675644689963176,2.278309579120609,1.1609829887774197,1.4431448780531118,-1.6379013856223137,-1.609657300151275,2.10613303001581
-0.05,0.0,0.10000000000000002,-0.165,-0.1991858428704209,0.09999999999999999,60,90.0,-90.0,0.11978023140010047,2.359933387456611,1.2156422361446557,1.11531786172099,-1.7499843215988027,-1.7569608738890996,2.3645099856844207
-0.05,0.0,0.10000000000000002,-0.10952838037357977,-0.22216294004648574,0.1,75,90.0,-90.0,0.09391269197180016,2.4394582974820866,1.329477616302427,0.7322810650130499,-1.7897942132678115,-1.9565932861294149,2.606725870739814
-0.05,0.0,0.10000000000000002,-0.05000000000000004,-0.23000000000000007,0.10000000000000002,90,90.0,-90.0,0.05700196778631467,2.503031015735459,1.515064239464456,0.23174274701814176,-1.7004546984850595,-2.197343795457701,2.9237718097090473
-0.05,-0.05,0.2,-0.05000000000000004,0.18000000000000005,0.2,-90,90.0,-90.0,0.08438975875923527,-2.6020039705150757,1.2345413921657198,0.5909476546518412,-1.4198936947393563,2.0912464103568507,-2.845506052786433
-0.05,-0.05,0.2,-0.10952838037357976,0.17216294004648575,0.19999999999999998,-75,90.0,-90.0,0.11358649396022259,-2.531698472325173,1.0751579997534835,1.0091827765938062,-1.3942432689998703,1.8717323227885587,-2.6003401925641203
-0.05,-0.05,0.2,-0.16500000000000004,0.14918584287042086,0.19999999999999998,-60,90.0,-90.0,0.1343402135665676,-2.4563355460352327,0.9609723211855619,1.3662476369080607,-1.458813409837661,1.6874033962372867,-2.377708190266283
-0.05,-0.05,0.2,-0.21263455967290595,0.11263455967290593,0.19999999999999998,-45,90.0,-90.0,0.13158158121382693,-2.3824243560793934,0.9015273116065055,1.689543334456113,-1.5927997293627156,1.5561545273900999,-2.1203608434571435
-0.05,-0.05,0.2,-0.24918584287042095,0.065,0.19999999999999998,-30,90.0,-90.0,0.09539588772084033,-2.3174319475795055,0.9448794840919642,1.993212274003263,-1.7892973675578103,1.5270461480062503,-1.7685330217183248
-0.05,-0.05,0.2,-0.2721629400464857,0.009528380373579767,0.19999999999999996,-15,90.0,-90.0,0.06438950997731768,-2.3171805639272836,1.2102883811473857,2.2764830743063738,-2.0300061672667615,1.7295233825270881,-1.2617832066301573
-0.05,-0.05,0.2,-0.28,-0.05,0.2,0,90.0,-90.0,0.061093365114026486,-2.6089521584974245,1.6008780899951662,2.481051734133024,-2.354581743561037,2.3405265322881985,-0.9608298209652298
-0.05,-0.05,0.2,-0.2721629400464857,-0.10952838037357976,0.19999999999999993,15,90.0,-90.0,0.08779447867205344,2.083374069367563,0.9740699003637584,2.0548950471363474,-1.3225937178224538,-1.5420876614762902,1.6792760679614605
-0.05,-0.05,0.2,-0.24918584287042095,-0.165,0.2,30,90.0,-90.0,0.12501571546952514,2.146205318053277,0.8993157374631765,1.7541327432554634,-1.5243975361636022,-1.54585433108367,2.057677413666501
-0.05,-0.05,0.2,-0.2126345596729059,-0.2126345596729059,0.19999999999999993,45,90.0,-90.0,0.13716484059132275,2.2211277210307383,0.9443176662896919,1.4349476548830729,-1.6678238744733869,-1.6638014984312417,2.327903630162232
-0.05,-0.05,0.2,-0.165,-0.2491858428704209,0.19999999999999998,60,90.0,-90.0,0.11850377952690294,2.2982727799546403,1.0486332912838787,1.0860828200174246,-1.745676082325053,-1.838782725518182,2.554149403359194
-0.05,-0.05,0.2,-0.10952838037357977,-0.2721629400464857,0.2,75,90.0,-90.0,0.09112579462605506,2.371579034393897,1.1983670297477123,0.6831065485776222,-1.7396685865680164,-2.0529358542013623,2.789833057500829
-0.05,-0.05,0.2,-0.05000000000000004,-0.2800000000000001,0.2,90,90.0,-90.0,0.05126130196257992,2.422963339378697,1.417701815971498,0.15489409252307304,-1.5722116294288595,-2.289828835964397,3.1386168271950554
-0.05,0.05,0.2,-0.05000000000000004,0.2800000000000001,0.2,-90,90.0,-90.0,0.06054929576334281,0.7413849012999544,-2.064276291537418,0.27232041965232695,-1.3720202580701293,-2.2896518222590205,0.296833199987524
-0.05,0.05,0.2,-0.10952838037357976,0.2721629400464857,0.19999999999999998,-75,90.0,-90.0,0.09654834819084597,-2.4100124258278113,1.1682172479563722,0.7602756791295862,-1.3951004905808866,2.007981010798926,-2.743790708847768
-0.05,0.05,0.2,-0.16500000000000004,0.2491858428704209,0.19999999999999998,-60,90.0,-90.0,0.12242617707027245,-2.336213375829243,1.027161629278945,1.1494725865284714,-1.4074366129411007,1.8006937445243438,-2.5167856788550846
-0.05,0.05,0.2,-0.21263455967290595,0.21263455967290595,0.19999999999999998,-45,90.0,-90.0,0.13878769548816364,-2.2599743524625713,0.931559715358463,1.4904543565491093,-1.4985060123223342,1.6343304878357634,-2.2871169070183597
-0.05,0.05,0.2,-0.24918584287042095,0.165,0.19999999999999998,-30,90.0,-90.0,0.11891871146210943,-2.1872881510207454,0.90048671160667,1.8051477006404735,-1.6543742994682715,1.5309119700366762,-2.004647673128282
-0.05,0.05,0.2,-0.2721629400464857,0.10952838037357977,0.19999999999999996,-15,90.0,-90.0,0.08178902199930384,-2.131662020479219,1.008293496374533,2.105180646502301,-1.8705703569011052,1.5618874376817,-1.5968589761856755
-0.05,0.05,0.2,-0.28,0.05,0.2,0,90.0,-90.0,0.05912803289882052,-2.208191591588484,1.3814949622683934,2.3637995801534606,-2.1184155563660774,1.9145063505990494,-1.0642582332862764
-0.05,0.05,0.2,-0.2721629400464857,-0.009528380373579746,0.19999999999999993,15,90.0,-90.0,0.06719138007044041,2.237756038342878,1.1527021790916026,2.2377781313687795,-1.1771521466489276,-1.6672375704191222,1.3404336594767476
-0.05,0.05,0.2,-0.24918584287042095,-0.065,0.2,30,90.0,-90.0,0.10101616292273591,2.2658796759052753,0.926168752776885,1.9496987692033152,-1.4059407019146783,-1.5251432021721185,1.8329457046741244
-0.05,0.05,0.2,-0.2126345596729059,-0.1126345596729059,0.19999999999999993,45,90.0,-90.0,0.13579956095189757,2.3367655351704957,0.9067387839253171,1.6424209935369074,-1.5870794713225402,-1.58248722138038,2.16233385694566
-0.05,0.05,0.2,-0.165,-0.14918584287042091,0.19999999999999998,60,90.0,-90.0,0.13182193324184205,2.413759146819929,0.9756111530162631,1.3160082272066411,-1.7068701463317268,-1.7232856196757507,2.4093229917444825
-0.05,0.05,0.2,-0.10952838037357977,-0.17216294004648575,0.2,75,90.0,-90.0,0.10981353251717593,2.4904330871214486,1.0964199614582224,0.9528741410713563,-1.7563862389513107,-1.9144533282907878,2.6299893462617123
-0.05,0.05,0.2,-0.05000000000000004,-0.18000000000000005,0.2,90,90.0,-90.0,0.07938894641131228,2.5598665489318515,1.2626812515378991,0.5225277125237396,-1.7089695256208723,-2.1367674720823384,2.886942192270822
-0.05,-0.05,0.15000000000000002,-0.05000000000000004,0.18000000000000005,0.15000000000000002,-90,90.0,-90.0,0.08081597125128949,-2.6072924581865595,1.3231034492657126,0.5465091147308092,-1.3984021508001054,2.078376530024455,-2.7976206486213457
-0.05,-0.05,0.15000000000000002,-0.10952838037357976,0.17216294004648575,0.15,-75,90.0,-90.0,0.11072556261719542,-2.5359776517601222,1.1703757120685296,0.970694383590938,-1.3793304023053026,1.8577517413168145,-2.542657947177015
-0.05,-0.05,0.15000000000000002,-0.16500000000000004,0.14918584287042086,0.15,-60,90.0,-90.0,0.1321062008337648,-2.4586033426766205,1.07113050139611,1.3255560478334703,-1.4525516237407454,1.6781077946351628,-2.3092828521538196
-0.05,-0.05,0.15000000000000002,-0.21263455967290595,0.11263455967290593,0.15,-45,90.0,-90.0,0.13485498983219152,-2.3819742462519615,1.0348247988895976,1.6419230856551092,-1.5937601587609376,1.5594593054015025,-2.0362408090015265
-0.05,-0.05,0.15000000000000002,-0.24918584287042095,0.065,0.15,-30,90.0,-90.0,0.10305782709037455,-2.3160312402934387,1.106629586978147,1.93339756068787,-1.791548745636415,1.5475000369386864,-1.6690684566620586
-0.05,-0.05,0.15000000000000002,-0.2721629400464857,0.009528380373579767,0.14999999999999997,-15,90.0,-90.0,0.07729470592610792,-2.3234334554516503,1.3745387951597114,2.185733908682567,-2.024038743987557,1.7636550020010238,-1.1957949123583829
-0.05,-0.05,0.15000000000000002,-0.28,-0.05,0.15000000000000002,0,90.0,-90.0,0.07465351181611654,2.120187951731311,1.457165865750801,2.2267073348469864,-1.0885547247037108,-1.8435498794983065,1.0968017590654962
-0.05,-0.05,0.15000000000000002,-0.2721629400464857,-0.10952838037357976,0.14999999999999994,15,90.0,-90.0,0.09648437338398562,2.0828638057405047,1.1430789734182927,1.9898049432736669,-1.3210655050899542,-1.567873366661439,1.5799796331693976
-0.05,-0.05,0.15000000000000002,-0.24918584287042095,-0.165,0.15000000000000002,30,90.0,-90.0,0.12956099235209473,2.145691755140488,1.0377451155623405,1.705103552924644,-1.5232996560975647,-1.5499818810008699,1.9687238697969374
-0.05,-0.05,0.15000000000000002,-0.2126345596729059,-0.2126345596729059,0.14999999999999994,45,90.0,-90.0,0.13522790768775808,2.223171541065919,1.0583973539690084,1.3933067202830094,-1.6729495934915581,-1.6558258058516289,2.255605015149891
-0.05,-0.05,0.15000000000000002,-0.165,-0.2491858428704209,0.15,60,90.0,-90.0,0.11566503238287458,2.3026357997587494,1.1468865700559192,1.046383450989244,-1.7589483201665566,-1.8265163905071635,2.494269935568324
-0.05,-0.05,0.15000000000000002,-0.10952838037357977,-0.2721629400464857,0.15000000000000002,75,90.0,-90.0,0.08777863732480186,2.3767344111332886,1.2874394133686797,0.6413793521715121,-1.7602870725431825,-2.0391084713106737,2.737463877410798
-0.05,-0.05,0.15000000000000002,-0.05000000000000004,-0.2800000000000001,0.15000000000000002,90,90.0,-90.0,0.04592921685970587,2.427712939041614,1.510239166685343,0.08755794657351243,-1.5935260084763898,-2.283395215656991,3.1063957299545537
0.0,0.05,0.2,-3.611212654972683e-17,0.2800000000000001,0.2,-90,90.0,-90.0,0.037150254177215104,0.7488507086312353,-1.8917147308441162,0.8339834030980682,1.1415290874053716,2.205975246702089,2.4848843833822802
0.0,0.05,0.2,-0.05952838037357976,0.2721629400464857,0.19999999999999998,-75,90.0,-90.0,0.08914009961153624,0.8791095028697459,-1.2476127085776765,-1.4766426544828768,-0.9940856142891885,-1.8071536626766107,1.2237933932073708
0.0,0.05,0.2,-0.11500000000000003,0.2491858428704209,0.19999999999999998,-60,90.0,-90.0,0.11637903389720515,0.9245820600215474,-1.0721580636847692,-1.9623996643041934,-1.1713971897342796,-1.611710092017193,1.4712338166104266
0.0,0.05,0.2,-0.16263455967290594,0.21263455967290595,0.19999999999999998,-45,90.0,-90.0,0.11379098240224514,0.8782734983409863,-0.9524067291062843,-2.3607223810404085,-1.4784176998787102,-1.5552106062717168,1.740596412124844
0.0,0.05,0.2,-0.19918584287042093,0.165,0.19999999999999998,-30,90.0,-90.0,0.0708011136263135,0.638208701560095,-0.9151422839387253,-2.66465291619625,-1.9440452957572585,-1.7396939070233368,1.9774948006720459
0.0,0.05,0.2,-0.22216294004648574,0.10952838037357977,0.19999999999999996,-15,90.0,-90.0,0.027720672978797867,-0.08571229708010791,-1.2228912782181118,-2.7603614012243094,-2.88047857629471,-2.395410529024228,1.764700735028045
0.0,0.05,0.2,-0.23,0.05,0.2,0,90.0,-90.0,0.06804714606383781,-2.3182233579874767,1.2248182339301101,2.3188380286053123,-2.276252962387206,1.8392739920846188,-1.2691537066656942
0.0,0.05,0.2,-0.2221629400464857,-0.009528380373579746,0.19999999999999993,15,90.0,-90.0,0.04873498961766123,-2.649218590580559,1.3986830859272343,2.57180755089468,-2.806028738437878,2.3710818864800816,-1.3252865689213111
0.0,0.05,0.2,-0.19918584287042093,-0.065,0.2,30,90.0,-90.0,0.10846106554462985,-0.7795075475877112,-0.9122922323777576,-1.8656835144575312,1.8218132777363392,-1.475628939828056,1.9216063267717869
0.0,0.05,0.2,-0.1626345596729059,-0.1126345596729059,0.19999999999999993,45,90.0,-90.0,0.1372034418917853,-0.7302358441859558,-0.9197198102106621,-1.5461909541661258,1.6126271553540512,-1.5360696034101118,2.2456926690151073
0.0,0.05,0.2,-0.115,-0.14918584287042091,0.19999999999999998,60,90.0,-90.0,0.12596601028449197,-0.6709407366828903,-1.0083895492282653,-1.201325464953995,1.4830957663850726,-1.6885200566106482,2.496609340579235
0.0,0.05,0.2,-0.05952838037357977,-0.17216294004648575,0.2,75,90.0,-90.0,0.10053697134792881,-0.6089123476477273,-1.149470876976836,-0.8039434676102525,1.4355704307516866,-1.8918245694018279,2.7361619621046662
0.0,0.05,0.2,-3.6112126549726834e-17,-0.18000000000000005,0.2,90,90.0,-90.0,0.0630741763037541,-0.5578508529507117,-1.3569358525281152,-0.294417705166281,1.5201283058953887,-2.125645928171642,3.0460830552660227
-0.05,0.1,0.25,-0.05000000000000004,0.33000000000000007,0.25,-90,90.0,-90.0,0.043983343655341116,0.7652467872830503,-1.3959890078146573,-0.06708293708122746,1.467432813344611,2.330988047326855,-3.290840181561625
-0.05,0.1,0.25,-0.10952838037357976,0.3221629400464857,0.24999999999999997,-75,90.0,-90.0,0.08778483579085304,0.8064402163510319,-1.1477532087776172,-0.6298637802817872,1.6952663208328964,2.1020822274056465,-2.8999224148350455
-0.05,0.1,0.25,-0.16500000000000004,0.2991858428704209,0.24999999999999997,-60,90.0,-90.0,0.11629040175744898,0.8753079804726552,-0.9804012223604616,-1.0438240202227458,1.729126165177244,1.885583492000831,-2.6624525385556272
-0.05,0.1,0.25,-0.21263455967290595,0.26263455967290594,0.24999999999999997,-45,90.0,-90.0,0.13624263344800067,0.9484765056078654,-0.8501224626599587,-1.402470777868114,1.674302752787195,1.696884281632959,-2.4529351351191275
-0.05,0.1,0.25,-0.24918584287042095,0.21500000000000002,0.24999999999999997,-30,90.0,-90.0,0.12791725197126216,1.019557598403185,-0.764884579189149,-1.730712646014567,1.548939379228014,1.5539380758586836,-2.2172158996576488
-0.05,0.1,0.25,-0.2721629400464857,0.15952838037357978,0.24999999999999994,-15,90.0,-90.0,0.08817588896960177,1.0821812290090596,-0.7660379530015384,-2.045723969452546,1.3568718348750175,1.49722159766258,-1.8934835272191812
-0.05,0.1,0.25,-0.28,0.1,0.25,0,90.0,-90.0,0.052027796085450155,1.0932724591225025,-1.0099054711068205,-2.358905855874448,1.1035325615232248,1.6736594934152915,-1.3676005296743377
-0.05,0.1,0.25,-0.2721629400464857,0.040471619626420256,0.24999999999999992,15,90.0,-90.0,0.04939545914026414,2.3484359284041703,1.061179159838404,2.3900286996958378,-1.0758947275254185,-1.7206963446994865,1.298924219956783
-0.05,0.1,0.25,-0.24918584287042095,-0.015,0.25,30,90.0,-90.0,0.08373822675708195,2.343339751627618,0.7763366403396155,2.0802577444825623,-1.3309840607849641,-1.5003025896240352,1.8467875796496431
-0.05,0.1,0.25,-0.2126345596729059,-0.0626345596729059,0.24999999999999992,45,90.0,-90.0,0.12401416777687836,2.404085138474529,0.7599378314342199,1.7651729580493227,-1.530678225567578,-1.5429077494074146,2.1857843175251572
-0.05,0.1,0.25,-0.165,-0.0991858428704209,0.24999999999999997,60,90.0,-90.0,0.13761686986390068,2.475039842462986,0.8381779696381427,1.4384269537694512,-1.664511040011162,-1.678908757071507,2.430474177761955
-0.05,0.1,0.25,-0.10952838037357977,-0.12216294004648573,0.25,75,90.0,-90.0,0.11874310046924243,2.548538332534009,0.9649513404691495,1.0827277738917533,-1.7278098334232639,-1.864814951792047,2.641145874963337
-0.05,0.1,0.25,-0.05000000000000004,-0.13000000000000006,0.25,90,90.0,-90.0,0.0913044891696555,2.6177044806766148,1.1278900845908861,0.6783136124928436,-1.7039037809014446,-2.0779903941467412,2.871798845524726
-0.1,-0.05,0.25,-0.10000000000000005,0.18000000000000005,0.25,-90,90.0,-90.0,0.10479556006476129,0.8184137540369703,-1.1067049349589428,-1.6149433162739124,-0.7974729747382763,-1.8721668007896202,1.2754647056176043
-0.1,-0.05,0.25,-0.15952838037357978,0.17216294004648575,0.24999999999999997,-75,90.0,-90.0,0.12497328935073372,0.923543920350992,-0.9561729171029579,-2.036016925562373,-0.9149731496826994,-1.6623136444536035,1.4525993413416998
-0.1,-0.05,0.25,-0.21500000000000002,0.14918584287042086,0.24999999999999997,-60,90.0,-90.0,0.11620555895384363,0.9909803060776198,-0.8364388147544541,-2.422106999572804,-1.1052038508256536,-1.518813435149346,1.6753233716727975
-0.1,-0.05,0.25,-0.26263455967290594,0.11263455967290593,0.24999999999999997,-45,90.0,-90.0,0.0691630321251903,0.946201237006377,-0.7558841166597368,-2.772546660433828,-1.4221285604687157,-1.5103846401575705,1.9527065196440991
-0.1,-0.05,0.25,-0.29918584287042094,0.065,0.24999999999999997,-30,90.0,-90.0,0.08016150558707036,-2.226637538847101,0.7850922937619745,2.1152936990085918,-1.6993157298424297,1.5391248755159352,-1.809917236966538
-0.1,-0.05,0.25,-0.3221629400464857,0.009528380373579767,0.24999999999999994,-15,90.0,-90.0,0.04178693228928049,-2.1895535018791743,1.1588752881760749,2.415136032232936,-1.8966125335863908,1.7174632128981744,-1.162202616963075
-0.1,-0.05,0.25,-0.3221629400464857,-0.10952838037357976,0.24999999999999992,15,90.0,-90.0,0.07442271882456472,1.9714318150010968,0.8050431283713416,2.157217288569424,-1.4333777208607383,-1.5451399715839416,1.7480952329068822
-0.1,-0.05,0.25,-0.29918584287042094,-0.165,0.25,30,90.0,-90.0,0.11574729711386622,2.0605725894967257,0.7500414765733613,1.8527606248162996,-1.599345864601743,-1.5881647194509239,2.1084030357557997
-0.1,-0.05,0.25,-0.26263455967290594,-0.2126345596729059,0.24999999999999992,45,90.0,-90.0,0.1395959333314772,2.151657646690319,0.8103584357131377,1.5416750702092699,-1.7158117271672397,-1.715303811958546,2.3504221142186026
-0.1,-0.05,0.25,-0.21500000000000002,-0.2491858428704209,0.24999999999999997,60,90.0,-90.0,0.12526031570263735,2.24187294899721,0.919290253904057,1.2118310845543352,-1.778175255384705,-1.8861898436231384,2.5486918133530287
-0.1,-0.05,0.25,-0.15952838037357978,-0.2721629400464857,0.25,75,90.0,-90.0,0.10165604245668207,2.3276445906477967,1.0592090321211087,0.849692979840368,-1.7719163049945053,-2.0875608498931375,2.7501304744669612
-0.1,-0.05,0.25,-0.10000000000000005,-0.2800000000000001,0.25,90,90.0,-90.0,0.07061137913838347,2.399242373197443,1.2350526062291478,0.42579230949276126,-1.6542323492516096,-2.308893430165809,3.0184890698887528
-0.1,0.0,0.10000000000000002,-0.10000000000000005,0.23000000000000007,0.10000000000000002,-90,90.0,-90.0,0.0830688120682605,0.8795335812729833,-1.4353427981368008,-1.309555475924861,-0.731547060997967,-1.8720685684909273,1.3100320262784373
-0.1,0.0,0.10000000000000002,-0.15952838037357978,0.22216294004648574,0.09999999999999999,-75,90.0,-90.0,0.10809409883169686,0.9905864213417124,-1.2928821206701662,-1.7710093554126871,-0.8432522483421554,-1.6218886303401914,1.5133931876971105
-0.1,0.0,0.10000000000000002,-0.21500000000000002,0.19918584287042088,0.09999999999999999,-60,90.0,-90.0,0.1199726469202884,1.0684977516522145,-1.2027298468115424,-2.175639320058528,-1.0389626549817466,-1.4500497033487239,1.7753319476917149
-0.1,0.0,0.10000000000000002,-0.26263455967290594,0.16263455967290594,0.09999999999999999,-45,90.0,-90.0,0.08821009741927952,1.0650107552436174,-1.1680620005686013,-2.525079847694007,-1.3309016254530148,-1.4252278368697469,2.1039665550673354
-0.1,0.0,0.10000000000000002,-0.29918584287042094,0.115,0.09999999999999999,-30,90.0,-90.0,0.05687019854625386,0.9067907629566654,-1.2424145066007315,-2.7998921632193383,-1.658667037585099,-1.6814050656895743,2.4660908224302243
-0.1,0.0,0.10000000000000002,-0.29918584287042094,-0.115,0.10000000000000002,30,90.0,-90.0,0.12126304036664325,-1.013647029418587,-1.216872829893059,-1.7947322149982354,1.603435402721608,-1.5656409329599354,1.7013063486998072
-0.1,0.0,0.10000000000000002,-0.26263455967290594,-0.1626345596729059,0.09999999999999994,45,90.0,-90.0,0.13890229193725284,-0.9167354249778122,-1.160990529422165,-1.5221517934891315,1.4522156563296624,-1.6294017221998942,2.0263759856048043
-0.1,0.0,0.10000000000000002,-0.21500000000000002,-0.1991858428704209,0.09999999999999999,60,90.0,-90.0,0.12516003988250463,-0.8203806703946995,-1.1952449379886376,-1.218619500466758,1.3459857001140247,-1.7666893353770046,2.275789663929293
-0.1,0.0,0.10000000000000002,-0.15952838037357978,-0.22216294004648574,0.1,75,90.0,-90.0,0.10260233522825586,-0.7276672120773078,-1.2863548679460193,-0.8749604635683852,1.2983782159333759,-1.9523374228803858,2.497493460120449
-0.1,0.0,0.10000000000000002,-0.10000000000000005,-0.23000000000000007,0.10000000000000002,90,90.0,-90.0,0.07254071365142842,-0.644699212712821,-1.4285806816472464,-0.4599222913880435,1.3391355681674757,-2.1777500510356598,2.7501708182902838
0.05,0.05,0.15000000000000002,-0.00952838037357976,0.2721629400464857,0.15,-75,90.0,-90.0,0.0697770650235681,0.8105742749556533,-1.4121315018908684,-1.2490042364587104,-1.0729918485716003,-1.8146302945250958,1.1529913509615441
0.05,0.05,0.15000000000000002,-0.06500000000000003,0.2491858428704209,0.15,-60,90.0,-90.0,0.10515751507439766,0.8379336278334842,-1.2069123454034762,-1.8070652458450032,-1.2587646173858655,-1.6093650096444851,1.448799312461344
0.05,0.05,0.15000000000000002,-0.11263455967290593,0.21263455967290595,0.15,-45,90.0,-90.0,0.11830009258408926,0.7654442177661225,-1.0848179201267039,-2.2192737254591948,-1.5899011865817225,-1.57316742670926,1.7327677569661155
0.05,0.05,0.15000000000000002,-0.14918584287042091,0.165,0.15,-30,90.0,-90.0,0.07980552326918301,0.5129700468033286,-1.0591433155114418,-2.5063872283753756,-2.065256479038967,-1.7812075768060276,1.9412566866784333
0.05,0.05,0.15000000000000002,-0.17216294004648575,0.10952838037357977,0.14999999999999997,-15,90.0,-90.0,0.04602801032398985,-0.07160666881428517,-1.2629523814491477,-2.54868746743257,-2.899792878443849,-2.227393368232838,1.720805061884234
0.05,0.05,0.15000000000000002,-0.18,0.05,0.15000000000000002,0,90.0,-90.0,0.08694951548861454,-0.5122905116567525,-1.3402504089429803,-2.270352452475905,2.577869886855697,-1.9763139701246053,1.3275786026352192
0.05,0.05,0.15000000000000002,-0.1721629400464857,-0.009528380373579746,0.14999999999999994,15,90.0,-90.0,0.0953989896041696,-0.6927997415848349,-1.161451103037878,-2.01851406637252,2.1861238829721796,-1.592361529140926,1.5403684544484346
0.05,0.05,0.15000000000000002,-0.14918584287042091,-0.065,0.15000000000000002,30,90.0,-90.0,0.11986705901461085,-0.7116871610750283,-1.0489443256037767,-1.722209192627887,1.8855225492745487,-1.4508620294289063,1.9213053822545867
0.05,0.05,0.15000000000000002,-0.1126345596729059,-0.1126345596729059,0.14999999999999994,45,90.0,-90.0,0.13310877584151565,-0.6761562683579001,-1.05698393465083,-1.3985190019274787,1.6557300371708616,-1.5018422547137877,2.25318143080013
0.05,0.05,0.15000000000000002,-0.065,-0.14918584287042091,0.15,60,90.0,-90.0,0.11574599204026022,-0.6271313659119139,-1.146113311430647,-1.0351287317809572,1.5107630406691361,-1.6550857151372984,2.5277792197832336
0.05,0.05,0.15000000000000002,-0.009528380373579767,-0.17216294004648575,0.15000000000000002,75,90.0,-90.0,0.08545157224529863,-0.5768108115515694,-1.3036485352209084,-0.5902551544089681,1.467548577867018,-1.8685094132377513,2.802060516170713
0.05,0.05,0.15000000000000002,0.04999999999999997,-0.18000000000000005,0.15000000000000002,90,90.0,-90.0,0.02783774514973591,-0.5506898422353971,-1.612788880200751,0.14444374656900538,1.6326906768316423,-2.117628849139335,3.2605516725388193
0.1,0.0,0.10000000000000002,0.04047161962642024,0.22216294004648574,0.09999999999999999,-75,90.0,-90.0,0.05973592688517993,-2.497647823611615,2.1680516414689857,-1.1666577056075367,-1.784464028825757,1.8907435883644346,-3.7455719856185468
0.1,0.0,0.10000000000000002,-0.015000000000000027,0.19918584287042088,0.09999999999999999,-60,90.0,-90.0,0.09889381461406947,-2.524834654585675,1.3066511833505345,0.7839563494199157,-1.5240694403566768,1.6522533131344346,-2.619833874460223
0.1,0.0,0.10000000000000002,-0.06263455967290593,0.16263455967290594,0.09999999999999999,-45,90.0,-90.0,0.12270731751715298,-2.484892568886281,1.19634016594633,1.1866649904183706,-1.664408896145879,1.4812420289992838,-2.3250315603650353
0.1,0.0,0.10000000000000002,-0.09918584287042093,0.115,0.09999999999999999,-30,90.0,-90.0,0.1269152392083881,-2.456987982827259,1.1703664730225147,1.5218941093773377,-1.9009256022813834,1.416215720622602,-1.9932512662753357
0.1,0.0,0.10000000000000002,-0.12216294004648573,0.05952838037357977,0.09999999999999996,-15,90.0,-90.0,0.11176838701784672,-2.4769596198227153,1.24138345243508,1.820196879309437,-2.2127325384035914,1.523061647701345,-1.6341159958442377
0.1,0.0,0.10000000000000002,-0.13,0.0,0.10000000000000002,0,90.0,-90.0,0.10520821694166288,-2.628373525476064,1.3649893768187709,2.0758085155905683,-2.607645145434998,1.8306085028995607,-1.4203239714195772
0.1,0.0,0.10000000000000002,-0.1221629400464857,-0.05952838037357975,0.09999999999999994,15,90.0,-90.0,0.06637036599963227,0.18566941353819627,-1.3556154519753585,-2.3112024518050043,-0.08862476343019214,2.093479442413313,-1.6144787714963509
0.1,0.0,0.10000000000000002,-0.09918584287042093,-0.115,0.10000000000000002,30,90.0,-90.0,0.08367017443658525,-0.3161036931883662,-1.201597238957805,-2.346477727512697,-0.8824652116678754,1.8377864838668818,-1.880882813461753
0.1,0.0,0.10000000000000002,-0.0626345596729059,-0.1626345596729059,0.09999999999999994,45,90.0,-90.0,0.11477814442489079,-0.6004739813071109,-1.2079952201261366,-2.0959484158998984,-1.3882756853850087,1.5996147233937454,-1.7303310033296013
0.1,0.0,0.10000000000000002,-0.015,-0.1991858428704209,0.09999999999999999,60,90.0,-90.0,0.09464599244527425,-0.7116814212559527,-1.329067327535806,-1.6782119347843905,-1.7579651593828678,1.5960399021962512,-1.439322230555513
0.1,0.0,0.10000000000000002,0.040471619626420235,-0.22216294004648574,0.1,75,90.0,-90.0,0.051228237991407445,-0.6689869195978356,-2.115129658846642,1.062451555818787,1.7822898908655478,-1.9222421868984847,3.697856387715695
0.05,0.05,0.10000000000000002,-0.00952838037357976,0.2721629400464857,0.09999999999999999,-75,90.0,-90.0,0.06308642214998707,-2.3414967613348923,1.5111247765852787,1.1690935453869615,2.062745088969765,-1.8003953383275169,1.168299102951573
0.05,0.05,0.10000000000000002,-0.06500000000000003,0.2491858428704209,0.09999999999999999,-60,90.0,-90.0,0.10069362049347363,-2.3177760961886023,1.3043959120237625,1.7499159870903236,1.8709056954478078,-1.5965970533338043,1.4883487485799065
0.05,0.05,0.10000000000000002,-0.11263455967290593,0.21263455967290595,0.09999999999999999,-45,90.0,-90.0,0.11606814266279657,-2.3975524980211693,1.1925753305853408,2.166345010880693,1.529601556808588,-1.580119531911336,1.7869775844801332
0.05,0.05,0.10000000000000002,-0.14918584287042091,0.165,0.09999999999999999,-30,90.0,-90.0,0.07963152555277403,-2.6485813171628565,1.1846568634228964,2.448019829159505,1.07125013295834,-1.8209256859325262,1.997464875399022
0.05,0.05,0.10000000000000002,-0.17216294004648575,0.10952838037357977,0.09999999999999996,-15,90.0,-90.0,0.11269409600949298,0.8361561223683329,-1.2405655624898004,-1.8280323336659037,1.0995967336135546,1.5376480967066484,-1.6356924491630014
0.05,0.05,0.10000000000000002,-0.18,0.05,0.10000000000000002,0,90.0,-90.0,0.10093265128967607,0.7373430799953236,-1.4154900865942739,-2.078754807550957,0.7686500766602967,1.8288204553787732,-1.3277576360650492
0.05,0.05,0.10000000000000002,-0.1721629400464857,-0.009528380373579746,0.09999999999999994,15,90.0,-90.0,0.060908147426992874,0.4352044366114902,-1.4949659102209807,-2.319147709624258,0.21974479934459518,2.2308943481637487,-1.434353938600845
0.05,0.05,0.10000000000000002,-0.14918584287042091,-0.065,0.10000000000000002,30,90.0,-90.0,0.060545795881509816,-0.1949311155206917,-1.2344149526956276,-2.51418994496086,-0.8154900383399769,2.014440435961001,-1.998825675758574
0.05,0.05,0.10000000000000002,-0.1126345596729059,-0.1126345596729059,0.09999999999999994,45,90.0,-90.0,0.10415118721558286,-0.5615809898242078,-1.173847528404573,-2.298086742534728,-1.358279521433173,1.6433048664356857,-1.8938284148276343
0.05,0.05,0.10000000000000002,-0.065,-0.14918584287042091,0.09999999999999999,60,90.0,-90.0,0.11069646643810523,-0.6993981231463364,-1.2486089034270444,-1.9370300667454048,-1.7456021513311408,1.5635136794691584,-1.6150303070974645
0.05,0.05,0.10000000000000002,-0.009528380373579767,-0.17216294004648575,0.1,75,90.0,-90.0,0.08158738420214567,-0.7118827711785715,-1.4103220018486375,-1.4368560801662462,-2.004176008428799,1.696737962362666,-1.3040056098939294
0.05,0.05,0.10000000000000002,0.04999999999999997,-0.18000000000000005,0.10000000000000002,90,90.0,-90.0,0.0020830131364499562,-0.564966067828472,-1.8121427954898872,0.4437964541737132,1.697573375851068,-2.1229212956909547,3.380887406907416
0.0,0.05,0.10000000000000002,-0.05952838037357976,0.2721629400464857,0.09999999999999999,-75,90.0,-90.0,0.0775358812323459,-2.450279732760742,1.4120672378318202,0.49365177751287775,-1.4204490894420594,1.974970307841019,3.507926943457029
0.0,0.05,0.10000000000000002,-0.11500000000000003,0.2491858428704209,0.09999999999999999,-60,90.0,-90.0,0.10873911803149215,-2.2327541223755656,1.2679825923758035,1.8677151308799038,1.9560218685710313,-1.5720914964189112,1.5663242442851597
0.0,0.05,0.10000000000000002,-0.16263455967290594,0.21263455967290595,0.09999999999999999,-45,90.0,-90.0,0.11256658407236925,-2.28798469243689,1.1752210858136916,2.2654264181337593,1.6353978526889903,-1.5501923925181018,1.869020740043646
0.0,0.05,0.10000000000000002,-0.19918584287042093,0.165,0.09999999999999999,-30,90.0,-90.0,0.0734215839665557,-2.514274080181378,1.1804418659031108,2.557620820595238,1.2162853652798857,-1.80128224870763,2.124880491200221
0.0,0.05,0.10000000000000002,-0.22216294004648574,0.10952838037357977,0.09999999999999996,-15,90.0,-90.0,0.020692504560728596,3.0079739361550777,1.5320000738696393,2.5739570941485095,0.2209140119151541,-2.523347417374585,1.7518136719336976
0.0,0.05,0.10000000000000002,-0.2221629400464857,-0.009528380373579746,0.09999999999999994,15,90.0,-90.0,0.05135803253610561,-2.6517031300133036,1.639565608039522,2.355297033610059,-2.801233431273628,2.395109418854543,-1.3160980035047072
0.0,0.05,0.10000000000000002,-0.19918584287042093,-0.065,0.10000000000000002,30,90.0,-90.0,0.12202463050630985,-0.7840114158446782,-1.2005769636248165,-1.7434546217226432,1.828962520664598,-1.5200767895556522,1.7624712585047788
0.0,0.05,0.10000000000000002,-0.1626345596729059,-0.1126345596729059,0.09999999999999994,45,90.0,-90.0,0.1356615252767678,-0.7317417241062538,-1.160727990133466,-1.4454529292300016,1.6166174877436337,-1.5429605216084612,2.105081163520094
0.0,0.05,0.10000000000000002,-0.115,-0.14918584287042091,0.09999999999999999,60,90.0,-90.0,0.11992469779511007,-0.6670694288591675,-1.21401320661496,-1.1083336685496625,1.4715056220426146,-1.6750727258194764,2.3853444247737943
0.0,0.05,0.10000000000000002,-0.05952838037357977,-0.17216294004648575,0.1,75,90.0,-90.0,0.09304992333172105,-0.602480571682457,-1.3355552962076382,-0.7067982573844906,1.411762215250351,-1.872924940875442,2.6450818548281827
0.0,0.05,0.10000000000000002,-3.6112126549726834e-17,-0.18000000000000005,0.10000000000000002,90,90.0,-90.0,0.0515504028826967,-0.5512606539409717,-1.546933959036797,-0.15171603076971496,1.4922999604402631,-2.116123089665034,2.991248254385022
0.05,0.0,0.25,0.04999999999999997,0.23000000000000007,0.25,-90,90.0,-90.0,0.02814090124784858,0.6036232132175984,-1.490435132453288,0.1367238079745699,1.422120512632427,2.1584937352884572,-3.4033541335355197
0.05,0.0,0.25,-0.00952838037357976,0.22216294004648574,0.24999999999999997,-75,90.0,-90.0,0.08667194257591769,0.62400696586852,-1.1612339356647972,-0.5960238307375368,1.6403019408656778,1.925705332035846,-2.9427468897834927
0.05,0.0,0.25,-0.06500000000000003,0.19918584287042088,0.24999999999999997,-60,90.0,-90.0,0.11715295471068639,0.67017791075159,-0.975757703106812,-1.0469047904581001,1.6358952094530725,1.7026364964761433,-2.68462774492065
0.05,0.0,0.25,-0.11263455967290593,0.16263455967290594,0.24999999999999997,-45,90.0,-90.0,0.13476169526697523,0.7155667942170115,-0.8425345684766231,-1.4223599849668807,1.5256672779992093,1.5162526143383441,-2.4472671319970516
0.05,0.0,0.25,-0.14918584287042091,0.115,0.24999999999999997,-30,90.0,-90.0,0.1155779191269497,0.7494493538738249,-0.7696582438379478,-1.758678930198955,1.3241319717383098,1.4012200301180804,-2.1619490981437886
0.05,0.0,0.25,-0.17216294004648575,0.05952838037357977,0.24999999999999994,-15,90.0,-90.0,0.08169717994218399,0.7503160280413601,-0.7997441647233919,-2.082523707413749,1.02828624264145,1.4340506622312328,-1.7925677910876718
0.05,0.0,0.25,-0.18,0.0,0.25,0,90.0,-90.0,0.06396297776418315,0.6212244603088524,-0.974557678706524,-2.388907832009959,0.6337785780287455,1.750105971975061,-1.439183978564707
0.05,0.0,0.25,-0.1721629400464857,-0.05952838037357975,0.24999999999999992,15,90.0,-90.0,0.05474540336579613,0.23117885931304194,-0.9842784272884726,-2.6306783554354105,-0.03349486360202192,2.0446796895474755,-1.5859670170456426
0.05,0.0,0.25,-0.14918584287042091,-0.115,0.25,30,90.0,-90.0,0.07315871154380792,-0.36857872118396556,-0.8075395139069039,-2.607296953310084,-0.9097487978006604,1.7405704104929831,-1.7849223694976004
0.05,0.0,0.25,-0.1126345596729059,-0.1626345596729059,0.24999999999999992,45,90.0,-90.0,0.11274079232717128,-0.686761467237839,-0.8580008836855944,-2.3359623814370343,-1.471486324716151,1.5751929351577292,-1.6230235729309
0.05,0.0,0.25,-0.065,-0.1991858428704209,0.24999999999999997,60,90.0,-90.0,0.11384241933782338,-0.7838809313159315,-1.0018428267891395,-1.9384221960355734,-1.8267594167951307,1.6228723179298157,-1.375224312876824
0.05,0.0,0.25,-0.009528380373579767,-0.22216294004648574,0.25,75,90.0,-90.0,0.08342768771618246,-0.7671971530140167,-1.205613389124427,-1.428920266171217,-2.0208270418372956,1.8087573609171193,-1.1186741085348808
0.05,-0.05,0.15000000000000002,0.04999999999999997,0.18000000000000005,0.15000000000000002,-90,90.0,-90.0,0.04176901443142133,0.5888426936064108,-1.9881749926428216,0.9231788245194226,1.2572013501319645,2.0782617472991514,2.553668393521644
0.05,-0.05,0.15000000000000002,-0.00952838037357976,0.17216294004648575,0.15,-75,90.0,-90.0,0.09113639897036573,0.6898135081742117,-1.2898149507294523,-1.5704419668161391,-1.1568501638956392,-1.6862708341527641,1.313811137911493
0.05,-0.05,0.15000000000000002,-0.06500000000000003,0.14918584287042086,0.15,-60,90.0,-90.0,0.1170160783687396,0.669260576879038,-1.1323432781010727,-2.042618421097116,-1.4250173279461107,-1.5652963974302938,1.6032986911262952
0.05,-0.05,0.15000000000000002,-0.11263455967290593,0.11263455967290593,0.15,-45,90.0,-90.0,0.09910645788842955,0.511595149698551,-1.0554678919909413,-2.388511218781715,-1.8320816878674944,-1.651456994901251,1.8616729104251675
0.05,-0.05,0.15000000000000002,-0.14918584287042091,0.065,0.15,-30,90.0,-90.0,0.0574864873787096,0.0993829736212107,-1.1243904231623822,-2.582885425450597,-2.4360046789767686,-2.020179145970853,1.925222980817049
0.05,-0.05,0.15000000000000002,-0.17216294004648575,0.009528380373579767,0.14999999999999997,-15,90.0,-90.0,0.09337263497218838,0.6601778950862686,-1.1847811987601664,-2.053167107435653,0.9243267102297423,1.628286590364423,-1.4932943738771032
0.05,-0.05,0.15000000000000002,-0.18,-0.05,0.15000000000000002,0,90.0,-90.0,0.08254849913877751,0.45719451904852476,-1.35619640792921,-2.2973539938861123,0.5147356747936133,2.0264362335944996,-1.326800670280612
0.05,-0.05,0.15000000000000002,-0.1721629400464857,-0.10952838037357976,0.14999999999999994,15,90.0,-90.0,0.047021329014367216,-0.02025918358454167,-1.2281271543836922,-2.565162913287886,-0.34837578156152926,2.1928378095293053,-1.7794307749415934
0.05,-0.05,0.15000000000000002,-0.14918584287042091,-0.165,0.15000000000000002,30,90.0,-90.0,0.08521787135111024,-0.5674751571057666,-1.056147891843488,-2.471533313731347,-1.1221285977278188,1.7447640837170202,-1.9174688384438348
0.05,-0.05,0.15000000000000002,-0.1126345596729059,-0.2126345596729059,0.14999999999999994,45,90.0,-90.0,0.11878013129824433,-0.7959568703807015,-1.098622167767321,-2.1662925859821907,-1.5816583831124604,1.5698677125261136,-1.6948220991495844
0.05,-0.05,0.15000000000000002,-0.065,-0.2491858428704209,0.15,60,90.0,-90.0,0.10087417019748343,-0.8573120992184005,-1.2312630997653249,-1.7359821670056876,-1.9003793463803753,1.6267883087165247,-1.4060352227959574
0.05,-0.05,0.15000000000000002,-0.009528380373579767,-0.2721629400464857,0.15000000000000002,75,90.0,-90.0,0.06190742350184267,-0.8234424349255297,-1.4549126466867095,-1.145054296609772,-2.065190746698516,1.8482333603531351,-1.1005112534108492
-0.05,0.05,0.15000000000000002,-0.05000000000000004,0.2800000000000001,0.15000000000000002,-90,90.0,-90.0,0.06104077565141185,0.8116997151950455,-2.083215705751652,1.0832363435158074,1.0515525211281238,2.227448109939126,2.3897677017402557
-0.05,0.05,0.15000000000000002,-0.10952838037357976,0.2721629400464857,0.15,-75,90.0,-90.0,0.0933202727452923,-2.4154268546147155,1.2577747723060082,0.7198453976159264,-1.374484776204318,1.9936038455903424,3.59078710063767
-0.05,0.05,0.15000000000000002,-0.16500000000000004,0.2491858428704209,0.15,-60,90.0,-90.0,0.11976242282828112,-2.3396520969649792,1.1275648026875782,1.1106336655179527,-1.3965962520689768,1.7884461143407582,-2.455083174916646
-0.05,0.05,0.15000000000000002,-0.21263455967290595,0.21263455967290595,0.15,-45,90.0,-90.0,0.13731283088153282,-2.2616156812703747,1.0483760530213033,1.4485196986783984,-1.4945931563496326,1.6272533463843413,-2.2123372923188827
-0.05,0.05,0.15000000000000002,-0.24918584287042095,0.165,0.15,-30,90.0,-90.0,0.12432871444690351,-2.186001328210505,1.0455558022683313,1.754066937227501,-1.6574117853564836,1.5408281570230102,-1.910709998160943
-0.05,0.05,0.15000000000000002,-0.2721629400464857,0.10952838037357977,0.14999999999999997,-15,90.0,-90.0,0.0914424169843351,-2.1319513019267218,1.1817689560207834,2.0346584422840976,-1.8697566771660967,1.5938588979758626,-1.500116818115751
-0.05,0.05,0.15000000000000002,-0.28,0.05,0.15000000000000002,0,90.0,-90.0,0.07373118381383918,-2.214517595008579,1.519140995829699,2.2598027261551743,-2.1135608543068836,1.9351020349637298,-1.0353074728084362
-0.05,0.05,0.15000000000000002,-0.2721629400464857,-0.009528380373579746,0.14999999999999994,15,90.0,-90.0,0.07958746721678255,-0.8779853224158896,-1.3209494803653592,-2.1527985392078715,1.9804743190434393,-1.7066329193846437,1.26721733733386
-0.05,0.05,0.15000000000000002,-0.24918584287042095,-0.065,0.15000000000000002,30,90.0,-90.0,0.10808206489535707,-0.8619643265952327,-1.0856013600428494,-1.891918195713507,1.753620540234417,-1.5398774476509185,1.7312608407940973
-0.05,0.05,0.15000000000000002,-0.2126345596729059,-0.1126345596729059,0.14999999999999994,45,90.0,-90.0,0.13754650659977832,-0.7919353763644221,-1.0355397637033106,-1.5965857186750605,1.564628429016682,-1.5751366508410207,2.0799979291602533
-0.05,0.05,0.15000000000000002,-0.165,-0.14918584287042091,0.15,60,90.0,-90.0,0.12956225824413642,-0.714299141215751,-1.0820320173280242,-1.277243561628476,1.4347368545805206,-1.7037344425477938,2.3446055304634608
-0.05,0.05,0.15000000000000002,-0.10952838037357977,-0.17216294004648575,0.15000000000000002,75,90.0,-90.0,0.1069088073255348,-0.6366206737821622,-1.189513194455468,-0.914489157717557,1.373577242652803,-1.89141905080632,2.577034690935749
-0.05,0.05,0.15000000000000002,-0.05000000000000004,-0.18000000000000005,0.15000000000000002,90,90.0,-90.0,0.07563907256249534,-0.5666608033102235,-1.3498749565398853,-0.47727885061602837,1.4106183745149912,-2.1162902897897204,2.8394093005662056
0.1,0.0,0.15000000000000002,0.04047161962642024,0.22216294004648574,0.15,-75,90.0,-90.0,0.06399420037874763,0.5902489825345496,-1.4194268399680694,-0.30076415520300737,1.6214237575117538,1.894734076327143,-2.98315446150889
0.1,0.0,0.15000000000000002,-0.015000000000000027,0.19918584287042088,0.15,-60,90.0,-90.0,0.10295317694872184,0.6272166985277199,-1.2107044831260865,-0.839279455207073,1.618910662807801,1.6634993775158446,-2.659497690261804
0.1,0.0,0.15000000000000002,-0.06263455967290593,0.16263455967290594,0.15,-45,90.0,-90.0,0.1257002033110651,0.6660758925988804,-1.0892835690362062,-1.2401496974375776,1.4891064433103347,1.4834870589750129,-2.378841855485211
0.1,0.0,0.15000000000000002,-0.09918584287042093,0.115,0.15,-30,90.0,-90.0,0.12508799412060698,0.6934832807172598,-1.0456596092167443,-1.5804752770705555,1.260871543270363,1.3988935777307097,-2.059456442876167
0.1,0.0,0.15000000000000002,-0.12216294004648573,0.05952838037357977,0.14999999999999997,-15,90.0,-90.0,0.10373202767484954,0.6786801779409422,-1.1028481013468587,-1.8919912187747967,0.9454290828257322,1.4840670035179233,-1.689288419738373
0.1,0.0,0.15000000000000002,-0.13,0.0,0.15000000000000002,0,90.0,-90.0,0.09524643952701804,0.5350084040933726,-1.2293058457229769,-2.161862632245819,0.5494671250553612,1.7841253184553305,-1.4412715885479552
0.1,0.0,0.15000000000000002,-0.1221629400464857,-0.05952838037357975,0.14999999999999994,15,90.0,-90.0,0.06894566207148663,0.18583766253079792,-1.2214756160121443,-2.390869368262326,-0.08608862639715652,2.04016853202846,-1.609867516548021
0.1,0.0,0.15000000000000002,-0.09918584287042093,-0.115,0.15000000000000002,30,90.0,-90.0,0.08433443011530325,-0.30833989471355744,-1.0815935123460665,-2.4037864740009094,-0.8611253531083218,1.7993128118747799,-1.830340821106358
0.1,0.0,0.15000000000000002,-0.0626345596729059,-0.1626345596729059,0.14999999999999994,45,90.0,-90.0,0.11606129180455951,-0.5998603445698593,-1.102760851434079,-2.1498521387501253,-1.3860683953400394,1.59048556419492,-1.6806870962078457
0.1,0.0,0.15000000000000002,-0.015,-0.1991858428704209,0.15,60,90.0,-90.0,0.09894756091753708,-0.7114647407514808,-1.2328864654173104,-1.736307379907655,-1.7561831776571022,1.6019903102120263,-1.401594493603629
0.1,0.0,0.15000000000000002,0.040471619626420235,-0.22216294004648574,0.15000000000000002,75,90.0,-90.0,0.05712827831835414,-0.7086734262351801,-1.4721242940018973,-1.1184396307321605,-1.9575960957049119,1.7995524556634444,-1.0641059447999284
0.05,-0.05,0.2,0.04999999999999997,0.18000000000000005,0.2,-90,90.0,-90.0,0.04638229154552301,-2.6264358524768583,1.4514639826841265,0.07847244796626508,-1.5933487402040545,2.0850187948262002,-3.188473455813006
0.05,-0.05,0.2,-0.00952838037357976,0.17216294004648575,0.19999999999999998,-75,90.0,-90.0,0.09324657267630906,-2.5920846300666165,1.1916398005082043,0.6937737510355216,-1.4793455979147938,1.8450187551799004,-2.8151767196412734
0.05,-0.05,0.2,-0.06500000000000003,0.14918584287042086,0.19999999999999998,-60,90.0,-90.0,0.12130869279892978,-2.5435513513052284,1.032189449668067,1.123355336033684,-1.5295541922183236,1.6319572103780762,-2.556501206838086
0.05,-0.05,0.2,-0.11263455967290593,0.11263455967290593,0.19999999999999998,-45,90.0,-90.0,0.13429716581884046,-2.4989536905463474,0.9343548523614442,1.482931029844094,-1.6792512134156743,1.4765539443953144,-2.2897106411171326
0.05,-0.05,0.2,-0.14918584287042091,0.065,0.19999999999999998,-30,90.0,-90.0,0.11041110982810684,-2.469508160369386,0.9146230274483325,1.8099554794813588,-1.9173730939766584,1.4223717150948372,-1.9608460903194445
0.05,-0.05,0.2,-0.17216294004648575,0.009528380373579767,0.19999999999999996,-15,90.0,-90.0,0.08371769677388513,-2.4986430474640464,1.0205093578259898,2.119903048603317,-2.235873014671554,1.5696866732397383,-1.5724127871528875
0.05,-0.05,0.2,-0.18,-0.05,0.2,0,90.0,-90.0,0.07436549442272294,-2.7041901683774925,1.1943306642489615,2.388395801333882,-2.6632781172423448,1.9678105371610053,-1.3728470085171836
0.05,-0.05,0.2,-0.1721629400464857,-0.10952838037357976,0.19999999999999993,15,90.0,-90.0,0.10035409774031877,-0.851408687458555,-0.9318565964863467,-1.91129243242789,2.0107339532096478,-1.43998076652285,1.8395412372308377
0.05,-0.05,0.2,-0.14918584287042091,-0.165,0.2,30,90.0,-90.0,0.1305231640102873,-0.8326003764748273,-0.9176220217785422,-1.5895535114065156,1.7453489803530151,-1.444855953100609,2.194286191141983
0.05,-0.05,0.2,-0.1126345596729059,-0.2126345596729059,0.19999999999999993,45,90.0,-90.0,0.127687624144871,-0.7912523043400265,-0.9949514276874599,-1.2427273572809772,1.5677910432304523,-1.5758602974523976,2.474000751143121
0.05,-0.05,0.2,-0.065,-0.2491858428704209,0.19999999999999998,60,90.0,-90.0,0.1035250697730372,-0.7427346629840961,-1.133323555223076,-0.8421683714254075,1.4822447376788481,-1.7720448048419741,2.7269502757012423
0.05,-0.05,0.2,-0.009528380373579767,-0.2721629400464857,0.2,75,90.0,-90.0,0.06553447844392793,-0.6999111799781615,-1.3458468555845384,-0.31985663549559823,1.5255013343050727,-2.0059534190353117,3.0366770496937914
0.15000000000000002,0.0,0.15000000000000002,0.09047161962642025,0.22216294004648574,0.15,-75,90.0,-90.0,0.03861310823537457,-2.580970224848419,1.5555600829194598,-0.01660209143743533,-1.580238788306207,1.8692675045583724,-3.174856318099772
0.15000000000000002,0.0,0.15000000000000002,0.03499999999999999,0.19918584287042088,0.15,-60,90.0,-90.0,0.09143557490973675,-2.5603168166068033,1.2689732199220216,0.6774336385165001,-1.5488215700332144,1.6242930598979908,-2.7643977117920935
0.15000000000000002,0.0,0.15000000000000002,-0.012634559672905915,0.16263455967290594,0.15,-45,90.0,-90.0,0.11771189418610031,-2.5329391427811765,1.1245805073000112,1.1131408037174524,-1.6820483861998259,1.4319310786763908,-2.467664152470518
0.15000000000000002,0.0,0.15000000000000002,-0.04918584287042091,0.115,0.15,-30,90.0,-90.0,0.12178783853224304,-2.5180791481164575,1.059323025481454,1.4684071710261009,-1.9239583095035075,1.330593522633761,-2.1409945691106698
0.15000000000000002,0.0,0.15000000000000002,-0.07216294004648571,0.05952838037357977,0.14999999999999997,-15,90.0,-90.0,0.1067836277403546,-2.5441002911146495,1.0855177760246764,1.7869324243244362,-2.2634531400320426,1.3959788743433583,-1.7758945032791895
0.15000000000000002,0.0,0.15000000000000002,-0.07999999999999999,0.0,0.15000000000000002,0,90.0,-90.0,0.10169990198164128,-2.6882850550988087,1.168775148051451,2.064045835150962,-2.68582152628923,1.6531372811984157,-1.5313204342466429
0.15000000000000002,0.0,0.15000000000000002,-0.07216294004648569,-0.05952838037357975,0.14999999999999994,15,90.0,-90.0,0.08768866573109775,0.1566665050898611,-1.1685102329868904,-2.2644460870118372,-0.11036440046579683,1.8599840453113048,-1.602046001416843
0.15000000000000002,0.0,0.15000000000000002,-0.04918584287042091,-0.115,0.15000000000000002,30,90.0,-90.0,0.09683884942444607,-0.2536336800747493,-1.0984069728972898,-2.2634262944473216,-0.788720262328313,1.7282654721622979,-1.726219636051839
0.15000000000000002,0.0,0.15000000000000002,-0.012634559672905887,-0.1626345596729059,0.14999999999999994,45,90.0,-90.0,0.11212032949209058,-0.5290734136087775,-1.1403635059255846,-2.0159772911327805,-1.314193131224353,1.5736859545186161,-1.5842739562058012
0.15000000000000002,0.0,0.15000000000000002,0.03500000000000002,-0.1991858428704209,0.15,60,90.0,-90.0,0.08699580206477746,-0.6480140216068073,-1.29360090270214,-1.5745561314530112,-1.6909918974205442,1.6038832453874647,-1.2994583633379073
0.15000000000000002,0.0,0.15000000000000002,0.09047161962642025,-0.22216294004648574,0.15000000000000002,75,90.0,-90.0,0.02468065578368167,-0.6183893056907664,-1.9012132719069532,0.7593171863527682,1.7242416855241811,-1.8946637602906342,-2.6881613327183382
-0.05,0.1,0.15000000000000002,-0.05000000000000004,0.33000000000000007,0.15000000000000002,-90,90.0,-90.0,0.0348058172164936,-2.313969470115895,1.936872833326436,-0.7997988213345019,-1.9999128525144103,2.3024077506391984,2.5404651988923304
-0.05,0.1,0.15000000000000002,-0.10952838037357976,0.3221629400464857,0.15,-75,90.0,-90.0,0.0816993752278462,0.7935014225066801,-1.319135984174724,-0.5568326756745599,1.7456441065623511,2.0763430804245324,3.491160660278939
-0.05,0.1,0.15000000000000002,-0.16500000000000004,0.2991858428704209,0.15,-60,90.0,-90.0,0.11143078878331118,0.86567567852795,-1.1676035055854572,-0.9805941569210217,1.7622191396778661,1.8555165216536043,3.7455426648297045
-0.05,0.1,0.15000000000000002,-0.21263455967290595,0.26263455967290594,0.15,-45,90.0,-90.0,0.13259317159102477,0.9436948589608785,-1.0695640598662122,-1.3356262033726973,1.6876131768428257,1.6769170426610236,-2.300223904705469
-0.05,0.1,0.15000000000000002,-0.24918584287042095,0.21500000000000002,0.15,-30,90.0,-90.0,0.13404093738387046,1.0205973238699735,-1.0345975718594584,-1.6528561916793707,1.5464988849787762,1.558600785871568,-2.024806201002994
-0.05,0.1,0.15000000000000002,-0.2721629400464857,0.15952838037357978,0.14999999999999997,-15,90.0,-90.0,0.03873688254321437,0.5709336751190139,-1.158227469115356,-2.8608798035512333,-2.0965583344947567,-2.1141368830049014,2.298131066822155
-0.05,0.1,0.15000000000000002,-0.28,0.1,0.15000000000000002,0,90.0,-90.0,0.07671029584758181,1.0770300985590915,-1.388526487881803,-2.1934198611359026,1.1181557045756223,1.7732270596622581,-1.1772642368097392
-0.05,0.1,0.15000000000000002,-0.2721629400464857,0.040471619626420256,0.14999999999999994,15,90.0,-90.0,0.07541987599793154,2.3678977419771305,1.4295597069488897,2.2160116804291503,-1.091025755301431,-1.8190041893228697,1.1283437158459086
-0.05,0.1,0.15000000000000002,-0.24918584287042095,-0.015,0.15000000000000002,30,90.0,-90.0,0.09856364182070597,2.3397474459816623,1.130521717483061,1.9718416481668004,-1.326625534294329,-1.5609733771286989,1.609739039776085
-0.05,0.1,0.15000000000000002,-0.2126345596729059,-0.0626345596729059,0.14999999999999994,45,90.0,-90.0,0.1313801765195378,2.4025805620258707,1.0363469887382262,1.6843535974281387,-1.5284879384710623,-1.551649784815285,1.9904269270751083
-0.05,0.1,0.15000000000000002,-0.165,-0.0991858428704209,0.15,60,90.0,-90.0,0.1342644991156945,2.479535066656838,1.061476330659412,1.3713869926209659,-1.6762864788971557,-1.6595259590888005,2.2740863872699877
-0.05,0.1,0.15000000000000002,-0.10952838037357977,-0.12216294004648573,0.15000000000000002,75,90.0,-90.0,0.11403112486035562,2.5575632765259724,1.155288213127225,1.0201201686311216,-1.7577337990499284,-1.8352539526513238,2.512999001308469
-0.05,0.1,0.15000000000000002,-0.05000000000000004,-0.13000000000000006,0.15000000000000002,90,90.0,-90.0,0.08544871073690849,2.630569682446616,1.2994255063967284,0.6083241372759366,-1.7543241606210564,-2.0496431968938906,2.759549397008118
0.15000000000000002,0.0,0.2,0.09047161962642025,0.22216294004648574,0.19999999999999998,-75,90.0,-90.0,0.04613936728681255,-2.5369393927984127,1.9622731624211276,-1.0088103285493788,-1.775271101615863,1.8478604758060122,2.4947454595202063
0.15000000000000002,0.0,0.2,0.03499999999999999,0.19918584287042088,0.19999999999999998,-60,90.0,-90.0,0.09468803251060133,0.5916345199456821,-1.1805183830315626,-0.7197271532263982,1.5919906883810935,1.6356119192079768,-2.8106442678345545
0.15000000000000002,0.0,0.2,-0.012634559672905915,0.16263455967290594,0.19999999999999998,-45,90.0,-90.0,0.11999493896156455,0.616308149289652,-1.0239413582305157,-1.152276830343097,1.4741599804932206,1.4315227708525256,-2.528967656919441
0.15000000000000002,0.0,0.2,-0.04918584287042091,0.115,0.19999999999999998,-30,90.0,-90.0,0.12054122644900708,0.6301697351272173,-0.9413697433083387,-1.5095210683348734,1.240587614604175,1.3098195032488993,-2.2173682427420913
0.15000000000000002,0.0,0.2,-0.07216294004648571,0.05952838037357977,0.19999999999999996,-15,90.0,-90.0,0.10015845608000129,0.6073123098581261,-0.9455709814597519,-1.834435553231865,0.9028061669466101,1.3396545722107123,-1.8525509328743037
0.15000000000000002,0.0,0.2,-0.07999999999999999,0.0,0.2,0,90.0,-90.0,0.09303219486482864,0.4717949052610563,-1.0231992768597638,-2.124194797206066,0.4720623553188464,1.5768719842356587,-1.5689588873802964
0.15000000000000002,0.0,0.2,-0.07216294004648569,-0.05952838037357975,0.19999999999999993,15,90.0,-90.0,0.09035802447142201,0.15759333664433173,-1.030247182096892,-2.3190776310323473,-0.1061130661473522,1.776581101645971,-1.59246861946128
0.15000000000000002,0.0,0.2,-0.04918584287042091,-0.115,0.2,30,90.0,-90.0,0.09733768305384918,-0.250640033376019,-0.98157513849001,-2.3055060410445556,-0.7786806894609353,1.6741160612877533,-1.6725161734137914
0.15000000000000002,0.0,0.2,-0.012634559672905887,-0.1626345596729059,0.19999999999999993,45,90.0,-90.0,0.11363718466013928,-0.5296612881102736,-1.042199109937368,-2.0551899653614814,-1.3157333098108754,1.5590101626140573,-1.527443917303883
0.15000000000000002,0.0,0.2,0.03500000000000002,-0.1991858428704209,0.19999999999999998,60,90.0,-90.0,0.0904195944170902,-0.6472787990439448,-1.2050610226672394,-1.6191805360896214,-1.6879993301971747,1.6086914767050435,-1.2547227908555167
0.15000000000000002,0.0,0.2,0.09047161962642025,-0.22216294004648574,0.2,75,90.0,-90.0,0.03364623154516817,-0.6473049420781808,-1.531295136410307,-0.8509409282138373,-1.8565159786044836,1.8330053053963802,-0.8493068234426203
0.05,0.0,0.2,0.04999999999999997,0.23000000000000007,0.2,-90,90.0,-90.0,0.020794983793901912,-2.5136734449995517,1.809295487303458,-0.678755007682707,-1.8720057332594717,2.1311171030232856,-3.670262167487755
0.05,0.0,0.2,-0.00952838037357976,0.22216294004648574,0.19999999999999998,-75,90.0,-90.0,0.08407220076713252,-2.531829736827589,1.242574289974747,0.5667316401294377,-1.4841585012958636,1.9091486412133518,3.3948353237591333
0.05,0.0,0.2,-0.06500000000000003,0.19918584287042088,0.19999999999999998,-60,90.0,-90.0,0.1152828949052029,-2.483306336141248,1.0673086027608052,1.022452202405939,-1.5038719204259838,1.6873737592480587,3.663931798995248
0.05,0.0,0.2,-0.11263455967290593,0.16263455967290594,0.19999999999999998,-45,90.0,-90.0,0.10783579240935859,-2.5167750192607143,0.9542633934461608,2.354741601356527,1.411681119249813,-1.5974964250773982,1.7365238314743954
0.05,0.0,0.2,-0.14918584287042091,0.115,0.19999999999999998,-30,90.0,-90.0,0.06798782038114336,-2.8638027447988583,0.9533512349902685,2.603214798509503,0.8451749826081982,-1.8550347680552446,1.8763541655247102
0.05,0.0,0.2,-0.17216294004648575,0.05952838037357977,0.19999999999999996,-15,90.0,-90.0,0.08900254315691439,0.7547890578003675,-0.979001971432947,-2.0432167000538053,1.020121775691406,1.5086089652898975,-1.671572854125039
0.05,0.0,0.2,-0.18,0.0,0.2,0,90.0,-90.0,0.07492347043913693,0.6150680140695738,-1.1686954850672684,-2.3230756831684416,0.6455065564943886,1.854122493740544,-1.3625715182236775
0.05,0.0,0.2,-0.1721629400464857,-0.05952838037357975,0.19999999999999993,15,90.0,-90.0,0.05187760866579972,0.23106801721519588,-1.1661058883135424,-2.577932709695967,-0.03618517956040442,2.1723744546001704,-1.590870878504159
0.05,0.0,0.2,-0.14918584287042091,-0.115,0.2,30,90.0,-90.0,0.07319870508635865,-0.3806575429861331,-0.9415079999456566,-2.579424517375504,-0.9396626096418694,1.8014458275079805,-1.8749718514479918
0.05,0.0,0.2,-0.1126345596729059,-0.1626345596729059,0.19999999999999993,45,90.0,-90.0,0.11300141687698417,-0.687100480518917,-0.9650919300111942,-2.309405873011129,-1.4727557427450488,1.583291348047269,-1.7032167948350065
0.05,0.0,0.2,-0.065,-0.1991858428704209,0.19999999999999998,60,90.0,-90.0,0.11164685608764303,-0.7847433595295028,-1.090923340418206,-1.9135310616791676,-1.829067516288943,1.6050716821431472,-1.4378303945162725
0.05,0.0,0.2,-0.009528380373579767,-0.22216294004648574,0.2,75,90.0,-90.0,0.08060972245463946,-0.7701358667857219,-1.2866716113090608,-1.3953273789185292,-2.0337886497033426,1.7879436526385932,-1.1617618712796036
-0.05,0.1,0.10000000000000002,-0.05000000000000004,0.33000000000000007,0.10000000000000002,-90,90.0,-90.0,0.01924596215880214,0.7618489887418178,-1.716849023965488,0.23839260265330955,1.4843750714193085,2.328162182285794,-3.2676605763578603
-0.05,0.1,0.10000000000000002,-0.10952838037357976,0.3221629400464857,0.09999999999999999,-75,90.0,-90.0,0.07679669700299009,0.7896623116456548,-1.4138996493121074,-0.4940469415907292,1.7616526843847669,2.066276801655646,-2.7553357189200454
-0.05,0.1,0.10000000000000002,-0.16500000000000004,0.2991858428704209,0.09999999999999999,-60,90.0,-90.0,0.10765609713851722,0.8624234391059865,-1.2663329455964392,-0.9280182508892065,1.7734198906741396,1.8430489191032324,-2.4905885796237888
-0.05,0.1,0.10000000000000002,-0.21263455967290595,0.26263455967290594,0.09999999999999999,-45,90.0,-90.0,0.129525021971434,0.9415076704245707,-1.1804048560357225,-1.2805326998975466,1.6927121654205595,1.6692800186101855,-2.244819605327036
-0.05,0.1,0.10000000000000002,-0.24918584287042095,0.21500000000000002,0.09999999999999999,-30,90.0,-90.0,0.13684346629778707,1.0207259088194698,-1.1632231774358892,-1.5905040730279443,1.5465526818239004,1.5598936029325519,-1.9576668184379276
-0.05,0.1,0.10000000000000002,-0.2721629400464857,0.15952838037357978,0.09999999999999996,-15,90.0,-90.0,0.11121960263490867,1.087484039413941,-1.2590474852303482,-1.8664552851687675,1.3486160699048981,1.5667098110707673,-1.5861159446170023
-0.05,0.1,0.10000000000000002,-0.24918584287042095,-0.015,0.10000000000000002,30,90.0,-90.0,0.10843601326397183,2.339483876165528,1.2794520949547215,1.892220287711346,-1.325961990114173,-1.5790528867092952,1.541095405528015
-0.05,0.1,0.10000000000000002,-0.2126345596729059,-0.0626345596729059,0.09999999999999994,45,90.0,-90.0,0.13526584751170379,2.4020609707199543,1.1671648060662336,1.6220984900345405,-1.527053219570967,-1.5541718865447307,1.9223583078597888
-0.05,0.1,0.10000000000000002,-0.165,-0.0991858428704209,0.09999999999999999,60,90.0,-90.0,0.13136282655786233,2.480944032717156,1.1743638768870934,1.315983829268424,-1.6799431657431187,-1.6533214212288248,2.2166329935468614
-0.05,0.1,0.10000000000000002,-0.10952838037357977,-0.12216294004648573,0.1,75,90.0,-90.0,0.1103373152478351,2.560387314302518,1.2547918010132229,0.9677640235975954,-1.7678984619053966,-1.822954866092157,2.4652544500808737
-0.05,0.1,0.10000000000000002,-0.05000000000000004,-0.13000000000000006,0.10000000000000002,90,90.0,-90.0,0.08055584300527073,2.634502930017869,1.3953892616392318,0.5450591759816805,-1.7682664899058156,-2.0417959711649822,2.7255031906577165
0.0,0.05,0.3,-3.611212654972683e-17,0.2800000000000001,0.3,-90,90.0,-90.0,0.04155359037538526,0.6960939652543638,-1.8252126138109563,0.03169222866632233,-1.388304458732074,-2.2473599314929027,0.28728471019410884
0.0,0.05,0.3,-0.05952838037357976,0.2721629400464857,0.3,-75,90.0,-90.0,0.09006201470152848,0.726614135436076,-2.111139912706588,0.6392750125024963,-1.6202524104878522,-2.033927717124466,-0.11067332211446317
0.0,0.05,0.3,-0.11500000000000003,0.2491858428704209,0.3,-60,90.0,-90.0,0.11888051147366042,0.7772625645597272,-0.8857161727422935,-1.0687455373569703,1.6674953542337438,1.8067192744802711,-2.746363204005693
0.0,0.05,0.3,-0.16263455967290594,0.21263455967290595,0.3,-45,90.0,-90.0,0.1374188273488347,0.83345167026363,-0.7345371716772914,-1.4377494053409907,1.5978297389119271,1.6099355213175366,-2.538805317515776
0.0,0.05,0.3,-0.19918584287042093,0.165,0.3,-30,90.0,-90.0,0.11936524970840894,0.8812955817037333,-0.6240790196771963,-1.7720321015912655,1.447973478932283,1.4593079922570515,-2.3083495464428014
0.0,0.05,0.3,-0.22216294004648574,0.10952838037357977,0.29999999999999993,-15,90.0,-90.0,0.07859068450700446,0.910348512907384,-0.5876172632124957,-2.096710826732744,1.2084960870501122,1.3984543246934944,-1.9957637925514333
0.0,0.05,0.3,-0.23,0.05,0.3,0,90.0,-90.0,0.04639633536629176,0.8659961151998036,-0.7531270023084207,-2.4334545340230473,0.8658722723189177,1.600259902073345,-1.5356788441683884
0.0,0.05,0.3,-0.2221629400464857,-0.009528380373579746,0.29999999999999993,15,90.0,-90.0,0.06245702173663216,2.3482697445012257,0.6227667933890295,2.2428405930632564,-1.071295913016879,-1.4356605558355935,1.8125295417993883
0.0,0.05,0.3,-0.19918584287042093,-0.065,0.3,30,90.0,-90.0,0.10135371341875885,2.3597846932686752,0.5937000045925753,1.9142047962118711,-1.355686398740458,-1.4150881984226975,2.186737943276911
0.0,0.05,0.3,-0.1626345596729059,-0.1126345596729059,0.2999999999999999,45,90.0,-90.0,0.13675193601492577,2.401005740751833,0.6795747671252581,1.5880084224561162,-1.5421264855732104,-1.5356047144210727,2.443445694084036
0.0,0.05,0.3,-0.115,-0.14918584287042091,0.3,60,90.0,-90.0,0.1286678422160843,2.4542543479392798,0.8145223121993203,1.2372853967580393,-1.6471426224218826,-1.7154247062612011,2.6540524238494076
0.0,0.05,0.3,-0.05952838037357977,-0.17216294004648575,0.3,75,90.0,-90.0,0.10398975472049318,2.5117849230866636,0.9836380995072408,0.8406200133771649,-1.6677687374820127,-1.9254845339483673,2.8698816649711785
0.0,0.05,0.3,-3.6112126549726834e-17,-0.18000000000000005,0.3,90,90.0,-90.0,0.06760515262711875,2.559749919618229,1.205112652947706,0.3451358425784407,-1.5584792758133126,-2.151664761259825,3.1653610829825607
0.0,0.05,0.15000000000000002,-3.611212654972683e-17,0.2800000000000001,0.15000000000000002,-90,90.0,-90.0,0.02747151959292783,0.7314948066707347,-1.904028550006962,0.7440717429425521,1.22507196945655,2.229953017155467,-3.6712525945486156
0.0,0.05,0.15000000000000002,-0.05952838037357976,0.2721629400464857,0.15,-75,90.0,-90.0,0.08254201420286296,0.7038865688558442,-1.3183218824066334,-0.5561672877293738,1.7103321957167261,1.990710116143534,-2.808878257572672
0.0,0.05,0.15000000000000002,-0.11500000000000003,0.2491858428704209,0.15,-60,90.0,-90.0,0.11309255200086704,0.7656464250200212,-1.1601845303643934,-0.9958092320557212,1.706475070413208,1.7710860956555459,-2.541769616960575
0.0,0.05,0.15000000000000002,-0.16263455967290594,0.21263455967290595,0.15,-45,90.0,-90.0,0.13348614849302853,0.8312452474181822,-1.0637825150469107,-1.358062565843519,1.6040319246805972,1.6010150387934077,-2.289269517100192
0.0,0.05,0.15000000000000002,-0.19918584287042093,0.165,0.15,-30,90.0,-90.0,0.12865879661677676,0.8910760309550485,-1.0377231515253125,-1.6803450698098865,1.4276371584771035,1.5060445092255954,-1.9887916283314
0.0,0.05,0.15000000000000002,-0.22216294004648574,0.10952838037357977,0.14999999999999997,-15,90.0,-90.0,0.09798925883175523,0.9253867629318475,-1.1348749043551538,-1.9751319510019854,1.18697003891398,1.55990282348711,-1.599867520911539
0.0,0.05,0.15000000000000002,-0.23,0.05,0.15000000000000002,0,90.0,-90.0,0.080900917959662,0.8391762622075868,-1.3868220464820264,-2.225185726771826,0.8964341651342617,1.8775007173772178,-1.2098277723084896
0.0,0.05,0.15000000000000002,-0.2221629400464857,-0.009528380373579746,0.14999999999999994,15,90.0,-90.0,0.052114241522033214,0.5190669170512107,-1.544251163007622,-2.455985955027,0.3837761883837597,2.3917300404343553,-1.283758093619496
0.0,0.05,0.15000000000000002,-0.19918584287042093,-0.065,0.15000000000000002,30,90.0,-90.0,0.051378227557564174,-0.28435103520797483,-1.112323932744569,-2.711878209164881,-0.9319128770834052,2.022680014163052,-2.101669944273301
0.0,0.05,0.15000000000000002,-0.1626345596729059,-0.1126345596729059,0.14999999999999994,45,90.0,-90.0,0.09533030131210432,-0.6656716990604613,-1.0422608985222084,-2.4644951608344563,-1.459605218740511,1.6127370097325398,-1.9327833609968827
0.0,0.05,0.15000000000000002,-0.115,-0.14918584287042091,0.15,60,90.0,-90.0,0.1203622879043013,-0.7852148371650212,-1.1145900956277586,-2.108426085186375,-1.8317604936605048,1.5498094167600092,-1.6487936181008518
0.0,0.05,0.15000000000000002,-0.05952838037357977,-0.17216294004648575,0.15000000000000002,75,90.0,-90.0,0.09897937213942987,-0.7790889950566615,-1.2544810911802304,-1.6590840502088844,-2.077219119364213,1.6818742126856245,-1.3710737698670052
0.0,0.05,0.15000000000000002,-3.6112126549726834e-17,-0.18000000000000005,0.15000000000000002,90,90.0,-90.0,0.05967045683941768,-0.7066210316924113,-1.4777459297183406,-1.0702952665089982,-2.1878117353972253,1.9419438476236117,-1.096139097709505
0.0,0.15000000000000002,0.3,-0.05952838037357976,0.37216294004648576,0.3,-75,90.0,-90.0,0.06467016384628511,0.9552814812309018,-1.2603442000659022,-1.1384208911951352,-1.0217366477300962,-2.01656727896249,0.9553444758172959
0.0,0.15000000000000002,0.3,-0.11500000000000003,0.34918584287042087,0.3,-60,90.0,-90.0,0.10362064634758046,1.0303781495809028,-1.0143781719179834,-1.705300049644532,-1.1026747827594645,-1.7699311763812218,1.1971071020677544
0.0,0.15000000000000002,0.3,-0.16263455967290594,0.312634559672906,0.3,-45,90.0,-90.0,0.12621568176073078,1.0436035650889028,-0.8324324120248814,-2.1505112264679997,-1.315047233337346,-1.6103260717276697,1.4165551962704699
0.0,0.15000000000000002,0.3,-0.19918584287042093,0.265,0.3,-30,90.0,-90.0,0.09574526049144169,0.9235576673028119,-0.6930329320759847,-2.5154554114687375,-1.693231962154838,-1.579791657621321,1.6378776155200772
0.0,0.15000000000000002,0.3,-0.22216294004648574,0.2095283803735798,0.29999999999999993,-15,90.0,-90.0,0.056520983382164956,0.4939509370896484,-0.6561386472740293,-2.7561244108170126,-2.366454436066163,-1.7658951904724616,1.7592934289938302
0.0,0.15000000000000002,0.3,-0.23,0.15000000000000002,0.3,0,90.0,-90.0,0.0422554142678291,-0.21065105453277924,-0.8985453107264836,-2.701674850580502,2.9069631710897603,-2.0175383414017314,1.466972310011454
0.0,0.15000000000000002,0.3,-0.2221629400464857,0.09047161962642028,0.29999999999999993,15,90.0,-90.0,0.05038534730669219,-0.5423513246274652,-0.7337847815884699,-2.4129421471412917,2.3382341141960867,-1.575073733297264,1.5665062920972552
0.0,0.15000000000000002,0.3,-0.19918584287042093,0.03500000000000002,0.3,30,90.0,-90.0,0.08011682819244587,-0.6019670193868276,-0.5931851288515292,-2.075987636841155,1.9721218038457184,-1.37478092806676,2.002206214587864
0.0,0.15000000000000002,0.3,-0.1626345596729059,-0.012634559672905887,0.2999999999999999,45,90.0,-90.0,0.119598478861815,-0.5820884886270259,-0.6308284918297314,-1.752292925853449,1.7199202395573243,-1.4313950945531995,2.3183959023861243
0.0,0.15000000000000002,0.3,-0.115,-0.04918584287042088,0.3,60,90.0,-90.0,0.13626774074179068,-0.5408259645596575,-0.7427903769381046,-1.4153053014827233,1.560440305141326,-1.5846131253450924,2.5532292360905164
0.0,0.15000000000000002,0.3,-0.05952838037357977,-0.07216294004648571,0.3,75,90.0,-90.0,0.11725281696576481,-0.49015151054261047,-0.8960516351753003,-1.0426434412203716,1.4870476564574329,-1.7833610984122192,2.763848748010236
0.0,0.15000000000000002,0.3,-3.6112126549726834e-17,-0.08000000000000004,0.3,90,90.0,-90.0,0.08712953742593245,-0.43906652083132686,-1.0892003589066268,-0.6018333683792091,1.5140635591009046,-2.0054364126737267,3.007982404465562
0.0,-0.1,0.15000000000000002,-3.611212654972683e-17,0.13000000000000006,0.15000000000000002,-90,90.0,-90.0,0.07520139292199804,-2.6866645973305565,1.3572041660246896,0.45620658258988256,-1.4545519344055837,2.0124301318998805,-2.872215114194125
0.0,-0.1,0.15000000000000002,-0.05952838037357976,0.12216294004648573,0.15,-75,90.0,-90.0,0.10843070140423976,-2.6295055533942704,1.1834419388316566,0.9236685851632271,-1.4405988622201327,1.7841412309144813,-2.590917715946676
0.0,-0.1,0.15000000000000002,-0.11500000000000003,0.09918584287042087,0.15,-60,90.0,-90.0,0.13063732975656356,-2.567729346206374,1.0758239765106723,1.2974330659787334,-1.535153500938836,1.6054831164126453,-2.338600754938503
0.0,-0.1,0.15000000000000002,-0.16263455967290594,0.06263455967290593,0.15,-45,90.0,-90.0,0.13198538472641358,-2.5109694027436964,1.0360139145165237,1.6258896634031696,-1.7087034094051847,1.4983309960646443,-2.04488727775658
0.0,-0.1,0.15000000000000002,-0.19918584287042093,0.015,0.15,-30,90.0,-90.0,0.10255167497537476,-2.4769323062314594,1.1076597685018246,1.926939430891245,-1.9522144185598436,1.5309981680088707,-1.669090153098409
0.0,-0.1,0.15000000000000002,-0.22216294004648574,-0.040471619626420235,0.14999999999999997,-15,90.0,-90.0,0.08340269069070697,-2.546552254660412,1.328212267570559,2.189872014120606,-2.2481099017395927,1.813656326006201,-1.2812073176527419
0.0,-0.1,0.15000000000000002,-0.23,-0.1,0.15000000000000002,0,90.0,-90.0,0.05884649303294385,-2.8409979600271633,1.5005431039963515,2.4229186727324503,-2.728904327355663,2.3091501960730954,-1.2845036470319096
0.0,-0.1,0.15000000000000002,-0.2221629400464857,-0.15952838037357975,0.14999999999999994,15,90.0,-90.0,0.046198303773583256,-0.40615158499403675,-1.1432210681774297,-2.7063323364226064,-0.805343674963053,2.106723856746385,-2.059355718883659
0.0,-0.1,0.15000000000000002,-0.19918584287042093,-0.21500000000000002,0.15000000000000002,30,90.0,-90.0,0.09140302051983533,-0.8433681256906257,-1.0424450166360262,-2.484449888742014,-1.3823028084615803,1.6469568899681328,-1.9485780306232325
0.0,-0.1,0.15000000000000002,-0.1626345596729059,-0.26263455967290594,0.14999999999999994,45,90.0,-90.0,0.12074198951512152,-0.9906630162018963,-1.1059561534441968,-2.140824857765033,-1.7747321134586085,1.550393608466391,-1.6731758954599654
0.0,-0.1,0.15000000000000002,-0.115,-0.29918584287042094,0.15,60,90.0,-90.0,0.10079053973745669,-0.9997667806184038,-1.2415651799730092,-1.6990039009460487,-2.0382489766910927,1.661573801660906,-1.3906657678218366
0.0,-0.1,0.15000000000000002,-0.05952838037357977,-0.3221629400464857,0.15000000000000002,75,90.0,-90.0,0.06308348547277243,-0.9364593937969793,-1.4574959915952408,-1.1229977110796066,-2.1656414737443628,1.9083166803110068,-1.1152638960221792
0.1,0.1,0.15000000000000002,0.04047161962642024,0.3221629400464857,0.15,-75,90.0,-90.0,0.011459711158687692,-2.3842943257311404,1.8377683286552613,0.3163146401645031,1.8595802592976,-1.978385174502433,0.6442869478557134
0.1,0.1,0.15000000000000002,-0.015000000000000027,0.2991858428704209,0.15,-60,90.0,-90.0,0.08464639688345964,0.7367714673324719,-1.3082838578810128,-0.5771494348567043,1.6365236812582167,1.772828878226662,3.462750758162217
0.1,0.1,0.15000000000000002,-0.06263455967290593,0.26263455967290594,0.15,-45,90.0,-90.0,0.1151245354357249,0.7750456822896046,-1.145815757292401,-1.0339016948734525,1.5659211770177586,1.5621967030372814,3.749681138365031
0.1,0.1,0.15000000000000002,-0.09918584287042093,0.21500000000000002,0.15,-30,90.0,-90.0,0.0992753882023495,-2.6039273772134073,1.0754278014249115,2.3154273740407527,1.0736060209250764,-1.6916837981231012,1.789863641503876
0.1,0.1,0.15000000000000002,-0.12216294004648573,0.15952838037357978,0.14999999999999997,-15,90.0,-90.0,0.0693342364936298,-3.033014977615991,1.1527155682061676,2.4269003232795554,0.4055505556087316,-1.9764798843575215,1.7387398242156387
0.1,0.1,0.15000000000000002,-0.13,0.1,0.15000000000000002,0,90.0,-90.0,0.09262659413161382,-0.30196071824136084,-1.2435017164200652,-2.2449259655422344,2.8208965881040737,-1.9008470630786103,1.4642666554352601
0.1,0.1,0.15000000000000002,-0.1221629400464857,0.040471619626420256,0.14999999999999994,15,90.0,-90.0,0.09908162894053309,-0.5209282676627004,-1.1462334382316932,-1.9923160810895122,2.3594052174106843,-1.5685871296974665,1.5730985727172806
0.1,0.1,0.15000000000000002,-0.09918584287042093,-0.015,0.15000000000000002,30,90.0,-90.0,0.11642380010850872,-0.5769316944878872,-1.0548776710865244,-1.6916025450343077,2.0092947825951537,-1.3945440717837718,1.9258486755979842
0.1,0.1,0.15000000000000002,-0.0626345596729059,-0.0626345596729059,0.14999999999999994,45,90.0,-90.0,0.12865850044797444,-0.5626251489589278,-1.0657513312219218,-1.3623675484273279,1.7404111298307152,-1.425756950900524,2.2721516637151606
0.1,0.1,0.15000000000000002,-0.015,-0.0991858428704209,0.15,60,90.0,-90.0,0.11237789163405987,-0.5290967710271267,-1.1607565664368429,-0.9883077064890823,1.5684011152172566,-1.5755201497545612,2.5629441251541323
0.1,0.1,0.15000000000000002,0.040471619626420235,-0.12216294004648573,0.15000000000000002,75,90.0,-90.0,0.08009052225292343,-0.4909151898627409,-1.3317228719978191,-0.5158860362418728,1.5065007038132365,-1.789859240923747,2.857983461808416
0.2,0.0,0.10000000000000002,0.08499999999999998,0.19918584287042088,0.09999999999999999,-60,90.0,-90.0,0.07212302072864257,0.5565600238996107,-1.4381124645245826,-0.41951781991382847,1.5796347706753202,1.601734425396778,3.428489627624924
0.2,0.0,0.10000000000000002,0.037365440327094074,0.16263455967290594,0.09999999999999999,-45,90.0,-90.0,0.10524667466918397,0.5764835137910945,-1.2661297367560045,-0.9189280829115152,1.4482681291223605,1.4000057037430569,-2.5170118109399904
0.2,0.0,0.10000000000000002,0.0008141571295790795,0.115,0.09999999999999999,-30,90.0,-90.0,0.11663149121146418,0.5865549808997095,-1.1930620239870238,-1.2914939143029487,1.1952534961016577,1.296054137723918,-2.1759569521666857
0.2,0.0,0.10000000000000002,-0.022162940046485724,0.05952838037357977,0.09999999999999996,-15,90.0,-90.0,0.11205952099469754,0.556029061655155,-1.2062142357286207,-1.6106467546217074,0.8453410407771563,1.3509353733688731,-1.8108870183115922
0.2,0.0,0.10000000000000002,-0.03,0.0,0.10000000000000002,0,90.0,-90.0,0.11188185284332651,0.4186360698603392,-1.2665325297195966,-1.880502353442667,0.4187216252818175,1.5748949682120377,-1.5687721399817585
0.2,0.0,0.10000000000000002,-0.022162940046485696,-0.05952838037357975,0.09999999999999994,15,90.0,-90.0,0.10163144288017086,0.13582460280727202,-1.2703041318502901,-2.0629144280176708,-0.12829512851214148,1.760345402306825,-1.5948222475910445
0.2,0.0,0.10000000000000002,0.0008141571295790795,-0.115,0.10000000000000002,30,90.0,-90.0,0.10838186162790094,-0.2186066287215592,-1.2309597018308875,-2.0607021263328713,-0.7485906291965893,1.6801740145335318,-1.6717954260556709
0.2,0.0,0.10000000000000002,0.0373654403270941,-0.1626345596729059,0.09999999999999994,45,90.0,-90.0,0.10082291911990147,-0.47293399048201523,-1.285666372372997,-1.8106625046922968,-1.258364430159438,1.5577916884896184,-1.5279886662646651
0.2,0.0,0.10000000000000002,0.085,-0.1991858428704209,0.09999999999999999,60,90.0,-90.0,0.0664540625723906,-0.5747022193620419,-1.4675946021592958,-0.34439745509172487,1.557933913191839,-1.620807891859408,2.899073993915623
0.05,-0.1,0.25,0.04999999999999997,0.13000000000000006,0.25,-90,90.0,-90.0,0.06546350054492334,0.5701374217049213,-1.3091653835833408,-1.185869963669274,-1.0978560106185056,-1.900797405507513,1.0049248316477222
0.05,-0.1,0.25,-0.00952838037357976,0.12216294004648573,0.24999999999999997,-75,90.0,-90.0,0.10401864386411294,0.6114469462054771,-1.069843073113002,-1.7629788201275758,-1.23547151077061,-1.6746466370741466,1.2804614717246197
0.05,-0.1,0.25,-0.06500000000000003,0.09918584287042087,0.24999999999999997,-60,90.0,-90.0,0.12271597064699998,0.562286161016721,-0.9052235054504477,-2.1976657736934517,-1.5313903752979012,-1.5713929663372985,1.5327554333947067
0.05,-0.1,0.25,-0.11263455967290593,0.06263455967290593,0.24999999999999997,-45,90.0,-90.0,0.0877006799848702,0.3391026046492559,-0.8119740958838654,-2.5138970845446376,-2.009894461116226,-1.6490327074850875,1.737987084456649
0.05,-0.1,0.25,-0.14918584287042091,0.015,0.24999999999999997,-30,90.0,-90.0,0.05968052455459109,-0.17048171480887972,-0.8856933264379434,-2.642734258110601,-2.761855422115689,-1.9326239225460715,1.7119712634717168
0.05,-0.1,0.25,-0.17216294004648575,-0.040471619626420235,0.24999999999999994,-15,90.0,-90.0,0.0654682259572179,-0.6647494234764335,-0.9934605681723595,-2.4574076436814165,2.719808785421648,-1.854458318712827,1.4450741040554764
0.05,-0.1,0.25,-0.18,-0.1,0.25,0,90.0,-90.0,0.07534941270821739,-0.8738246711105874,-0.8389898200282968,-2.1701628655606893,2.263886048639215,-1.4849413153699904,1.6725270719782779
0.05,-0.1,0.25,-0.1721629400464857,-0.15952838037357975,0.24999999999999992,15,90.0,-90.0,0.10443987109180353,-0.9049237711724855,-0.767202392477575,-1.8448145408329442,1.9234388020053197,-1.3705510739602893,2.064882519527468
0.05,-0.1,0.25,-0.14918584287042091,-0.21500000000000002,0.25,30,90.0,-90.0,0.1334727318066616,-0.8827005092669944,-0.8174198060254764,-1.514407375039618,1.6857640229810344,-1.4517411826243263,2.373743359578374
0.05,-0.1,0.25,-0.1126345596729059,-0.26263455967290594,0.24999999999999992,45,90.0,-90.0,0.12318821728278606,-0.8440569934082968,-0.935053649701998,-1.1527221757883297,1.5414358215015243,-1.6211050527683102,2.6231973949465526
0.05,-0.1,0.25,-0.065,-0.29918584287042094,0.24999999999999997,60,90.0,-90.0,0.09583065483455644,-0.7999512082636354,-1.1064760953159223,-0.7250927436299353,1.498080667899055,-1.838266252705635,2.8701328099668624
0.05,-0.1,0.25,-0.009528380373579767,-0.3221629400464857,0.25,75,90.0,-90.0,0.05046316470309962,-0.7669975122561544,-1.3673006052027894,-0.12743047590249837,1.6117095246791493,-2.073950714747486,3.228769128239075
0.2,-0.05,0.10000000000000002,0.08499999999999998,0.14918584287042086,0.09999999999999999,-60,90.0,-90.0,0.08100257867974558,0.5005309050805774,-1.3911910524167708,-0.5420173017575128,1.5635034439404403,1.5487905628341256,-2.779267789739902
0.2,-0.05,0.10000000000000002,0.037365440327094074,0.11263455967290593,0.09999999999999999,-45,90.0,-90.0,0.10924206621654947,0.5194056147450401,-1.2442073555586524,-1.0017867718966744,1.401923820073003,1.3651616338006691,-2.448256483748913
0.2,-0.05,0.10000000000000002,0.0008141571295790795,0.065,0.09999999999999999,-30,90.0,-90.0,0.11592025115107103,0.5236699375437217,-1.1888443125042536,-1.360984352362387,1.1242988210417735,1.2877149058244164,-2.0972367861279007
0.2,-0.05,0.10000000000000002,-0.022162940046485724,0.009528380373579767,0.09999999999999996,-15,90.0,-90.0,0.11128788005252133,0.4759924433987004,-1.219129013987382,-1.6714799465510635,0.7536545038717107,1.386733097640657,-1.740711289238849
0.2,-0.05,0.10000000000000002,-0.03,-0.05,0.10000000000000002,0,90.0,-90.0,0.11210873552417903,0.3064975993177202,-1.2743745263285626,-1.925480783793712,0.3064915155608965,1.625393647763968,-1.5532461745940467
0.2,-0.05,0.10000000000000002,-0.022162940046485696,-0.10952838037357976,0.09999999999999994,15,90.0,-90.0,0.10040508389068034,-0.0019868401155646747,-1.259034241581371,-2.0776633538788687,-0.2676764973534394,1.7581674721669847,-1.6212770772345908
0.2,-0.05,0.10000000000000002,0.0008141571295790795,-0.165,0.10000000000000002,30,90.0,-90.0,0.11125562245459851,-0.3444482372203321,-1.2352597265891823,-2.01775250829241,-0.8716134056374667,1.6436425956510445,-1.6569461435717217
0.2,-0.05,0.10000000000000002,0.0373654403270941,-0.2126345596729059,0.09999999999999994,45,90.0,-90.0,0.09475334751965282,-0.567370421407365,-1.3161049222488979,-1.7165852281712386,-1.3529812705603301,1.5477089902973309,-1.4637263548322792
0.2,-0.05,0.10000000000000002,0.085,-0.2491858428704209,0.09999999999999999,60,90.0,-90.0,0.05312987959156156,2.4835444914910787,2.1421300551984928,-1.1236108820541784,-1.4993497650184824,-1.6850637422899293,3.697429441566945
0.15000000000000002,0.05,0.10000000000000002,0.03499999999999999,0.2491858428704209,0.09999999999999999,-60,90.0,-90.0,0.07742322361727157,0.6448787242643499,-1.4128015832238718,-0.48534198890924485,1.6101705504499746,1.6846378524043824,3.470250646797389
0.15000000000000002,0.05,0.10000000000000002,-0.012634559672905915,0.21263455967290595,0.09999999999999999,-45,90.0,-90.0,0.1094275589169949,-2.4761074224202297,1.2522192367290825,0.9622332975942409,-1.6430793684070557,1.475533494581711,-2.4944678298258554
0.15000000000000002,0.05,0.10000000000000002,-0.04918584287042091,0.165,0.09999999999999999,-30,90.0,-90.0,0.12276869747180547,-2.4546427446831913,1.1808102147266977,1.3310535291906342,-1.8660719353309985,1.3613736608348943,-2.168518268463197
0.15000000000000002,0.05,0.10000000000000002,-0.07216294004648571,0.10952838037357977,0.09999999999999996,-15,90.0,-90.0,0.11573104640389634,-2.46624079408256,1.200124491268075,1.649524075052272,-2.1834832128646955,1.400671577044623,-1.8076412983785295
0.15000000000000002,0.05,0.10000000000000002,-0.07999999999999999,0.05,0.10000000000000002,0,90.0,-90.0,0.10974635963178324,-2.5777482026874066,1.2836210072653198,1.9284636937229507,-2.5765684714501256,1.629439114873534,-1.5335134441829572
0.15000000000000002,0.05,0.10000000000000002,-0.07216294004648569,-0.009528380373579746,0.09999999999999994,15,90.0,-90.0,0.09118094203718295,0.3095302089281856,-1.3136895552135177,-2.1496566868801246,0.049254640901954055,1.8912383939733222,-1.5558944790760294
0.15000000000000002,0.05,0.10000000000000002,-0.04918584287042091,-0.065,0.10000000000000002,30,90.0,-90.0,0.0894750835762266,-0.10186554639749715,-1.2262538078557264,-2.229291847951356,-0.6484716723933442,1.8240131254175158,-1.758776731246969
0.15000000000000002,0.05,0.10000000000000002,-0.012634559672905887,-0.1126345596729059,0.09999999999999994,45,90.0,-90.0,0.11234129747245857,-0.41754487171311905,-1.2245019159338169,-2.035870064212836,-1.206150443932681,1.6138160339074952,-1.6814696112672927
0.15000000000000002,0.05,0.10000000000000002,0.03500000000000002,-0.14918584287042091,0.09999999999999999,60,90.0,-90.0,0.09058416566924715,-0.5680904560970477,-1.342962768211716,-1.6390157399586363,-1.61464290600854,1.577537808485265,-1.4104953267197304
0.15000000000000002,0.05,0.10000000000000002,0.09047161962642025,-0.17216294004648575,0.1,75,90.0,-90.0,0.03949219943699063,-0.52925786169342,-1.6125667984699987,0.00415457038629281,1.559812885432145,-1.8374068998564053,3.1020995092294883
-0.1,-0.05,0.3,-0.10000000000000005,0.18000000000000005,0.3,-90,90.0,-90.0,0.09912292949768133,-2.564264054030093,1.0002147191923578,0.8071467487849701,-1.418522360129727,2.128885023165204,3.4212112377793478
-0.1,-0.05,0.3,-0.15952838037357978,0.17216294004648575,0.3,-75,90.0,-90.0,0.12357115005047285,-2.482754826487251,0.8434918968837668,1.1756934396530405,-1.3906076703346029,1.9255492471667393,3.6232247807696663
-0.1,-0.05,0.3,-0.21500000000000002,0.14918584287042086,0.3,-60,90.0,-90.0,0.11619214826942573,-2.1731198809354813,0.7226523107697539,2.4353700150493895,2.0150054782556213,-1.5642876230329434,1.5866000959189053
-0.1,-0.05,0.3,-0.26263455967290594,0.11263455967290593,0.3,-45,90.0,-90.0,0.06615533768180552,-2.2301667443843867,0.6078708084277619,2.7875480258734195,1.6920788189318263,-1.5394888613640365,1.8237167643535512
-0.1,-0.05,0.3,-0.29918584287042094,0.065,0.3,-30,90.0,-90.0,0.07703618268011608,0.9286011669685914,-0.5686477399968717,-2.137153854822138,1.4630688049868283,1.5203089901638014,-2.0029541392067696
-0.1,-0.05,0.3,-0.3221629400464857,0.009528380373579767,0.29999999999999993,-15,90.0,-90.0,0.032764616662207265,-2.172717815092624,0.8312813249017359,2.468048456359837,-1.9078030450004686,1.6243020178425205,-1.4214239062046814
-0.1,-0.05,0.3,-0.33,-0.05,0.3,0,90.0,-90.0,0.02735059543817224,-1.187387826871031,-0.9452963130943413,-2.5158639421030444,1.935640353036221,-1.6886608363404145,1.2722274913826443
-0.1,-0.05,0.3,-0.3221629400464857,-0.10952838037357976,0.29999999999999993,15,90.0,-90.0,0.0709514146836579,-1.1482228870520732,-0.5764907043657104,-2.1800488646048093,1.7209810424207674,-1.5106736205999975,1.9512458785725404
-0.1,-0.05,0.3,-0.29918584287042094,-0.165,0.3,30,90.0,-90.0,0.11381738003645753,-1.0672645984501397,-0.595833635305682,-1.8686134098591776,1.5551938156147758,-1.5826886580950106,2.2473801506600806
-0.1,-0.05,0.3,-0.26263455967290594,-0.2126345596729059,0.2999999999999999,45,90.0,-90.0,0.13997982624512867,-0.9826766043602333,-0.6940587183656123,-1.5540302484991433,1.4460146268724554,-1.7236350448975186,2.453892511357961
-0.1,-0.05,0.3,-0.21500000000000002,-0.2491858428704209,0.3,60,90.0,-90.0,0.12634834642025086,-0.8967100074577382,-0.8242768856821069,-1.2223721815318218,1.3933768619983815,-1.8999562830808097,2.635605972501643
-0.1,-0.05,0.3,-0.15952838037357978,-0.2721629400464857,0.3,75,90.0,-90.0,0.10278655572558737,-0.8139451628690612,-0.9777832025947762,-0.8593340841871875,1.409272965027127,-2.1012796318697124,2.830253376048757
-0.1,-0.05,0.3,-0.10000000000000005,-0.2800000000000001,0.3,90,90.0,-90.0,0.07190642813679458,-0.7462182265687031,-1.1617511179312363,-0.44052428934619564,1.5408435825951607,-2.3155776952835403,3.098575175320637
-0.05,-0.1,0.25,-0.05000000000000004,0.13000000000000006,0.25,-90,90.0,-90.0,0.09518987639845695,0.49052810809308306,-1.1053768324019975,-0.731418069916847,1.7106684023153818,2.0432761937996378,3.4411685362128575
-0.05,-0.1,0.25,-0.10952838037357976,0.12216294004648573,0.24999999999999997,-75,90.0,-90.0,0.12179187606489514,0.560233899635173,-0.9465363182734694,-1.130771320836835,1.7191695776469331,1.8317027650585966,3.6667898262590235
-0.05,-0.1,0.25,-0.16500000000000004,0.09918584287042087,0.24999999999999997,-60,90.0,-90.0,0.11103755786642985,0.7477782094840243,-0.8274867789125413,-2.437796358543465,-1.3480408383917721,-1.542819967327061,1.6917911541553179
-0.05,-0.1,0.25,-0.21263455967290595,0.06263455967290593,0.24999999999999997,-45,90.0,-90.0,0.06517738368035218,0.5475110881526813,-0.759379205336341,-2.762086893415497,-1.7925551273886433,-1.6575873865747441,1.9407304317039344
-0.05,-0.1,0.25,-0.24918584287042095,0.015,0.24999999999999997,-30,90.0,-90.0,0.019351173843246233,-0.24344295334982569,-1.0800161781065343,-2.966829208222778,-2.7046246094544757,-2.4271129131547116,1.9100138639646578
-0.05,-0.1,0.25,-0.2721629400464857,-0.040471619626420235,0.24999999999999994,-15,90.0,-90.0,0.048084941099584416,-2.4483594114751406,1.1234367076286915,2.4281439057250487,-2.1453651658582555,1.8032522478429287,-1.2293787275768733
-0.05,-0.1,0.25,-0.28,-0.1,0.25,0,90.0,-90.0,0.04358795747545693,-2.821647234904809,1.4905159243140709,2.668494462034069,-2.5787736896494384,2.5098666474847118,-1.0999559905630498
-0.05,-0.1,0.25,-0.2721629400464857,-0.15952838037357975,0.24999999999999992,15,90.0,-90.0,0.04090866445697547,2.551904489434029,0.8152916283190877,2.905594989343334,2.202266767328372,1.9399722417905036,-2.0286173627990505
-0.05,-0.1,0.25,-0.24918584287042095,-0.21500000000000002,0.25,30,90.0,-90.0,0.08347407722190862,2.102940294632181,0.775396273580576,2.637690369183485,1.5791158036464978,1.5722878384712276,-1.8425486983948027
-0.05,-0.1,0.25,-0.2126345596729059,-0.26263455967290594,0.24999999999999992,45,90.0,-90.0,0.12854626931482335,2.0061886801223774,0.8768893436015497,2.280537706826995,1.2198954580211803,1.564847283850933,-1.5861487335984812
-0.05,-0.1,0.25,-0.165,-0.29918584287042094,0.24999999999999997,60,90.0,-90.0,0.11460787649380301,2.038985441491889,1.0216487490910608,1.8652649343031629,1.0069418491062874,1.708517728224219,-1.3569785055266959
-0.05,-0.1,0.25,-0.10952838037357977,-0.3221629400464857,0.25,75,90.0,-90.0,0.08650065655827138,2.123895873059316,1.208928157743677,1.383533583244616,0.8931551965752756,1.9362656273891352,-1.151122700211006
-0.05,-0.1,0.25,-0.05000000000000004,-0.33000000000000007,0.25,90,90.0,-90.0,0.027088504273509093,2.2470854302677576,1.5308552023682682,0.6598366578334136,0.9431510292566403,2.2585639825149473,-0.8510017485508798
0.15000000000000002,0.15000000000000002,0.2,0.03499999999999999,0.34918584287042087,0.19999999999999998,-60,90.0,-90.0,0.059902507514868635,0.7705671734272157,-2.055067304511834,0.24480548653390208,-1.5115391650610972,-1.8098227987297886,0.24613617179727143
0.15000000000000002,0.15000000000000002,0.2,-0.012634559672905915,0.312634559672906,0.19999999999999998,-45,90.0,-90.0,0.10120370619987086,-2.375220834877608,1.1405323388861384,0.8213453367008828,-1.5778705414140413,1.5522696595654724,3.5319507129756516
0.15000000000000002,0.15000000000000002,0.2,-0.04918584287042091,0.265,0.19999999999999998,-30,90.0,-90.0,0.11388627822055948,0.5980270129449641,-1.0125219562993408,-2.1483171903847698,-2.0195871715489173,-1.578234795233007,1.5890635540272677
