fryumbla/Robot-Manipulability/jupyter/abbrobot_manip_2021-04-09_20-45-41.csv
TCP x,TCP y,TCP z,eef x,eef y,eef z,Cr(rzyz),Pitch(rzyz),Roll(rzyz),Manipulability,joint_1,joint_2,joint_3,joint_4,joint_5,joint_6
0.4,0,0.1,0.43000000000000005,-0.08,0.2800000000000001,-90,90.0,-90.0,0.07893108612122214,0.36382277229274756,-0.019023946626304706,0.9820858583292429,0.0005961304273014118,0.607853959566897,1.9332998934350403
0.4,0,0.1,0.44968329839687377,-0.06950949475004985,0.2800000000000001,-75,90.0,-90.0,0.07155895417671311,0.35030334665216273,-0.10581923567480125,1.0627316542419922,0.0010903258293313875,0.6143518863497025,1.657484663771587
0.4,0,0.1,0.46598076211353323,-0.05428203230275507,0.28,-60,90.0,-90.0,0.06469429179305351,0.30171429855170684,-0.19376683391657426,1.1351952793068323,0.0014198707072384127,0.6297914068967466,1.347765788098051
0.4,0,0.1,0.47778174593052025,-0.03535533905932736,0.28,-45,90.0,-90.0,0.05904647430839638,0.21407658029459598,-0.27182735096622346,1.1927623934689555,0.0018477720613055706,0.6497401513453223,0.9970628052990138
0.4,0,0.1,0.48000000000000004,0.030000000000000034,0.2800000000000001,0,90.0,-90.0,0.05796018448313398,-0.18540195736160023,-0.28831438968436107,1.203722097926462,-0.0003660683807940955,0.655603342164821,-0.18497184688344875
0.4,0,0.1,0.4695094947500499,0.04968329839687373,0.28,15,90.0,-90.0,0.06306650801090463,-0.28329446906979977,-0.2155480746606119,1.151848936132881,-0.0005547778217921886,0.6346524308887806,-0.5441797791713846
0.4,0,0.1,0.4542820323027551,0.0659807621135332,0.2800000000000001,30,90.0,-90.0,0.06966726813802904,-0.3409317398927407,-0.1291561626687472,1.0824622757177094,-0.002126863289934151,0.6172339258567164,-0.8631844903114847
0.4,0,0.1,0.4353553390593274,0.07778174593052026,0.28,45,90.0,-90.0,0.07687181967780611,-0.36358445470789286,-0.04134631657034891,1.0038464887936152,0.0005115452762833837,0.6073462001116833,-1.1489487783771177
0.4,0,0.1,0.41401923788646683,0.0842820323027551,0.28,60,90.0,-90.0,0.08449594737816288,-0.3567066562696092,0.041510292868662,0.920680104598211,-0.001034926663677813,0.6093593486025635,-1.4035502201585655
0.4,0,0.1,0.3917277488195296,0.08503863745620109,0.2800000000000001,75,90.0,-90.0,0.0915044512591518,-0.32968512138321626,0.11533006874732349,0.8405049852404904,-0.0011923886563955802,0.6151900811402163,-1.636724382872946
0.4,0,0.1,0.37,0.08000000000000003,0.2800000000000001,90,90.0,-90.0,0.09791790044135501,-0.28812379488325157,0.17854245953883627,0.766123081543382,0.00016914917640100963,0.6268416416864814,-1.8589929374211605
0.4,0.05,0.1,0.43000000000000005,-0.03,0.2800000000000001,-90,90.0,-90.0,0.07453156461893187,0.1417658110681684,-0.06804887561063779,1.028434909352461,0.0012438683902031224,0.609508451209558,1.7114998887039765
0.4,0.05,0.1,0.44968329839687377,-0.019509494750049844,0.2800000000000001,-75,90.0,-90.0,0.06768328225219804,0.10242101275239385,-0.15352336986653733,1.1030375713660827,0.000770770731562674,0.6221006421125936,1.410409493572515
0.4,0.05,0.1,0.46598076211353323,-0.004282032302755069,0.28,-60,90.0,-90.0,0.06170916598539511,0.0247007653747647,-0.23277801736080422,1.1645971510049946,-0.000556353300283796,0.6389931373711455,1.0728686224030015
0.4,0.05,0.1,0.47778174593052025,0.01464466094067264,0.28,-45,90.0,-90.0,0.05781477026093058,-0.090303855129408,-0.28787814230413145,1.203768022915366,-0.0011412893930388569,0.6543238803579164,0.6967705397376146
0.4,0.05,0.1,0.4842820323027551,0.03598076211353318,0.2800000000000001,-30,90.0,-90.0,0.056832904147063185,-0.22723275837700205,-0.30272778239474896,1.2139225104915978,-0.000127610102055671,0.6597394915707706,0.29696642972064413
0.4,0.05,0.1,0.4850386374562011,0.058272251180470414,0.28,-15,90.0,-90.0,0.05885018860583568,-0.359109666360559,-0.27318486109224255,1.194036119010015,-0.0016926905227851192,0.6505593053480534,-0.09641366753686333
0.4,0.05,0.1,0.48000000000000004,0.08000000000000004,0.2800000000000001,0,90.0,-90.0,0.06340492478629502,-0.4628347066765107,-0.20951594024757034,1.147285354841825,-0.0016285800528792324,0.63318843142954,-0.4606341165738714
0.4,0.05,0.1,0.4695094947500499,0.09968329839687373,0.28,15,90.0,-90.0,0.0696239538775082,-0.5292988546617341,-0.12759085457316993,1.0814860374208994,-0.000518883907804796,0.616178426148817,-0.791591661890009
0.4,0.05,0.1,0.4542820323027551,0.1159807621135332,0.2800000000000001,30,90.0,-90.0,0.07692866805929306,-0.5577464575612052,-0.04113664494996127,1.0035284910280486,-0.0012399720926920435,0.6090758058124209,-1.08113715282949
0.4,0.05,0.1,0.4353553390593274,0.12778174593052027,0.28,45,90.0,-90.0,0.08429550683915461,-0.5580749448494527,0.041226052373277526,0.9207363204158863,-0.000995571168510106,0.6085327919275885,-1.3430929231927844
0.4,0.05,0.1,0.41401923788646683,0.1342820323027551,0.28,60,90.0,-90.0,0.09148338776375702,-0.5361232700612456,0.11618847967020535,0.8391258966397074,-0.0015064511581487114,0.61530758857809,-1.5828180738658135
0.4,0.05,0.1,0.3917277488195296,0.1350386374562011,0.2800000000000001,75,90.0,-90.0,0.09809521243725948,-0.4979752129978798,0.1816165048729247,0.7624518339206464,-0.0012203156720330616,0.6273252478920929,-1.8050216884991521
0.4,0.05,0.1,0.37,0.13000000000000003,0.2800000000000001,90,90.0,-90.0,0.10105934168624117,-0.44843043263917076,0.2364832904609428,0.6947975386904948,-0.0011303499518111766,0.638763234846112,-2.0188248216996234
0.35000000000000003,0.05,0.1,0.38000000000000006,-0.03,0.2800000000000001,-90,90.0,-90.0,0.08990443646627642,0.11469124607426588,0.11231264302247873,0.8435552725099442,0.0008676957984006012,0.6148955047060588,1.6839201288450842
0.35000000000000003,0.05,0.1,0.3996832983968738,-0.019509494750049844,0.2800000000000001,-75,90.0,-90.0,0.0830450789559738,0.0806595404755427,0.04067770907836522,0.9217078575954658,0.0013385680527513415,0.6080987707157481,1.3876276989045877
0.35000000000000003,0.05,0.1,0.4159807621135332,-0.004282032302755069,0.28,-60,90.0,-90.0,0.07735388511591962,0.018947328870170935,-0.021848365872709198,0.9851429162425568,0.0012355401135068149,0.6069582928843067,1.06441459665119
0.35000000000000003,0.05,0.1,0.42778174593052026,0.01464466094067264,0.28,-45,90.0,-90.0,0.0736911632555303,-0.06893713227604475,-0.06547493514386182,1.0259753192841856,0.001899046014578394,0.6106684445597979,0.7152841614834685
0.35000000000000003,0.05,0.1,0.43428203230275514,0.03598076211353318,0.2800000000000001,-30,90.0,-90.0,0.07235472692746349,-0.17339251361464525,-0.0811728033189686,1.0403434786367871,0.0017977605004655356,0.6118758747265195,0.3483350240817555
0.35000000000000003,0.05,0.1,0.43503863745620114,0.058272251180470414,0.28,-15,90.0,-90.0,0.07374254909161042,-0.27634836796192186,-0.0640768783169399,1.0250269249399389,-0.0014532688265074664,0.6096659525556763,-0.013131086175171874
0.35000000000000003,0.05,0.1,0.43000000000000005,0.08000000000000004,0.2800000000000001,0,90.0,-90.0,0.07753527661218236,-0.3637342962308925,-0.019893353422895,0.9827429291211911,-0.0007236354483137538,0.6070037487370209,-0.36224686280300983
0.35000000000000003,0.05,0.1,0.4195094947500499,0.09968329839687373,0.28,15,90.0,-90.0,0.08332302700540933,-0.42501529782301306,0.04374895643955024,0.9185174770789519,0.0022886211015645686,0.6084275311429687,-0.687810927771081
0.35000000000000003,0.05,0.1,0.4042820323027551,0.1159807621135332,0.2800000000000001,30,90.0,-90.0,0.0901320221428133,-0.4571897502519543,0.11552978053139068,0.8396980762519966,0.0005663209859821622,0.6144879356695525,-0.9811404959427342
0.35000000000000003,0.05,0.1,0.3853553390593274,0.12778174593052027,0.28,45,90.0,-90.0,0.09751933496693192,-0.4651700148667833,0.1894106291018766,0.7530371697703038,0.0012504111093487335,0.6284902455061747,-1.2509705397051516
0.35000000000000003,0.05,0.1,0.36401923788646684,0.1342820323027551,0.28,60,90.0,-90.0,0.10019487092220838,-0.4527227547434471,0.25969016544208284,0.6652427530153214,-0.001399688409648272,0.6468022943667957,-1.4978803575950708
0.35000000000000003,0.05,0.1,0.3417277488195296,0.1350386374562011,0.2800000000000001,75,90.0,-90.0,0.0988095450261717,-0.42481580370156374,0.32295561598870426,0.5812501598468319,-0.0016560031747386232,0.667117367103531,-1.7333279082603776
0.35000000000000003,0.05,0.1,0.32,0.13000000000000003,0.2800000000000001,90,90.0,-90.0,0.09693499716691051,-0.38575166204746225,0.3775168509003517,0.5058204231714581,-0.0002147041318297056,0.6865470097598131,-1.9554384329382528
0.4,-0.05,0.1,0.43000000000000005,-0.13,0.2800000000000001,-90,90.0,-90.0,0.08629005811939695,0.5540447059864712,0.062144413339766995,0.8991074798331662,-9.09280549102564e-05,0.6102841595143927,2.1239378642138327
0.4,-0.05,0.1,0.44968329839687377,-0.11950949475004985,0.2800000000000001,-75,90.0,-90.0,0.07872769416807948,0.5613591003513058,-0.019388338113297435,0.9824555336067837,-0.0017799226605315541,0.6071794813737129,1.8712979860884413
0.4,-0.05,0.1,0.46598076211353323,-0.10428203230275507,0.28,-60,90.0,-90.0,0.07144187299703558,0.5394475152404666,-0.10528555801062321,1.0620423721631622,-0.0002379586904761523,0.6134871587636436,1.5861502574745328
0.4,-0.05,0.1,0.47778174593052025,-0.08535533905932736,0.28,-45,90.0,-90.0,0.06482338789414688,0.4839431679655582,-0.1893533133150556,1.1321585594716979,0.0015951487183375923,0.6272524606120967,1.2681572844061453
0.4,-0.05,0.1,0.4842820323027551,-0.06401923788646682,0.2800000000000001,-30,90.0,-90.0,0.059816160124765254,0.3905275963440115,-0.2595057577512029,1.18429436643123,-0.0009865120890384593,0.6467521512853712,0.9157744133368293
0.4,-0.05,0.1,0.4850386374562011,-0.04172774881952959,0.28,-15,90.0,-90.0,0.05702815105327223,0.2621599997423479,-0.3001085868965828,1.2119285369829798,0.001769941017055403,0.6590703025629324,0.522574437275379
0.4,-0.05,0.1,0.48000000000000004,-0.01999999999999997,0.2800000000000001,0,90.0,-90.0,0.0573514371427256,0.12442387238249737,-0.29593369715314566,1.208986299385554,4.720691059888069e-05,0.6585679126892602,0.12450861433149707
0.4,-0.05,0.1,0.4695094947500499,-0.0003167016031262737,0.28,15,90.0,-90.0,0.06056073610423291,0.001460630186658227,-0.24915966386642782,1.176731873375584,0.0012997385342153399,0.6440542156374252,-0.26120687084953104
0.4,-0.05,0.1,0.4542820323027551,0.015980762113533192,0.2800000000000001,30,90.0,-90.0,0.06595674430639724,-0.08517527821561621,-0.17532763085452333,1.1206562291881055,-0.0015573914187518587,0.6254159147231161,-0.608280297995295
0.4,-0.05,0.1,0.4353553390593274,0.027781745930520255,0.28,45,90.0,-90.0,0.0727110531056514,-0.13476424316609523,-0.09020903161812861,1.0485164402820102,-0.0007749983435676986,0.6121044841582863,-0.9187187907398847
0.4,-0.05,0.1,0.41401923788646683,0.0342820323027551,0.28,60,90.0,-90.0,0.08004710677452813,-0.15062789034539753,-0.0049163316138910555,0.9679440048083596,-0.0009062021770077143,0.6071625114222907,-1.1962405395537878
0.4,-0.05,0.1,0.3917277488195296,0.03503863745620109,0.2800000000000001,75,90.0,-90.0,0.08740668553304473,-0.14002973985419198,0.07480881619375938,0.8852871666968644,0.0006325526917088343,0.61028182090096,-1.449950680597717
0.4,-0.05,0.1,0.37,0.030000000000000027,0.2800000000000001,90,90.0,-90.0,0.09438583511249539,-0.1106665802799894,0.14599298454288295,0.8050661884814342,-0.001311001450432368,0.619204469375387,-1.6796410225087721
0.35000000000000003,-0.05,0.1,0.38000000000000006,-0.13,0.2800000000000001,-90,90.0,-90.0,0.09912289099910386,0.4635686842111388,0.20747901017250236,0.7308658276408913,0.0008765206863225656,0.632283449891817,2.0329266315011374
0.35000000000000003,-0.05,0.1,0.3996832983968738,-0.11950949475004985,0.2800000000000001,-75,90.0,-90.0,0.09218285085413065,0.4613925096771953,0.134844783808149,0.8178365382374827,0.0018736002087031134,0.6187020193067461,1.7683678853814102
0.35000000000000003,-0.05,0.1,0.4159807621135332,-0.10428203230275507,0.28,-60,90.0,-90.0,0.08511026197272913,0.4356706154074321,0.062362601499751195,0.8986668375330358,0.0004781350069931319,0.6098963577019225,1.483361510430067
0.35000000000000003,-0.05,0.1,0.42778174593052026,-0.08535533905932736,0.28,-45,90.0,-90.0,0.07898510128824379,0.3824237689307557,-0.00415709969045585,0.9674408817176414,-0.0011375717023919037,0.6076248300969379,1.1681402640558698
0.35000000000000003,-0.05,0.1,0.43428203230275514,-0.06401923788646682,0.2800000000000001,-30,90.0,-90.0,0.0745425346525616,0.3014540430923082,-0.055011327199642544,1.0164009905023805,0.0016957936577395578,0.6093473508397439,0.8234977842335041
0.35000000000000003,-0.05,0.1,0.43503863745620114,-0.04172774881952959,0.28,-15,90.0,-90.0,0.072485267825892,0.20079394069650652,-0.07938525932895181,1.0389406329625797,-0.0007657718974207442,0.611501932619113,0.46330856162987244
0.35000000000000003,-0.05,0.1,0.43000000000000005,-0.01999999999999997,0.2800000000000001,0,90.0,-90.0,0.07307874684743114,0.09516636569581897,-0.07266058527621139,1.0326334321949988,-0.001456620451044656,0.6112135366041097,0.09720966600881567
0.35000000000000003,-0.05,0.1,0.4195094947500499,-0.0003167016031262737,0.28,15,90.0,-90.0,0.07616352223333483,0.0014322436424088333,-0.035304450901122185,0.9979544750546968,-0.0001070011379945006,0.6073077023093006,-0.2600077173505371
0.35000000000000003,-0.05,0.1,0.4042820323027551,0.015980762113533192,0.2800000000000001,30,90.0,-90.0,0.08150813536550577,-0.06766572271188842,0.02352089820861287,0.9395882320721799,-0.0013202485860805335,0.6079981390937751,-0.5897279481917496
0.35000000000000003,-0.05,0.1,0.3853553390593274,0.027781745930520255,0.28,45,90.0,-90.0,0.08798062171284915,-0.10869726538573751,0.09358430732861384,0.8645385916426952,0.0006115936341857199,0.6116205559246407,-0.8938699548107866
0.35000000000000003,-0.05,0.1,0.36401923788646684,0.0342820323027551,0.28,60,90.0,-90.0,0.09532529141917175,-0.12365362655941561,0.16702156281218608,0.7800037347511961,0.0010407130791334801,0.623953406531054,-1.1708706557545003
0.35000000000000003,-0.05,0.1,0.3417277488195296,0.03503863745620109,0.2800000000000001,75,90.0,-90.0,0.10030203829893389,-0.11736294827925126,0.23861888728827063,0.6920529661111366,0.0011069896911666084,0.6403989348517737,-1.4277477454825667
0.35000000000000003,-0.05,0.1,0.32,0.030000000000000027,0.2800000000000001,90,90.0,-90.0,0.09932220934812926,-0.09348066562320331,0.3041967324207094,0.6060998951063296,0.00029314924499852595,0.6602001772805335,-1.66448330095235
0.30000000000000004,-0.05,0.1,0.33000000000000007,-0.13,0.2800000000000001,-90,90.0,-90.0,0.09703639994098416,0.3968613572852223,0.3498850060943647,0.5441770470998413,0.001632010723101603,0.6770217328379624,1.9672728228109573
0.30000000000000004,-0.05,0.1,0.3496832983968738,-0.11950949475004985,0.2800000000000001,-75,90.0,-90.0,0.09904514023598236,0.3905716539919684,0.28128921934659484,0.6366736223999613,-0.00030121137627927706,0.6529884326293287,1.699416954865845
0.30000000000000004,-0.05,0.1,0.36598076211353325,-0.10428203230275507,0.28,-60,90.0,-90.0,0.09851831743242274,0.36371624239009415,0.21573019759223902,0.7204457252218661,-0.0006706697331106368,0.6341853365333422,1.412393265560383
0.30000000000000004,-0.05,0.1,0.3777817459305203,-0.08535533905932736,0.28,-45,90.0,-90.0,0.09301572293589098,0.31454946639532033,0.1591850796783085,0.7894005681562393,-0.0008075753993782141,0.6214799238150714,1.099709266312444
0.30000000000000004,-0.05,0.1,0.38428203230275515,-0.06401923788646682,0.2800000000000001,-30,90.0,-90.0,0.08909964117715569,0.24543604606029373,0.11902960298106474,0.8362179794730678,-0.0021210761345749375,0.6156589087359413,0.771596039833727
0.30000000000000004,-0.05,0.1,0.38503863745620115,-0.04172774881952959,0.28,-15,90.0,-90.0,0.087299015290673,0.161953804302552,0.10123172804446744,0.8561764905575651,0.0009122786625857803,0.6125951956310973,0.4222262235604858
0.30000000000000004,-0.05,0.1,0.38000000000000006,-0.01999999999999997,0.2800000000000001,0,90.0,-90.0,0.08827302281667346,0.07642764819523484,0.10953846207564712,0.8465390481922835,0.001750940122423796,0.6155518430081699,0.07597102244297971
0.30000000000000004,-0.05,0.1,0.3695094947500499,-0.0003167016031262737,0.28,15,90.0,-90.0,0.09138040560914795,0.0010199047014127064,0.14213922268060009,0.8096154684210729,0.0014897637964598315,0.619182383360591,-0.2620209464028926
0.30000000000000004,-0.05,0.1,0.3542820323027551,0.015980762113533192,0.2800000000000001,30,90.0,-90.0,0.09634282467512267,-0.05562564553399282,0.1926594749989684,0.7488648947750934,-0.00044446658064017106,0.6281199378389352,-0.5778693465257944
0.30000000000000004,-0.05,0.1,0.3353553390593274,0.027781745930520255,0.28,45,90.0,-90.0,0.09947050541318063,-0.09112102674105568,0.25578244633589214,0.6698557252495629,0.0006646115411325633,0.6442153046634683,-0.8762949433942167
0.30000000000000004,-0.05,0.1,0.31401923788646685,0.0342820323027551,0.28,60,90.0,-90.0,0.09789100299709333,-0.10473610079502296,0.32441267245477107,0.5792666684271153,-0.0007373936779646142,0.6679497785296309,-1.1517007796850223
0.30000000000000004,-0.05,0.1,0.2917277488195296,0.03503863745620109,0.2800000000000001,75,90.0,-90.0,0.0954421478979326,-0.10013735441668035,0.39195082024748207,0.4853845833072314,-0.0015175552885164343,0.6936127022252127,-1.408765041319649
0.30000000000000004,-0.05,0.1,0.27,0.030000000000000027,0.2800000000000001,90,90.0,-90.0,0.09257654720653331,-0.08084033410547468,0.4563499475314952,0.39224087668370883,-0.0007050911218538613,0.721263138779403,-1.6506161227004796
0.35000000000000003,-0.1,0.1,0.38000000000000006,-0.18,0.2800000000000001,-90,90.0,-90.0,0.09949097037896773,0.6052966298111743,0.2886322806068534,0.6272595714315906,0.0009085650558918927,0.6551264047181334,2.1747154301156497
0.35000000000000003,-0.1,0.1,0.3996832983968738,-0.16950949475004984,0.2800000000000001,-75,90.0,-90.0,0.09956928729649701,0.6145286418815602,0.21875795274977874,0.7171078794862921,-0.00014544297613040743,0.6348785712238747,1.9245340895108196
0.35000000000000003,-0.1,0.1,0.4159807621135332,-0.15428203230275508,0.28,-60,90.0,-90.0,0.09309324191953924,0.6026837848692156,0.1472800462941639,0.8031680031314287,0.0017798430902478688,0.6210506532076596,1.6478211217248924
0.35000000000000003,-0.1,0.1,0.42778174593052026,-0.13535533905932737,0.28,-45,90.0,-90.0,0.08614176660868429,0.567814877302238,0.07767464808219662,0.8817821842596569,-0.0007784523598898852,0.6102674249803737,1.3546751996204092
0.35000000000000003,-0.1,0.1,0.43428203230275514,-0.11401923788646683,0.2800000000000001,-30,90.0,-90.0,0.08074445098905896,0.505600002372203,0.019614565577085026,0.9436479992125764,0.001787910519145048,0.6070295761507195,1.0276531931006638
0.35000000000000003,-0.1,0.1,0.43503863745620114,-0.0917277488195296,0.28,-15,90.0,-90.0,0.07721750452385555,0.420208606983031,-0.02002066336811089,0.9831837790764497,0.0018901499454073477,0.6074325406674991,0.6798661903352515
0.35000000000000003,-0.1,0.1,0.43000000000000005,-0.06999999999999998,0.2800000000000001,0,90.0,-90.0,0.07617075066184252,0.3214394047410052,-0.031902558574273,0.9947993754654348,-0.00014569541074355413,0.6078173280189734,0.3210643364026575
0.35000000000000003,-0.1,0.1,0.4195094947500499,-0.050316701603126276,0.28,15,90.0,-90.0,0.07783243768736985,0.2239371654327861,-0.013984244867175586,0.9769683720217471,0.0013994827091521234,0.6084400712706521,-0.03904427079607122
0.35000000000000003,-0.1,0.1,0.4042820323027551,-0.03401923788646681,0.2800000000000001,30,90.0,-90.0,0.08175004247483128,0.14290003491563008,0.03018475617256227,0.932677339597214,0.0017677490707682171,0.6079804761916441,-0.38214118606177794
0.35000000000000003,-0.1,0.1,0.3853553390593274,-0.022218254069479748,0.28,45,90.0,-90.0,0.08743749579281293,0.08708646955703457,0.09157057682372641,0.8668227122555027,-0.0001277767142178472,0.6112223269020823,-0.6976551765640037
0.35000000000000003,-0.1,0.1,0.36401923788646684,-0.0157179676972449,0.28,60,90.0,-90.0,0.09451601080358008,0.05693679070957545,0.16180574001777862,0.7861988454429983,-0.0013082843528713253,0.6233933946304632,-0.9889897270706677
0.35000000000000003,-0.1,0.1,0.3417277488195296,-0.014961362543798915,0.2800000000000001,75,90.0,-90.0,0.10005332483355014,0.05005949943220033,0.23303594043422773,0.6987598724640602,-0.0010653477004391701,0.6398239456889022,-1.2589621722949718
0.35000000000000003,-0.1,0.1,0.32,-0.019999999999999976,0.2800000000000001,90,90.0,-90.0,0.09918438737601466,0.06234095977981145,0.30143933148319785,0.6097491785329245,0.0013035906056700405,0.6590954910659819,-1.509028402571279
0.30000000000000004,0.1,0.1,0.33000000000000007,0.020000000000000004,0.2800000000000001,-90,90.0,-90.0,0.09909418546799366,-0.06413024865311402,0.27089204906638825,0.650491676934081,-0.001048603384536436,0.6490552363917318,1.5069165896882697
0.30000000000000004,0.1,0.1,0.3496832983968738,0.03049050524995016,0.2800000000000001,-75,90.0,-90.0,0.09799487047840533,-0.10496976289868559,0.21177409203222314,0.7254515690671411,0.0004221946670248701,0.6340784052922185,1.204083558937744
0.30000000000000004,0.1,0.1,0.36598076211353325,0.045717967697244934,0.28,-60,90.0,-90.0,0.0934065790679241,-0.16564100159175005,0.16564029042764103,0.7814893712320702,0.001989725333978286,0.6234173546645935,0.8804529395250057
0.30000000000000004,0.1,0.1,0.3777817459305203,0.06464466094067264,0.28,-45,90.0,-90.0,0.09090683809190207,-0.24189321088226298,0.14050025756795112,0.8113928726767446,0.0017691124185521003,0.6191236094736323,0.5417082660433091
0.30000000000000004,0.1,0.1,0.38428203230275515,0.08598076211353319,0.2800000000000001,-30,90.0,-90.0,0.09077619185278651,-0.32442771211045984,0.13979851890979889,0.8124140566309072,-0.000691043590463684,0.6183709833809039,0.20034131147217688
0.30000000000000004,0.1,0.1,0.38503863745620115,0.10827225118047042,0.28,-15,90.0,-90.0,0.09321407005783759,-0.40156685109696993,0.16347641081989084,0.7844357226428293,0.00038053281239995487,0.6233441762160875,-0.1391822437549872
0.30000000000000004,0.1,0.1,0.38000000000000006,0.13000000000000003,0.2800000000000001,0,90.0,-90.0,0.09762719281624135,-0.46336656607783405,0.20803103598349637,0.7301558868866306,-0.0011314382044732038,0.6328695758788951,-0.4616848875052586
0.30000000000000004,0.1,0.1,0.3695094947500499,0.14968329839687372,0.28,15,90.0,-90.0,0.09916851050065016,-0.5054124049915246,0.2660310173019664,0.6563857535976894,-0.0003517928054424312,0.6476033413095166,-0.7672825255219021
0.30000000000000004,0.1,0.1,0.3542820323027551,0.1659807621135332,0.2800000000000001,30,90.0,-90.0,0.0974555554912381,-0.5263643652210162,0.33199321917469515,0.568682520890221,0.001972797492647058,0.6703797439613766,-1.0509735729605925
0.30000000000000004,0.1,0.1,0.3353553390593274,0.17778174593052026,0.28,45,90.0,-90.0,0.09488993289018233,-0.5281459173523428,0.4003985437777444,0.47375248969312744,-0.0016640480715070657,0.6963889235889401,-1.3116809332933488
0.30000000000000004,0.1,0.1,0.31401923788646685,0.1842820323027551,0.28,60,90.0,-90.0,0.09187881867728483,-0.5141635788412708,0.4665035844302184,0.37752303126199016,-0.0009884420886271687,0.7257841257678579,-1.5600734111215473
0.30000000000000004,0.1,0.1,0.2917277488195296,0.18503863745620108,0.2800000000000001,75,90.0,-90.0,0.08868146779490899,-0.48798601915939666,0.5279507216425312,0.28503645745404127,-0.0012302005904927472,0.7586121660175039,-1.7958704104256176
0.30000000000000004,0.1,0.1,0.27,0.18000000000000005,0.2800000000000001,90,90.0,-90.0,0.08560870489884935,-0.45253470344066354,0.581171481938798,0.20301530282559677,-0.0008333800626283249,0.7872964872726302,-2.0218498509862504
0.35000000000000003,0.0,0.1,0.38000000000000006,-0.08,0.2800000000000001,-90,90.0,-90.0,0.0935525872065492,0.2982574492664427,0.14717636501646672,0.80313915253315,0.0010183665274054593,0.6211412019291793,1.8691466082998642
0.35000000000000003,0.0,0.1,0.3996832983968738,-0.06950949475004985,0.2800000000000001,-75,90.0,-90.0,0.08620203262536845,0.2815297153514501,0.07259499090863773,0.8874760789341652,0.0011452578988775603,0.6107616383833149,1.5889370005483656
0.35000000000000003,0.0,0.1,0.4159807621135332,-0.05428203230275507,0.28,-60,90.0,-90.0,0.07966573556215883,0.2372358756006703,0.002230665927140844,0.9609701222835031,0.0017684037705172078,0.6073640632546011,1.2827128863536188
0.35000000000000003,0.0,0.1,0.42778174593052026,-0.03535533905932736,0.28,-45,90.0,-90.0,0.07456935246314592,0.16507433410051944,-0.05552453884561682,1.0172230564400924,-0.0003041113279578676,0.6089679410779875,0.9515253202674591
0.35000000000000003,0.0,0.1,0.43428203230275514,-0.014019237886466817,0.2800000000000001,-30,90.0,-90.0,0.0715154629142019,0.06864081187632357,-0.09192145877201173,1.0501108166872386,-0.0018234014144173495,0.6121770451926898,0.5944637903553116
0.35000000000000003,0.0,0.1,0.43503863745620114,0.008272251180470414,0.28,-15,90.0,-90.0,0.0711834567143712,-0.03968623649561548,-0.0960164379104591,1.0538722402236638,-0.001511048834816273,0.6127136104624101,0.22408511593345815
0.35000000000000003,0.0,0.1,0.43000000000000005,0.030000000000000034,0.2800000000000001,0,90.0,-90.0,0.07356239373906796,-0.14231471144631308,-0.06736656417558941,1.0282274036353836,0.0016862077262167145,0.6098922337666965,-0.144428253506071
0.35000000000000003,0.0,0.1,0.4195094947500499,0.04968329839687373,0.28,15,90.0,-90.0,0.07809576535050615,-0.2215689427128578,-0.014399843983786667,0.9774807452706759,-0.00032115171034626704,0.6064978424103409,-0.482403892127598
0.35000000000000003,0.0,0.1,0.4042820323027551,0.0659807621135332,0.2800000000000001,30,90.0,-90.0,0.08444039892402758,-0.27279910472980506,0.05403200219281412,0.9074182338970215,-0.0018782874133266932,0.6092504571099029,-0.7949207800599806
0.35000000000000003,0.0,0.1,0.3853553390593274,0.07778174593052026,0.28,45,90.0,-90.0,0.09143449703630291,-0.2963444733951325,0.12764538533038094,0.8261602175624663,-0.0005647080913045047,0.616074686183341,-1.0808569752267783
0.35000000000000003,0.0,0.1,0.36401923788646684,0.0842820323027551,0.28,60,90.0,-90.0,0.09871037704139166,-0.29632854706061634,0.20126654768004248,0.7389459193880872,-0.00046179433781816544,0.6307519870859002,-1.3428056724857875
0.35000000000000003,0.0,0.1,0.3417277488195296,0.08503863745620109,0.2800000000000001,75,90.0,-90.0,0.10012577064682997,-0.2774526622582856,0.2692218528513292,0.6522004258934971,-0.0015448295694435144,0.6498535057313669,-1.5842404245857047
0.35000000000000003,0.0,0.1,0.32,0.08000000000000003,0.2800000000000001,90,90.0,-90.0,0.09866109634718367,-0.24508546669676598,0.3298914954821201,0.571338603956077,0.0005725496375268426,0.6686694380666574,-1.8155249369661846
0.35000000000000003,0.1,0.1,0.38000000000000006,0.020000000000000004,0.2800000000000001,-90,90.0,-90.0,0.08920381298385258,-0.07639968176661252,0.10934803047305798,0.8472333907063356,-0.001626504368355647,0.6139201564377039,1.4953604400214997
0.35000000000000003,0.1,0.1,0.3996832983968738,0.03049050524995016,0.2800000000000001,-75,90.0,-90.0,0.08310999915375078,-0.12687027291363395,0.044939858407867204,0.9170586994752394,0.002071107117580735,0.6083762514008895,1.1801328402963895
0.35000000000000003,0.1,0.1,0.4159807621135332,0.045717967697244934,0.28,-60,90.0,-90.0,0.07856609361497482,-0.20182534311399847,-0.00478219633725479,0.9678070264392272,0.0009400571977317546,0.6071463316291148,0.8452562934189382
0.35000000000000003,0.1,0.1,0.42778174593052026,0.06464466094067264,0.28,-45,90.0,-90.0,0.07627571523103306,-0.29595027353475956,-0.030447287351608763,0.9932412991630774,0.00011710695804596554,0.6074313260048869,0.48886980029167676
0.35000000000000003,0.1,0.1,0.43428203230275514,0.08598076211353319,0.2800000000000001,-30,90.0,-90.0,0.07663873870865066,-0.3959054676902112,-0.025820736379592993,0.9889575387274755,0.0006288477370659054,0.6067706463223305,0.12631118213480305
0.35000000000000003,0.1,0.1,0.43503863745620114,0.10827225118047042,0.28,-15,90.0,-90.0,0.07966173909658834,-0.4858507948882391,0.007378070131238094,0.9559267209005278,-0.0013232840590477087,0.607231578148167,-0.22233299927309583
0.35000000000000003,0.1,0.1,0.43000000000000005,0.13000000000000003,0.2800000000000001,0,90.0,-90.0,0.08477036667483251,-0.5537213563318911,0.06194742029407424,0.8989557642510909,-0.0018648623038346373,0.6102550620393286,-0.5520828833669537
0.35000000000000003,0.1,0.1,0.4195094947500499,0.14968329839687372,0.28,15,90.0,-90.0,0.09117768816461179,-0.5958830908125011,0.12886330929248296,0.8247456573609467,-0.0022537547024565298,0.617060253729211,-0.8548576654113509
0.35000000000000003,0.1,0.1,0.4042820323027551,0.1659807621135332,0.2800000000000001,30,90.0,-90.0,0.09830732892943518,-0.6134373097180824,0.2005418558307584,0.7393861281436089,-3.9216512133509874e-05,0.6319630474145259,-1.1374964537148016
0.35000000000000003,0.1,0.1,0.3853553390593274,0.17778174593052026,0.28,45,90.0,-90.0,0.09985091616434505,-0.6098667368386989,0.2705397206214998,0.650572100508286,0.0010377596141805296,0.650501809912655,-1.3962524155315106
0.35000000000000003,0.1,0.1,0.36401923788646684,0.1842820323027551,0.28,60,90.0,-90.0,0.09816944535183215,-0.5886975650581067,0.3365558644174688,0.562807395064588,0.00042778991848257215,0.6706294244421017,-1.6372164618365799
0.35000000000000003,0.1,0.1,0.3417277488195296,0.18503863745620108,0.2800000000000001,75,90.0,-90.0,0.09603035727554514,-0.5550627284659057,0.3945812937253552,0.48170028642552715,-0.000828219277688107,0.6934421285746405,-1.8629295179171852
0.35000000000000003,0.1,0.1,0.32,0.18000000000000005,0.2800000000000001,90,90.0,-90.0,0.09386917566314378,-0.5125255589940543,0.44415198781700205,0.4102691094195173,-0.0005024118739432728,0.7165129744792904,-2.081978200635729
0.30000000000000004,0.05,0.1,0.33000000000000007,-0.03,0.2800000000000001,-90,90.0,-90.0,0.09920373750276609,0.09643915986426803,0.27343803094110164,0.6468687918475676,0.0005012193594595763,0.651150710492371,1.6666905170991484
0.30000000000000004,0.05,0.1,0.3496832983968738,-0.019509494750049844,0.2800000000000001,-75,90.0,-90.0,0.0980430057155305,0.06707602162373734,0.2087617566958063,0.7290624896408535,-0.0008187524313599298,0.6338729753217963,1.3772107539562484
0.30000000000000004,0.05,0.1,0.36598076211353325,-0.004282032302755069,0.28,-60,90.0,-90.0,0.0925360768801124,0.01538700577613481,0.15353393905363466,0.7957288668309579,0.001718235235779243,0.6212495009891019,1.0615832803590914
0.30000000000000004,0.05,0.1,0.3777817459305203,0.01464466094067264,0.28,-45,90.0,-90.0,0.08894532118423827,-0.05597387406245516,0.11618571374276422,0.8392240544982831,-0.00033260895930965214,0.6166380770270179,0.7306551829766785
0.30000000000000004,0.05,0.1,0.38428203230275515,0.03598076211353318,0.2800000000000001,-30,90.0,-90.0,0.08724239479381568,-0.13964330626023816,0.1005791954444967,0.8565855032576822,-5.616240186613803e-05,0.6126100200881623,0.3834984705346378
0.30000000000000004,0.05,0.1,0.38503863745620115,0.058272251180470414,0.28,-15,90.0,-90.0,0.08836750947638378,-0.2245036038658687,0.1119934445023513,0.8440854919336944,-0.0006850719697775399,0.6141572370907081,0.037223374369285314
0.30000000000000004,0.05,0.1,0.38000000000000006,0.08000000000000004,0.2800000000000001,0,90.0,-90.0,0.09175029811190866,-0.2983603251556994,0.1466630733653092,0.804151172553132,-0.0002853495650102101,0.6189897640767171,-0.2979317772098598
0.30000000000000004,0.05,0.1,0.3695094947500499,0.09968329839687373,0.28,15,90.0,-90.0,0.09707825784947631,-0.3533845330826241,0.19991934624812321,0.7403181039569123,4.680579568093956e-05,0.6300434273080604,-0.615801929162717
0.30000000000000004,0.05,0.1,0.3542820323027551,0.1159807621135332,0.2800000000000001,30,90.0,-90.0,0.09936386993944671,-0.3856762031084835,0.2639253595146977,0.6595326964516598,-0.0006648256248178935,0.6468468048177668,-0.908804163293847
0.30000000000000004,0.05,0.1,0.3353553390593274,0.12778174593052027,0.28,45,90.0,-90.0,0.09764697767515854,-0.396831343521872,0.3319381110841918,0.5689080904798841,-0.0005474478482180877,0.6696781332302236,-1.1826465856382071
0.30000000000000004,0.05,0.1,0.31401923788646685,0.1342820323027551,0.28,60,90.0,-90.0,0.09511396091569553,-0.39057177317561864,0.3999801487680384,0.474169370145448,-0.0011479389303998954,0.6968229600399457,-1.4361239463411766
0.30000000000000004,0.05,0.1,0.2917277488195296,0.1350386374562011,0.2800000000000001,75,90.0,-90.0,0.09224066616049856,-0.3699068576194245,0.46339428708504715,0.3818516351961192,-0.0012012837098891894,0.7250518438570714,-1.6789669201367539
0.30000000000000004,0.05,0.1,0.27,0.13000000000000003,0.2800000000000001,90,90.0,-90.0,0.08926919242047919,-0.3382014243579304,0.5210641795312821,0.2954885052207719,0.0009608337391914568,0.7543466526690454,-1.9105409444869033
0.25000000000000006,0.15000000000000002,0.1,0.2800000000000001,0.07000000000000002,0.2800000000000001,-90,90.0,-90.0,0.09172433411921434,-0.1922317576390029,0.4431868730872446,0.4118042777140708,0.0008772793889207718,0.7156957418307498,1.3776432304244735
0.25000000000000006,0.15000000000000002,0.1,0.2996832983968738,0.08049050524995018,0.2800000000000001,-75,90.0,-90.0,0.09403507976988186,-0.2323282309309326,0.3914011407359685,0.486497292416969,-0.0008108116669870201,0.6932289627373389,1.0765772325568126
0.25000000000000006,0.15000000000000002,0.1,0.3159807621135332,0.09571796769724494,0.28,-60,90.0,-90.0,0.09549960435528855,-0.2871711966558316,0.35483204964863224,0.5377032353136223,0.0005280743499586397,0.6772228163115912,0.7599262224857058
0.25000000000000006,0.15000000000000002,0.1,0.3277817459305203,0.11464466094067266,0.28,-45,90.0,-90.0,0.09611027916387296,-0.35199308903785353,0.33819761401334464,0.5600407967429084,3.2860246975114954e-05,0.6715422942390836,0.4325749199366805
0.25000000000000006,0.15000000000000002,0.1,0.33428203230275516,0.13598076211353322,0.2800000000000001,-30,90.0,-90.0,0.09586750057893738,-0.4183122543356984,0.3446615925655913,0.5511289974515349,-0.001304795008089564,0.6745352058185339,0.10687333481802892
0.25000000000000006,0.15000000000000002,0.1,0.33503863745620116,0.15827225118047045,0.28,-15,90.0,-90.0,0.09482470217571337,-0.4788094944894981,0.37204778195028154,0.5136541403311969,-1.107489267004818e-05,0.6843119574394287,-0.21611144078980168
0.25000000000000006,0.15000000000000002,0.1,0.33000000000000007,0.18000000000000005,0.2800000000000001,0,90.0,-90.0,0.09289067384841815,-0.5263178350489599,0.41776947257119673,0.44865174916282097,0.0011644305219637755,0.7037772166483091,-0.5272017062293486
0.25000000000000006,0.15000000000000002,0.1,0.3195094947500499,0.19968329839687377,0.28,15,90.0,-90.0,0.09012937595199402,-0.5569785209557878,0.4761316124206398,0.3631562159226574,-0.0005999742152243546,0.7319440214704442,-0.8190450800260457
0.25000000000000006,0.15000000000000002,0.1,0.30428203230275513,0.21598076211353323,0.2800000000000001,30,90.0,-90.0,0.08656043822811432,-0.5716119365875968,0.5430916261162686,0.2618440151345533,-0.0008077088137347128,0.7663613206620221,-1.0937204324657606
0.25000000000000006,0.15000000000000002,0.1,0.2853553390593274,0.22778174593052028,0.28,45,90.0,-90.0,0.08241142652645612,-0.5708424625434481,0.6129070924699243,0.15311625521161001,-0.0004872670918539836,0.8051412990351775,-1.35524273608156
0.25000000000000006,0.15000000000000002,0.1,0.26401923788646686,0.23428203230275513,0.28,60,90.0,-90.0,0.07778811688196995,-0.5570276284230367,0.6825210668963472,0.04097760054512437,-0.0005810386126507981,0.8466279149695415,-1.6029647638668834
0.25000000000000006,0.15000000000000002,0.1,0.24172774881952963,0.23503863745620113,0.2800000000000001,75,90.0,-90.0,0.07302337610605382,-0.5334483695173524,0.7485023632779075,-0.06733325878464215,0.0015333453110296857,0.8890049605784499,-1.8433581639756533
0.25000000000000006,0.15000000000000002,0.1,0.22000000000000003,0.23000000000000004,0.2800000000000001,90,90.0,-90.0,0.06845881667885535,-0.5009170887216523,0.8071373710052056,-0.1651572482641268,-0.0001737112052607689,0.9276421338864935,-2.0713604793459495
0.25000000000000006,0.0,0.1,0.2800000000000001,-0.08,0.2800000000000001,-90,90.0,-90.0,0.09199700904951541,0.21865132069753218,0.44914583748739056,0.40288940565127934,0.00035731982670205147,0.7177421937605118,1.7890961715624603
0.25000000000000006,0.0,0.1,0.2996832983968738,-0.06950949475004985,0.2800000000000001,-75,90.0,-90.0,0.09486950070484586,0.20106476857807762,0.3838573248078263,0.49688059065158835,0.001306164182771908,0.6906150530943768,1.5084746839300616
0.25000000000000006,0.0,0.1,0.3159807621135332,-0.05428203230275507,0.28,-60,90.0,-90.0,0.0970068215013124,0.165779726906228,0.32621072643133314,0.5767645897036574,0.0009491596683302353,0.6671567525238111,1.2126212352049466
0.25000000000000006,0.0,0.1,0.3277817459305203,-0.03535533905932736,0.28,-45,90.0,-90.0,0.09834190859727404,0.11260827666121334,0.2822028698567875,0.6359258621982675,0.0013445875021332763,0.6527854860597445,0.896098777427807
0.25000000000000006,0.0,0.1,0.33428203230275516,-0.014019237886466817,0.2800000000000001,-30,90.0,-90.0,0.09898321235154907,0.04616674484095074,0.25599149013674954,0.6693895217366115,-0.0021604902547285795,0.6451559855354319,0.5715977514871756
0.25000000000000006,0.0,0.1,0.33503863745620116,0.008272251180470414,0.28,-15,90.0,-90.0,0.099042413110578,-0.026830269592584374,0.2534679136886667,0.6729225865869309,-0.0007440202235716468,0.6435756252355174,0.23552294314062142
0.25000000000000006,0.0,0.1,0.33000000000000007,0.030000000000000034,0.2800000000000001,0,90.0,-90.0,0.09856651536587074,-0.09674949781490318,0.2733721454917925,0.6469431999495664,0.0014917672854256874,0.6501681402831042,-0.09826938236290737
0.25000000000000006,0.0,0.1,0.3195094947500499,0.04968329839687373,0.28,15,90.0,-90.0,0.09742131527579201,-0.15353988022877835,0.31361872100775007,0.5938824129614743,-0.0008663013458747452,0.6640791438288742,-0.41473802760968215
0.25000000000000006,0.0,0.1,0.30428203230275513,0.0659807621135332,0.2800000000000001,30,90.0,-90.0,0.09551351675747678,-0.19436695841350063,0.3676561231786746,0.5194088498779366,0.0017361968200456253,0.6837550025139767,-0.7194005451307207
0.25000000000000006,0.0,0.1,0.2853553390593274,0.07778174593052026,0.28,45,90.0,-90.0,0.09281900704653465,-0.21591962027738495,0.4314478084703082,0.4286677878116677,-0.0008091150521213074,0.7098585753287034,-1.0007891520427927
0.25000000000000006,0.0,0.1,0.26401923788646686,0.0842820323027551,0.28,60,90.0,-90.0,0.08947926581009,-0.22023759705561494,0.49990575056159686,0.3278402744303253,-0.0014341216204740031,0.7424192307976042,-1.2659524777403974
0.25000000000000006,0.0,0.1,0.24172774881952963,0.08503863745620109,0.2800000000000001,75,90.0,-90.0,0.08568356733448797,-0.21020039196516577,0.5679783151075574,0.22321875271339023,-0.0008913271240367144,0.7795617927067641,-1.5185222609904414
0.25000000000000006,0.0,0.1,0.22000000000000003,0.08000000000000003,0.2800000000000001,90,90.0,-90.0,0.08169782193292169,-0.18813557592869073,0.6322605917985076,0.12196049329302457,-0.0007933463316926181,0.8158912620524305,-1.757388157670864
0.25000000000000006,0.2,0.1,0.2800000000000001,0.12000000000000001,0.2800000000000001,-90,90.0,-90.0,0.0894273593254135,-0.3218428076942437,0.48191521595767,0.35465635405632523,0.0010767106897918819,0.7350949940184128,1.2481868197591341
0.25000000000000006,0.2,0.1,0.2996832983968738,0.13049050524995015,0.2800000000000001,-75,90.0,-90.0,0.09163990587398924,-0.3659408992945047,0.43622774113390883,0.4216735077047621,-0.0014277539185932769,0.7128224821913743,0.9434055186200117
0.25000000000000006,0.2,0.1,0.3159807621135332,0.14571796769724493,0.28,-60,90.0,-90.0,0.09293328262252551,-0.42258056347818956,0.4079139120654002,0.46277480672072574,-0.0009800158990068133,0.70019752975242,0.6259272863684779
0.25000000000000006,0.2,0.1,0.3277817459305203,0.16464466094067265,0.28,-45,90.0,-90.0,0.0932360138895509,-0.48512358328251753,0.40111708616556924,0.4726730926411518,-0.0008081611525162481,0.6977054727707995,0.2999419997010535
0.25000000000000006,0.2,0.1,0.33428203230275516,0.1859807621135332,0.2800000000000001,-30,90.0,-90.0,0.09257506081116379,-0.5464093155560449,0.4159877381576563,0.45135383634840626,-0.0014719302386715365,0.7031081821435745,-0.022226170914596593
0.25000000000000006,0.2,0.1,0.33503863745620116,0.20827225118047044,0.28,-15,90.0,-90.0,0.09095116238789915,-0.5993189743818444,0.4508403473572811,0.4003952817607786,0.0005560676661141003,0.7190971268870698,-0.3388273078387051
0.25000000000000006,0.2,0.1,0.33000000000000007,0.23000000000000004,0.2800000000000001,0,90.0,-90.0,0.08839442494781345,-0.6381513335002054,0.50169987561379,0.3246580387252575,-0.0009951915672124028,0.7448224665460034,-0.6380407219828896
0.25000000000000006,0.2,0.1,0.3195094947500499,0.24968329839687375,0.28,15,90.0,-90.0,0.08491628552677713,-0.6620697317425227,0.5646724036045895,0.22874317365891766,0.0005795532611502043,0.7762838526684075,-0.9237292302362152
0.25000000000000006,0.2,0.1,0.30428203230275513,0.2659807621135332,0.2800000000000001,30,90.0,-90.0,0.08059955685768962,-0.6699734031014691,0.6348237682161548,0.11813407927122728,-0.0009122971612797025,0.817935328392818,-1.1921806012192426
0.25000000000000006,0.2,0.1,0.2853553390593274,0.2777817459305203,0.28,45,90.0,-90.0,0.07563398193941896,-0.6645953224345316,0.7076974880490431,-9.441961583082914e-05,0.001141492779988673,0.8626213672699491,-1.4507067829376643
0.25000000000000006,0.2,0.1,0.26401923788646686,0.2842820323027551,0.28,60,90.0,-90.0,0.07025286479052771,-0.6473818003070354,0.7798045921295682,-0.11962011947841501,0.00029261554790104775,0.9096680645245953,-1.6946148035092539
0.25000000000000006,0.2,0.1,0.24172774881952963,0.2850386374562011,0.2800000000000001,75,90.0,-90.0,0.06475536123177686,-0.6209177105044078,0.847959782903077,-0.23472923137082788,-0.0012472897184353298,0.957903351487144,-1.9289018966272384
0.25000000000000006,0.2,0.1,0.22000000000000003,0.28,0.2800000000000001,90,90.0,-90.0,0.05962258130293931,-0.5878727022388597,0.9075273678636415,-0.33684077980431243,-0.0010343856791655824,0.9998251920916753,-2.158038690964849
0.20000000000000007,0.2,0.1,0.2300000000000001,0.12000000000000001,0.2800000000000001,-90,90.0,-90.0,0.07993996524053368,-0.28477535587093206,0.6311012932510159,0.1240126868576422,0.0005316123952849731,0.8152210555488785,1.2850000427727433
0.20000000000000007,0.2,0.1,0.2496832983968738,0.13049050524995015,0.2800000000000001,-75,90.0,-90.0,0.08303039351900231,-0.3225619194129503,0.5812702139757415,0.2027827324092017,-0.001136367044895962,0.7867005469534949,0.9871910370673925
0.20000000000000007,0.2,0.1,0.2659807621135333,0.14571796769724493,0.28,-60,90.0,-90.0,0.08487396982343808,-0.3715472588454383,0.5497293374383588,0.25191916660578945,-2.0850512178408103e-05,0.7689070768382416,0.675930851603037
0.20000000000000007,0.2,0.1,0.2777817459305203,0.16464466094067265,0.28,-45,90.0,-90.0,0.08550870028833149,-0.4264507616789109,0.5384238170736959,0.26914530290958494,-0.0010165833215087414,0.7629182072458074,0.35908513547729304
0.20000000000000007,0.2,0.1,0.28428203230275517,0.1859807621135332,0.2800000000000001,-30,90.0,-90.0,0.0848536767376913,-0.48182847444880633,0.550012513206626,0.25136342974315573,0.00015031116519319525,0.7701420120058029,0.042277368821315366
0.20000000000000007,0.2,0.1,0.28503863745620117,0.20827225118047044,0.28,-15,90.0,-90.0,0.08301356754471219,-0.5307348379147906,0.5814629089080509,0.20243042296363817,-8.896561761319636e-05,0.7865585796137726,-0.2692496338054567
0.20000000000000007,0.2,0.1,0.2800000000000001,0.23000000000000004,0.2800000000000001,0,90.0,-90.0,0.07995706345967914,-0.5684350590067528,0.6307709326607795,0.12435958492259064,-0.0013660399820233495,0.8156326802216064,-0.5679100224482646
0.20000000000000007,0.2,0.1,0.2695094947500499,0.24968329839687375,0.28,15,90.0,-90.0,0.07564404393284718,-0.593082564491746,0.6952925435648528,0.02010469508177931,0.0002178974561145887,0.856274821033952,-0.8557193916677097
0.20000000000000007,0.2,0.1,0.25428203230275515,0.2659807621135332,0.2800000000000001,30,90.0,-90.0,0.07020656704152571,-0.6036736229324235,0.7701036199846074,-0.10292051105864836,0.0002816905690070006,0.9029387594528534,-1.1283940726227342
0.20000000000000007,0.2,0.1,0.23535533905932743,0.2777817459305203,0.28,45,90.0,-90.0,0.06368680062789951,-0.6015164480653042,0.851782843939839,-0.24107011208658807,-0.0008854735887043131,0.9593116727142116,-1.3856367380188297
0.20000000000000007,0.2,0.1,0.2140192378864669,0.2842820323027551,0.28,60,90.0,-90.0,0.05612953439617288,-0.5886615072264871,0.9389444604459013,-0.3913292423201299,0.0010282694724071731,1.022906777935648,-1.635788340103056
0.20000000000000007,0.2,0.1,0.19172774881952964,0.2850386374562011,0.2800000000000001,75,90.0,-90.0,0.04783211617636526,-0.566454706898796,1.0274044154168764,-0.5468549700875863,0.0006653395134640794,1.0908520226285527,-1.8755908909293517
0.20000000000000007,0.2,0.1,0.17000000000000004,0.28,0.2800000000000001,90,90.0,-90.0,0.0392030621482512,-0.5374951731309107,1.1137522658066032,-0.7005429239974588,0.0009269732796015019,1.1570299755658822,-2.1094821295341384
0.15000000000000008,0.25,0.1,0.1800000000000001,0.16999999999999998,0.2800000000000001,-90,90.0,-90.0,0.06268749443956297,-0.35386863615240055,0.850163394831485,-0.23823548630218935,-0.0007445450945573597,0.9582231710868924,1.2166922522551176
0.15000000000000008,0.25,0.1,0.19968329839687382,0.18049050524995014,0.2800000000000001,-75,90.0,-90.0,0.06699047501348417,-0.3890261943719193,0.7961839424561873,-0.146693495621958,-0.0010177563068275027,0.9207249260656553,0.9208013661403647
0.15000000000000008,0.25,0.1,0.21598076211353326,0.19571796769724492,0.28,-60,90.0,-90.0,0.06936620717674156,-0.4326075236795477,0.7650391681611272,-0.09444806105923267,0.0004316915627053917,0.9009613478221185,0.6135538882362754
0.15000000000000008,0.25,0.1,0.2277817459305203,0.21464466094067264,0.28,-45,90.0,-90.0,0.06999274611654485,-0.4802168578630049,0.756631453192953,-0.08050043943687446,0.0008695698184011787,0.8950899162633115,0.3044731739199374
0.15000000000000008,0.25,0.1,0.23428203230275518,0.2359807621135332,0.2800000000000001,-30,90.0,-90.0,0.06875207303592279,-0.5266792679785045,0.7730667460516131,-0.10809945975389454,-5.63964984115771e-05,0.9065683409561391,-0.0023540350148381507
0.15000000000000008,0.25,0.1,0.23503863745620118,0.2582722511804704,0.28,-15,90.0,-90.0,0.06565718634031914,-0.5678580810905796,0.813157986619312,-0.17547196107473612,0.0005969622236136868,0.9342560677466328,-0.30569155584466223
0.15000000000000008,0.25,0.1,0.2300000000000001,0.28,0.2800000000000001,0,90.0,-90.0,0.06070708224163189,-0.5992716741964648,0.8739380414343112,-0.2792354463628305,0.000918355906610004,0.9760894836840537,-0.6006871164488449
0.15000000000000008,0.25,0.1,0.21950949475004994,0.29968329839687374,0.28,15,90.0,-90.0,0.05350658941479075,-0.6192842566633732,0.9568077889378599,-0.4225796975619547,0.0003997139988033137,1.0362130671464371,-0.8821056263279294
0.15000000000000008,0.25,0.1,0.20428203230275516,0.3159807621135332,0.2800000000000001,30,90.0,-90.0,0.043519046756643164,-0.6274085940054335,1.0629839321477632,-0.6099110526681105,9.384823860814095e-05,1.1166932596917998,-1.1511251332662538
0.15000000000000008,0.25,0.1,0.18535533905932744,0.32778174593052023,0.28,45,90.0,-90.0,0.02885365792689082,-0.6246169262113974,1.2063282567204903,-0.8679399742686388,-1.8491144332840746e-05,1.2315467148705932,-1.410554873620089
0.35000000000000003,0.15000000000000002,0.1,0.38000000000000006,0.07000000000000002,0.2800000000000001,-90,90.0,-90.0,0.09157242451568796,-0.26297068522583755,0.13786919583369803,0.8140895944866066,0.0008598426693052454,0.6194081994307291,1.30613835594738
0.35000000000000003,0.15000000000000002,0.1,0.3996832983968738,0.08049050524995018,0.2800000000000001,-75,90.0,-90.0,0.08614230832683621,-0.32325001227984845,0.08415879725000469,0.875362569615007,2.6780285589141648e-05,0.6102643275646112,0.9853924401183459
0.35000000000000003,0.15000000000000002,0.1,0.4159807621135332,0.09571796769724494,0.28,-60,90.0,-90.0,0.08309045150482097,-0.4042388424119456,0.05016024808425437,0.9115581210409404,0.001502325736700432,0.609503533645842,0.6427310944767258
0.35000000000000003,0.15000000000000002,0.1,0.42778174593052026,0.11464466094067266,0.28,-45,90.0,-90.0,0.08220936499665554,-0.4951092496343532,0.04150256986440418,0.9208259902856719,-0.0015601445934612349,0.6081620446625537,0.2912343541156077
0.35000000000000003,0.15000000000000002,0.1,0.43428203230275514,0.13598076211353322,0.2800000000000001,-30,90.0,-90.0,0.08395185263738073,-0.5840089988643474,0.06031873500476651,0.9006662388778037,0.000359995522241774,0.6091156401182748,-0.06107770184421829
0.35000000000000003,0.15000000000000002,0.1,0.43503863745620114,0.15827225118047045,0.28,-15,90.0,-90.0,0.0881446580659158,-0.6579434171942959,0.10339054595326383,0.853747577464504,0.001254978306801129,0.6141718248933643,-0.3964519031656865
0.35000000000000003,0.15000000000000002,0.1,0.43000000000000005,0.18000000000000005,0.2800000000000001,0,90.0,-90.0,0.09382806750447968,-0.7086833151747048,0.16224651550490823,0.7860574272036863,0.00010520800771261166,0.6218254224668093,-0.7090493639237908
0.35000000000000003,0.15000000000000002,0.1,0.4195094947500499,0.19968329839687377,0.28,15,90.0,-90.0,0.09963977109897049,-0.7357289692050486,0.22941106864462316,0.7032309009500748,-0.0008285657548736893,0.6387130085358276,-0.9964485636599256
0.35000000000000003,0.15000000000000002,0.1,0.4042820323027551,0.21598076211353323,0.2800000000000001,30,90.0,-90.0,0.0989160366219204,-0.7416883827143265,0.2984943121783961,0.6136472693560373,-0.0007179714143878563,0.6577479865469522,-1.2655429220357426
0.35000000000000003,0.15000000000000002,0.1,0.3853553390593274,0.22778174593052028,0.28,45,90.0,-90.0,0.09674883761720635,-0.7295214914610415,0.3669006850080446,0.5209558657939731,-0.0014549499410248861,0.6831004668782696,-1.512921429649516
0.35000000000000003,0.15000000000000002,0.1,0.36401923788646684,0.23428203230275513,0.28,60,90.0,-90.0,0.0942129840399282,-0.7037365794804672,0.4286258012353485,0.43326441065864596,-0.0008150563157179639,0.7083131570481833,-1.7500780068153843
0.35000000000000003,0.15000000000000002,0.1,0.3417277488195296,0.23503863745620113,0.2800000000000001,75,90.0,-90.0,0.09162225938289725,-0.6671477096588828,0.482509723027726,0.35359969224017007,-0.0010026007076191466,0.7339922753160858,-1.9748424927782786
0.35000000000000003,0.15000000000000002,0.1,0.32,0.23000000000000004,0.2800000000000001,90,90.0,-90.0,0.08927198749366112,-0.6230252229010416,0.526840054410344,0.28656510657455775,-8.210812582008851e-05,0.7577404561460267,-2.193263187606661
0.25000000000000006,0.1,0.1,0.2800000000000001,0.020000000000000004,0.2800000000000001,-90,90.0,-90.0,0.09291783318390821,-0.05549944180129713,0.4239248550032325,0.4398203010209466,-0.0011487847030266741,0.7062210760449619,1.5154633152648385
0.25000000000000006,0.1,0.1,0.2996832983968738,0.03049050524995016,0.2800000000000001,-75,90.0,-90.0,0.09531060757160247,-0.08961054645757573,0.3666632930248527,0.5210248485934241,0.0006716289525211746,0.682451058802753,1.219153208035996
0.25000000000000006,0.1,0.1,0.3159807621135332,0.045717967697244934,0.28,-60,90.0,-90.0,0.09692201328313367,-0.14010304604854562,0.3227305227212682,0.5816922702660909,-0.0001747729231361473,0.6675207218857262,0.9063769472996888
0.25000000000000006,0.1,0.1,0.3277817459305203,0.06464466094067264,0.28,-45,90.0,-90.0,0.09776284761146127,-0.20444882379395285,0.296464636632965,0.6167211885165907,2.130391716837698e-05,0.6575185304868703,0.5808908112042902
0.25000000000000006,0.1,0.1,0.33428203230275516,0.08598076211353319,0.2800000000000001,-30,90.0,-90.0,0.09788074389776741,-0.2742283280689578,0.2927776441081477,0.6218228070474644,0.0013974874774610618,0.6563533948214209,0.24906949686773167
0.25000000000000006,0.1,0.1,0.33503863745620116,0.10827225118047042,0.28,-15,90.0,-90.0,0.09729628304276093,-0.341244559552015,0.3112151872590108,0.5970253980610858,0.00021336229524663566,0.6617724240374567,-0.07909635106964558
0.25000000000000006,0.1,0.1,0.33000000000000007,0.13000000000000003,0.2800000000000001,0,90.0,-90.0,0.09596354639134096,-0.3968996361986002,0.349513068490075,0.5447427486956068,0.00042099477550043844,0.6759699213556505,-0.39718309476848956
0.25000000000000006,0.1,0.1,0.3195094947500499,0.14968329839687372,0.28,15,90.0,-90.0,0.09382925175311375,-0.4368951652554332,0.40308864282589685,0.4696547362665369,0.0010226353905741557,0.6975351078530239,-0.6989984427052662
0.25000000000000006,0.1,0.1,0.30428203230275513,0.1659807621135332,0.2800000000000001,30,90.0,-90.0,0.0908931174967377,-0.4590967111423849,0.466743393666633,0.3768379605244935,-0.0008447776997814987,0.7277294292484143,-0.9813272495200198
0.25000000000000006,0.1,0.1,0.2853553390593274,0.17778174593052026,0.28,45,90.0,-90.0,0.08733483894140334,-0.4648153938334214,0.5349820289222891,0.2744210305566125,-0.00015028286386854883,0.761454844156112,-1.2510809915152281
0.25000000000000006,0.1,0.1,0.26401923788646686,0.1842820323027551,0.28,60,90.0,-90.0,0.08326905370292412,-0.455879783098559,0.6037354135679384,0.16706723424903527,0.0006847005233460524,0.8002345666216474,-1.5027071537371628
0.25000000000000006,0.1,0.1,0.24172774881952963,0.18503863745620108,0.2800000000000001,75,90.0,-90.0,0.07896229876253567,-0.43484517241772297,0.6699348935198532,0.061695772872484,0.00023195724223895803,0.839036659969545,-1.743654883110397
0.25000000000000006,0.1,0.1,0.22000000000000003,0.18000000000000005,0.2800000000000001,90,90.0,-90.0,0.07472873831518502,-0.40512835980941386,0.7293642734909451,-0.035648565600581696,0.0013830653106023888,0.8769161307031197,-1.9764653006578556
0.30000000000000004,0.15000000000000002,0.1,0.33000000000000007,0.07000000000000002,0.2800000000000001,-90,90.0,-90.0,0.0983101297550049,-0.22196067597376423,0.29322916456331777,0.6210250859500075,-0.0003211388900962635,0.6558473623644481,1.3484280607627657
0.30000000000000004,0.15000000000000002,0.1,0.3496832983968738,0.08049050524995018,0.2800000000000001,-75,90.0,-90.0,0.09922613498834976,-0.27047534030596765,0.24112926986071867,0.6886179947758411,-0.0005926639104651311,0.6402351125957029,1.0385970200866435
0.30000000000000004,0.15000000000000002,0.1,0.36598076211353325,0.09571796769724494,0.28,-60,90.0,-90.0,0.09704441774867373,-0.3363671811042017,0.2065849449241579,0.7318684717715186,0.0016967106592858943,0.6327277401902544,0.7087394113540005
0.30000000000000004,0.15000000000000002,0.1,0.3777817459305203,0.11464466094067266,0.28,-45,90.0,-90.0,0.09559490536976213,-0.4117067780361751,0.19302485095407657,0.7483897357121981,-0.0017241633530275015,0.6288059276185506,0.3742440211992741
0.30000000000000004,0.15000000000000002,0.1,0.38428203230275515,0.13598076211353322,0.2800000000000001,-30,90.0,-90.0,0.09668285687157509,-0.48874055308226094,0.2038311801838192,0.7351268003441415,0.00024435894100867123,0.6312019995710607,0.03483291923431718
0.30000000000000004,0.15000000000000002,0.1,0.38503863745620115,0.15827225118047045,0.28,-15,90.0,-90.0,0.09918131809771967,-0.5555428617422902,0.23756467648126936,0.6932823153077099,-0.0005694034599424229,0.6388738778145066,-0.2925205425636132
0.30000000000000004,0.15000000000000002,0.1,0.38000000000000006,0.18000000000000005,0.2800000000000001,0,90.0,-90.0,0.09843373902283648,-0.6055668557910543,0.28841859087348726,0.6273391794957877,-0.0008911927350428151,0.6550539120702665,-0.6056334926900477
0.30000000000000004,0.15000000000000002,0.1,0.3695094947500499,0.19968329839687377,0.28,15,90.0,-90.0,0.09651674055857375,-0.6358477857996835,0.349776746840591,0.5444201381378365,-0.001570441917593706,0.6762085855850654,-0.8955306092371463
0.30000000000000004,0.15000000000000002,0.1,0.3542820323027551,0.21598076211353323,0.2800000000000001,30,90.0,-90.0,0.09385516817923485,-0.6471899376307348,0.41660728720247137,0.4503159771873765,-0.0016962104643663562,0.7037366575109637,-1.1699086029833952
0.30000000000000004,0.15000000000000002,0.1,0.3353553390593274,0.22778174593052028,0.28,45,90.0,-90.0,0.09063066024366762,-0.6418170091233212,0.48438284181509633,0.3504852107876765,-0.001055573148320394,0.7351417545882724,-1.4258544197552885
0.30000000000000004,0.15000000000000002,0.1,0.31401923788646685,0.23428203230275513,0.28,60,90.0,-90.0,0.08712262395543562,-0.6228370764545164,0.5495680459741199,0.2518843124590338,-0.0012144072831584492,0.7690667359306513,-1.6689802506324571
0.30000000000000004,0.15000000000000002,0.1,0.2917277488195296,0.23503863745620113,0.2800000000000001,75,90.0,-90.0,0.08361195240413576,-0.5936154700894315,0.6079902617392797,0.16064509921524314,-0.0005153845348124817,0.8010730532107686,-1.902676354200176
0.30000000000000004,0.15000000000000002,0.1,0.27,0.23000000000000004,0.2800000000000001,90,90.0,-90.0,0.08032067261543226,-0.5563508999833152,0.6582835488442317,0.0802897587851681,3.065519997589379e-07,0.8311852861226594,-2.1263073274337296
0.15000000000000008,0.2,0.1,0.1800000000000001,0.12000000000000001,0.2800000000000001,-90,90.0,-90.0,0.06746964299921616,-0.25507620840888046,0.794641394406426,-0.14429678817811106,3.129503380088687e-05,0.9196092551424209,1.315319473807033
0.15000000000000008,0.2,0.1,0.19968329839687382,0.13049050524995015,0.2800000000000001,-75,90.0,-90.0,0.07175428692124622,-0.2881156236801039,0.7376410070582534,-0.04934735495285535,-0.0008895980778452113,0.8825170175085131,1.0207254783552666
0.15000000000000008,0.2,0.1,0.21598076211353326,0.14571796769724493,0.28,-60,90.0,-90.0,0.07442373113808187,-0.3307746797769002,0.7002756361612512,0.012232182195078272,-0.000425585818840889,0.8575397219463047,0.7169560746006312
0.15000000000000008,0.2,0.1,0.2277817459305203,0.16464466094067265,0.28,-45,90.0,-90.0,0.07541629346377442,-0.379933456758738,0.6857597255205451,0.03564172977646887,-0.0009053735464044382,0.8499682604871468,0.40655031299892763
0.15000000000000008,0.2,0.1,0.23428203230275518,0.1859807621135332,0.2800000000000001,-30,90.0,-90.0,0.07489881442562137,-0.4299493364242659,0.6932823078389713,0.0234186910255297,-4.647946285502231e-05,0.8531838548843451,0.0942096150670212
0.15000000000000008,0.2,0.1,0.23503863745620118,0.20827225118047044,0.28,-15,90.0,-90.0,0.07273778027154063,-0.47509120815014444,0.723987564134415,-0.026842139858628055,-0.0009116841602101742,0.8725675896208281,-0.21326740614631443
0.15000000000000008,0.2,0.1,0.2300000000000001,0.23000000000000004,0.2800000000000001,0,90.0,-90.0,0.0689395778335502,-0.5113156335378035,0.7754672034959481,-0.11230802662197294,0.0008826116375416595,0.9076031502322462,-0.5120716258282183
0.15000000000000008,0.2,0.1,0.21950949475004994,0.24968329839687375,0.28,15,90.0,-90.0,0.06340938437722245,-0.5356836830944088,0.8456618199789881,-0.23052821895531206,-0.001491372261006661,0.9556560635807163,-0.7957856500154893
0.15000000000000008,0.2,0.1,0.20428203230275516,0.2659807621135332,0.2800000000000001,30,90.0,-90.0,0.05604889017332067,-0.5481444132653691,0.9319513697899986,-0.37925502751553514,-0.0002784391887958418,1.0184960049903757,-1.0725877777341801
0.15000000000000008,0.2,0.1,0.18535533905932744,0.2777817459305203,0.28,45,90.0,-90.0,0.04651574963022075,-0.5485356652612882,1.0349334878840368,-0.5600016902708789,0.00026828973747983914,1.0957545896875744,-1.3348884938627124
0.15000000000000008,0.2,0.1,0.1640192378864669,0.2842820323027551,0.28,60,90.0,-90.0,0.033763046690974685,-0.5384738265205237,1.161528539670314,-0.7869112297978994,0.00098141773617272,1.196232809094582,-1.5864484246247006
0.15000000000000008,0.2,0.1,0.14172774881952965,0.2850386374562011,0.2800000000000001,75,90.0,-90.0,0.012052727602408192,-0.519551703557283,1.3593368613124739,-1.1489904237097017,-8.291401528765516e-05,1.3594091258516223,-1.8281849253991491
0.30000000000000004,0.2,0.1,0.33000000000000007,0.12000000000000001,0.2800000000000001,-90,90.0,-90.0,0.09652956241152293,-0.3693832779085304,0.33775735628422127,0.560869762314874,0.0012581085083324967,0.6716424493449538,1.1998075742210572
0.30000000000000004,0.2,0.1,0.3496832983968738,0.13049050524995015,0.2800000000000001,-75,90.0,-90.0,0.09792864954129671,-0.4224051713987918,0.2946260696546238,0.6191271174161203,-0.00025923375860705775,0.6561224692948515,0.8866906196244032
0.30000000000000004,0.2,0.1,0.36598076211353325,0.14571796769724493,0.28,-60,90.0,-90.0,0.0986079877804275,-0.48870101386377196,0.27016777522333807,0.651396580551435,-0.0014259879194304,0.648824983791265,0.5604565036484608
0.30000000000000004,0.2,0.1,0.3777817459305203,0.16464466094067265,0.28,-45,90.0,-90.0,0.09866263008783252,-0.5608913212187308,0.2678710801394005,0.6541040900009895,0.0017517030599624153,0.649105039892823,0.22327087046249847
0.30000000000000004,0.2,0.1,0.38428203230275515,0.1859807621135332,0.2800000000000001,-30,90.0,-90.0,0.09810954048564753,-0.6286759157831112,0.2884126428199272,0.6274486587263919,3.4777885262842465e-05,0.6546948345524013,-0.10430765885462463
0.30000000000000004,0.2,0.1,0.38503863745620115,0.20827225118047044,0.28,-15,90.0,-90.0,0.09684316747285743,-0.6848505036483266,0.32879858702424897,0.5732227915858894,-0.0006750067160238681,0.6694406968763283,-0.4215340313916328
0.30000000000000004,0.2,0.1,0.38000000000000006,0.23000000000000004,0.2800000000000001,0,90.0,-90.0,0.09481422801014872,-0.7241945851207235,0.38325122192574357,0.49796325362326394,-0.001748546112632309,0.6897226207562428,-0.7236928641485988
0.30000000000000004,0.2,0.1,0.3695094947500499,0.24968329839687375,0.28,15,90.0,-90.0,0.09199668104504258,-0.745463337291665,0.4474968260137583,0.40550354720012044,0.0008263020848970814,0.7176809856478865,-1.0081786448487076
0.30000000000000004,0.2,0.1,0.3542820323027551,0.2659807621135332,0.2800000000000001,30,90.0,-90.0,0.08855160814354747,-0.7497445393840548,0.5155573953731848,0.30364846911599147,0.00032633995579930627,0.7523473710350647,-1.2738399872345847
0.30000000000000004,0.2,0.1,0.3353553390593274,0.2777817459305203,0.28,45,90.0,-90.0,0.08467951248559762,-0.7393816926350579,0.583474989058356,0.19901960038538383,0.00010222169273457261,0.7891888217777581,-1.5248397001170084
0.30000000000000004,0.2,0.1,0.31401923788646685,0.2842820323027551,0.28,60,90.0,-90.0,0.08056148932550408,-0.71734369494734,0.6484357715953974,0.09606942137063665,0.0006742885636177127,0.8272572979783632,-1.7641078988702754
0.30000000000000004,0.2,0.1,0.2917277488195296,0.2850386374562011,0.2800000000000001,75,90.0,-90.0,0.07658800130647495,-0.6857705943919848,0.7058339953281599,0.00311793308354761,0.0002319345658904173,0.8609477361348838,-1.9940689000942544
0.30000000000000004,0.2,0.1,0.27,0.28,0.2800000000000001,90,90.0,-90.0,0.0730534516767063,-0.6477995099442883,0.7537294735861967,-0.07571024610337047,3.618309170626228e-05,0.8923162168284048,-2.217793809714404
0.20000000000000007,-0.05,0.1,0.2300000000000001,-0.13,0.2800000000000001,-90,90.0,-90.0,0.08014013984519268,0.30694661227214337,0.6403666608115379,0.10908658455763952,-0.00016882747360385852,0.8203576525323849,1.876947513358421
0.20000000000000007,-0.05,0.1,0.2496832983968738,-0.11950949475004985,0.2800000000000001,-75,90.0,-90.0,0.08447543254774649,0.29715399986289115,0.5704686995400042,0.21935528844378463,-0.001251793147546076,0.7804092849046359,1.6067281550424652
0.20000000000000007,-0.05,0.1,0.2659807621135333,-0.10428203230275507,0.28,-60,90.0,-90.0,0.08793496572138858,0.2720135628249616,0.508828515766678,0.3142041002269458,0.00013044486505582858,0.7471925275591484,1.3201015090851413
0.20000000000000007,-0.05,0.1,0.2777817459305203,-0.08535533905932736,0.28,-45,90.0,-90.0,0.09044027525107727,0.23139547854890716,0.45961631169128747,0.38764858526035945,-0.0001171264081861142,0.7232851648642312,1.0162220036520533
0.20000000000000007,-0.05,0.1,0.28428203230275517,-0.06401923788646682,0.2800000000000001,-30,90.0,-90.0,0.09199263611497348,0.17801092056322917,0.4265421473798833,0.43555481222783365,-0.00010882272514151116,0.7078636127430283,0.7011322294250559
0.20000000000000007,-0.05,0.1,0.28503863745620117,-0.04172774881952959,0.28,-15,90.0,-90.0,0.09255278978131623,0.11697606079908673,0.414684794439819,0.45333275556685987,-0.0006831169757948771,0.7027123877318288,0.37884031571974836
0.20000000000000007,-0.05,0.1,0.2800000000000001,-0.01999999999999997,0.2800000000000001,0,90.0,-90.0,0.0921094343729635,0.055770035814548195,0.4240065657129206,0.43925403064966967,-0.0013659710203503558,0.7073560430491461,0.0567302121155047
0.20000000000000007,-0.05,0.1,0.2695094947500499,-0.0003167016031262737,0.28,15,90.0,-90.0,0.09069240933727848,0.000637527393702925,0.454193005299206,0.3952348428349185,0.0008725604480364258,0.7205148513166374,-0.2620995291185151
0.20000000000000007,-0.05,0.1,0.25428203230275515,0.015980762113533192,0.2800000000000001,30,90.0,-90.0,0.08826891565257655,-0.04153048921530326,0.5024586572692683,0.3237708478562161,-0.00045419779119716436,0.745363617897319,-0.5639379971588634
0.20000000000000007,-0.05,0.1,0.23535533905932743,0.027781745930520255,0.28,45,90.0,-90.0,0.0849277529808652,-0.06828712074240659,0.5626800368487951,0.23155306180072308,-0.0017073565910568434,0.7766269902345314,-0.8516898577042636
0.20000000000000007,-0.05,0.1,0.2140192378864669,0.0342820323027551,0.28,60,90.0,-90.0,0.0807280032925654,-0.08031633520326813,0.6312430758072429,0.1235086363576298,-0.0005017043991192941,0.8153022659121184,-1.1275891446575528
0.20000000000000007,-0.05,0.1,0.19172774881952964,0.03503863745620109,0.2800000000000001,75,90.0,-90.0,0.07574641579008212,-0.07797898176022634,0.7049704685439474,0.004489914290423105,-0.0011128425563660537,0.8617435572608927,-1.3857495567077611
0.20000000000000007,-0.05,0.1,0.17000000000000004,0.030000000000000027,0.2800000000000001,90,90.0,-90.0,0.07030475407178063,-0.06370408498640992,0.7783527519532712,-0.11675371990825494,-0.0012156106759498267,0.9087008984667109,-1.6333664374084387
0.15000000000000008,0.3,0.1,0.1800000000000001,0.21999999999999997,0.2800000000000001,-90,90.0,-90.0,0.05556783400682238,-0.44617698876124023,0.9293751655670841,-0.37478094880245455,0.0013058023170483737,1.016081496388915,1.1242440167240781
0.15000000000000008,0.3,0.1,0.19968329839687382,0.23049050524995013,0.2800000000000001,-75,90.0,-90.0,0.060093006925613666,-0.4819902182258065,0.8765777425750682,-0.28350019103070656,-0.0012043305998826852,0.978071830873785,0.8278976599124974
0.15000000000000008,0.3,0.1,0.21598076211353326,0.2457179676972449,0.28,-60,90.0,-90.0,0.06235702632052092,-0.5254100238451905,0.8491744134723134,-0.2365233481463294,0.0016215445566669028,0.958473310578103,0.5200504822690509
0.15000000000000008,0.3,0.1,0.2277817459305203,0.2646446609406726,0.28,-45,90.0,-90.0,0.062422394470881826,-0.57096841642039,0.8481937246469005,-0.23512586847050318,0.0005157661268419078,0.9570209268601952,0.21331141353025623
0.15000000000000008,0.3,0.1,0.23428203230275518,0.2859807621135332,0.2800000000000001,-30,90.0,-90.0,0.060339479122549666,-0.6137634019796,0.8736993855840061,-0.2783989503118818,-0.0008449179014865664,0.9752395928287124,-0.0892820419180231
0.15000000000000008,0.3,0.1,0.23503863745620118,0.3082722511804704,0.28,-15,90.0,-90.0,0.05590834273958949,-0.6505802349130186,0.9256574102818096,-0.36804523213232154,-0.0004821966129497792,1.014039388823794,-0.3875991269978099
0.15000000000000008,0.3,0.1,0.2300000000000001,0.33,0.2800000000000001,0,90.0,-90.0,0.04891031441962336,-0.6776797990969773,1.0033152630580877,-0.5038605644977486,8.297089731045947e-05,1.0723698975659541,-0.6781507402552834
0.15000000000000008,0.3,0.1,0.21950949475004994,0.34968329839687373,0.28,15,90.0,-90.0,0.0381925297471943,-0.6937037653153849,1.1138958424744376,-0.7008036552248802,-0.0005120940966186582,1.1586376234557008,-0.9545218806982527
0.15000000000000008,0.3,0.1,0.20428203230275516,0.3659807621135332,0.2800000000000001,30,90.0,-90.0,0.019974025600271336,-0.6985706267141394,1.2867643549501315,-1.0149886285230456,-0.0005988131450688646,1.2982012125593212,-1.2211638849312956
0.15000000000000008,0.35,0.1,0.1800000000000001,0.26999999999999996,0.2800000000000001,-90,90.0,-90.0,0.04523197699612074,-0.5310527000788852,1.0382657890455222,-0.5660153573158186,0.001367103237563954,1.0983688985955236,1.0388767236802905
0.15000000000000008,0.35,0.1,0.19968329839687382,0.2804905052499501,0.2800000000000001,-75,90.0,-90.0,0.05034616079678866,-0.5671237676973807,0.9834006629102235,-0.4689032019807904,-0.0011783956648529566,1.0559079304811863,0.7429527461530233
0.15000000000000008,0.35,0.1,0.21598076211353326,0.2957179676972449,0.28,-60,90.0,-90.0,0.05244769819169926,-0.6090977530630809,0.9600964982270744,-0.4280520371867015,0.0003437283069167437,1.0380876366835314,0.43864551699227855
0.15000000000000008,0.35,0.1,0.2277817459305203,0.3146446609406726,0.28,-45,90.0,-90.0,0.05176402220195057,-0.6519468747907837,0.9677339711320193,-0.4414399280793216,-0.000836852948217069,1.0453659412732077,0.13369738962845007
0.15000000000000008,0.35,0.1,0.23428203230275518,0.33598076211353317,0.2800000000000001,-30,90.0,-90.0,0.04829567741589056,-0.6918137234930632,1.0057779199200085,-0.5082478479722475,0.0008741871779037095,1.0740952763590057,-0.16812988904383963
0.15000000000000008,0.35,0.1,0.23503863745620118,0.3582722511804704,0.28,-15,90.0,-90.0,0.041512181974721694,-0.7243735174794903,1.0770416364304467,-0.6349315477551878,-0.0003477893867376722,1.1288878515644427,-0.46254862808598274
0.15000000000000008,0.35,0.1,0.2300000000000001,0.38,0.2800000000000001,0,90.0,-90.0,0.02961907134427359,-0.7474315759538579,1.1947768193655028,-0.8470500732768896,-0.0006347326365766209,1.2227047915391869,-0.7479759171957988
0.25000000000000006,0.05,0.1,0.2800000000000001,-0.03,0.2800000000000001,-90,90.0,-90.0,0.09299829034663155,0.08324057583192532,0.4262967629679792,0.4362899646710631,-0.0008361287529898473,0.7083812679653143,1.6541698152420798
0.25000000000000006,0.05,0.1,0.2996832983968738,-0.019509494750049844,0.2800000000000001,-75,90.0,-90.0,0.09560121298688976,0.05697039686681408,0.3637557892755534,0.5251660376320546,0.0017685998566939914,0.6811073962192756,1.3654490530644874
0.25000000000000006,0.05,0.1,0.3159807621135332,-0.004282032302755069,0.28,-60,90.0,-90.0,0.09740527729295012,0.013170831727838655,0.312487668798212,0.5952773420415883,-0.0009553313214234176,0.6623424321360902,1.0620430351202708
0.25000000000000006,0.05,0.1,0.3277817459305203,0.01464466094067264,0.28,-45,90.0,-90.0,0.09843844821313932,-0.0469661733397516,0.27681441502671245,0.6424451030076852,0.0010041219572897134,0.6521320379298957,0.7370336742599672
0.25000000000000006,0.05,0.1,0.33428203230275516,0.03598076211353318,0.2800000000000001,-30,90.0,-90.0,0.0988258752826456,-0.11686121930046013,0.26184995944949196,0.6620086319752279,-0.0005583754165015528,0.6460659880915184,0.4073562654782887
0.25000000000000006,0.05,0.1,0.33503863745620116,0.058272251180470414,0.28,-15,90.0,-90.0,0.09860362299762275,-0.1887584616355878,0.2705349630085129,0.6506702395249511,-0.00048096632340243394,0.650308726347236,0.07418615364703278
0.25000000000000006,0.05,0.1,0.33000000000000007,0.08000000000000004,0.2800000000000001,0,90.0,-90.0,0.09777252546472237,-0.2525008154161137,0.30071403182235196,0.6112168092646305,-0.00010640598618332658,0.6598117623291844,-0.25155332253305795
0.25000000000000006,0.05,0.1,0.3195094947500499,0.09968329839687373,0.28,15,90.0,-90.0,0.09618266387432357,-0.3016812535489408,0.3481124670462912,0.5465621000372727,-2.2915314997483806e-05,0.6760715190240784,-0.5644259567677001
0.25000000000000006,0.05,0.1,0.30428203230275513,0.1159807621135332,0.2800000000000001,30,90.0,-90.0,0.09380023779027209,-0.3323896602490465,0.40801718847674806,0.46256804438626914,-9.14223317343745e-05,0.7008866508248943,-0.8551677926879921
0.25000000000000006,0.05,0.1,0.2853553390593274,0.12778174593052027,0.28,45,90.0,-90.0,0.09073442667628964,-0.3456229675213666,0.4739962274726107,0.36645251712185517,-0.0013333118958972362,0.729959255403364,-1.1291059479261996
0.25000000000000006,0.05,0.1,0.26401923788646686,0.1342820323027551,0.28,60,90.0,-90.0,0.08706805393037655,-0.3428495174262892,0.5428711583198136,0.2620557274999252,-0.0005403230856495741,0.7656396611947849,-1.3892140332523866
0.25000000000000006,0.05,0.1,0.24172774881952963,0.1350386374562011,0.2800000000000001,75,90.0,-90.0,0.08308497278968424,-0.3269652470687636,0.6098212220547452,0.15785719479429516,-0.00010412474810056951,0.8025425114400689,-1.6367426905226619
0.25000000000000006,0.05,0.1,0.22000000000000003,0.13000000000000003,0.2800000000000001,90,90.0,-90.0,0.07900657939206698,-0.3001226522641067,0.6716772412283599,0.05845573091342711,-0.0009456557164469206,0.8413053861137113,-1.8706035619661578
0.30000000000000004,0.10000000000000002,0.1,0.33000000000000007,0.020000000000000018,0.2800000000000001,-90,90.0,-90.0,0.09909611750326008,-0.06448765429956949,0.2708698492416507,0.6504734261089943,-0.0015108624121335334,0.649214739025067,1.506952876189565
0.30000000000000004,0.10000000000000002,0.1,0.3496832983968738,0.030490505249950173,0.2800000000000001,-75,90.0,-90.0,0.09789256664554434,-0.10466321916262404,0.211389291461958,0.7260439019383459,0.0009146145005291678,0.6331380071350659,1.2036153238505252
0.30000000000000004,0.10000000000000002,0.1,0.36598076211353325,0.04571796769724495,0.28,-60,90.0,-90.0,0.09341731609087046,-0.16526882545894261,0.16622171695698426,0.7811354175580307,-7.721974290068922e-05,0.6231008957009092,0.8829000292479742
0.30000000000000004,0.10000000000000002,0.1,0.3777817459305203,0.06464466094067266,0.28,-45,90.0,-90.0,0.09077999950032827,-0.24174833930543835,0.14036328395159614,0.8112109540648744,0.00033885329911037554,0.6179616338233154,0.544250349169672
0.30000000000000004,0.10000000000000002,0.1,0.38428203230275515,0.0859807621135332,0.2800000000000001,-30,90.0,-90.0,0.09090572925709572,-0.32462851229154827,0.13979311685728618,0.8120791830459891,-0.00030443649032644215,0.6198020398250835,0.19863545677725514
0.30000000000000004,0.10000000000000002,0.1,0.38503863745620115,0.10827225118047043,0.28,-15,90.0,-90.0,0.0933111986177738,-0.4016481846554479,0.16357187386055788,0.7839746698587077,0.0013915159796567492,0.6243656718494643,-0.1417299894923159
0.30000000000000004,0.10000000000000002,0.1,0.38000000000000006,0.13000000000000006,0.2800000000000001,0,90.0,-90.0,0.09743289234770357,-0.4636530132972732,0.20744125542444533,0.7309855031591289,-0.0007539571633169799,0.6311319493513524,-0.4629429042886846
0.30000000000000004,0.10000000000000002,0.1,0.3695094947500499,0.14968329839687375,0.28,15,90.0,-90.0,0.09917341524195321,-0.5055171436705793,0.26601992985729994,0.6567584563303578,-0.00020515548287688415,0.6470340300686126,-0.7676495835143139
0.30000000000000004,0.10000000000000002,0.1,0.3542820323027551,0.16598076211353321,0.2800000000000001,30,90.0,-90.0,0.09745238154086998,-0.5267061892660275,0.33196749303067297,0.5688377213446566,0.000933641778478999,0.6693784385335549,-1.0500380057852816
0.30000000000000004,0.10000000000000002,0.1,0.3353553390593274,0.17778174593052026,0.28,45,90.0,-90.0,0.09489410746878345,-0.5283156849019247,0.40008495747622247,0.47383513998570914,-0.001693852072884538,0.6961673523256371,-1.3131580157828169
0.30000000000000004,0.10000000000000002,0.1,0.31401923788646685,0.18428203230275514,0.28,60,90.0,-90.0,0.09185987052151615,-0.5144820611699901,0.4669360304387684,0.3766434445693337,-0.0004446440794434618,0.7279831877174381,-1.56125165821135
0.30000000000000004,0.10000000000000002,0.1,0.2917277488195296,0.1850386374562011,0.2800000000000001,75,90.0,-90.0,0.08869891470010265,-0.4885420510341089,0.5274187138336275,0.2855324893470912,0.0005263343368599288,0.757173735819807,-1.79882094253074
0.30000000000000004,0.10000000000000002,0.1,0.27,0.18000000000000005,0.2800000000000001,90,90.0,-90.0,0.0855910343911797,-0.4526277409435079,0.5813920658931824,0.20269081747448747,-0.0011583601568499015,0.7868638565811696,-2.0218440931600794
0.10000000000000007,0.39999999999999997,0.1,0.13000000000000012,0.31999999999999995,0.2800000000000001,-90,90.0,-90.0,0.0855910343911797,-0.4526277409435079,0.5813920658931824,0.20269081747448747,-0.0011583601568499015,0.7868638565811696,-2.0218440931600794
0.10000000000000007,0.25,0.1,0.13000000000000012,0.16999999999999998,0.2800000000000001,-90,90.0,-90.0,0.04320714580232809,-0.3216334771734943,1.0604863485336993,-0.6053770865672354,-0.0004746789021529212,1.1165836195928058,1.2490430814065259
0.10000000000000007,0.25,0.1,0.1496832983968738,0.18049050524995014,0.2800000000000001,-75,90.0,-90.0,0.05025551577883952,-0.35279749839189584,0.9853898637420215,-0.4725784372604909,0.0010395195219789358,1.0582117942537417,0.9551634754690508
0.10000000000000007,0.25,0.1,0.16598076211353324,0.19571796769724492,0.28,-60,90.0,-90.0,0.05417805434887789,-0.3915622015261257,0.941759541891944,-0.3961132047823598,-0.00030901524639329655,1.0243918844798876,0.6567672380611749
0.10000000000000007,0.25,0.1,0.17778174593052032,0.21464466094067264,0.28,-45,90.0,-90.0,0.055375730483840306,-0.43479022720837296,0.9279182544816409,-0.3723203475956811,0.0005383421421521125,1.0140716920965733,0.3495504365388332
0.10000000000000007,0.25,0.1,0.1842820323027552,0.2359807621135332,0.2800000000000001,-30,90.0,-90.0,0.054032818925554414,-0.47788042060798164,0.943297448014626,-0.3989906949546322,0.0008852831520618221,1.0258942610757078,0.04456743572375393
0.10000000000000007,0.25,0.1,0.18503863745620117,0.2582722511804704,0.28,-15,90.0,-90.0,0.05000311458580614,-0.5165222937926218,0.9881057573620711,-0.47746721424688265,0.0009720276093303908,1.05989991004821,-0.2553062103504017
0.10000000000000007,0.25,0.1,0.18000000000000008,0.28,0.2800000000000001,0,90.0,-90.0,0.04278072783279821,-0.5468779569625347,1.0650506379493354,-0.6132137867261235,0.0010238349267993022,1.118613560344311,-0.5474750357791115
0.10000000000000007,0.25,0.1,0.16950949475004992,0.29968329839687374,0.28,15,90.0,-90.0,0.030623124379097297,-0.566955646155986,1.1858149676679182,-0.8306479735526181,-0.0009225887972301476,1.2153068148975432,-0.827836975087875
0.20000000000000007,0.10000000000000002,0.1,0.2300000000000001,0.020000000000000018,0.2800000000000001,-90,90.0,-90.0,0.0838644108742525,-0.048530131490641164,0.5780042471696388,0.20772647439072633,-0.001113940162577995,0.7850386972004889,1.5228387091243172
0.20000000000000007,0.10000000000000002,0.1,0.2496832983968738,0.030490505249950173,0.2800000000000001,-75,90.0,-90.0,0.08722777441841331,-0.0779160970134574,0.5186582705522553,0.29904093853026753,-0.0001049397123492393,0.7527719885569231,1.2305060301973239
0.20000000000000007,0.10000000000000002,0.1,0.2659807621135333,0.04571796769724495,0.28,-60,90.0,-90.0,0.08959068972672765,-0.12174990226524736,0.47358178753364794,0.3671870254356308,0.0008880388346918902,0.729256148522538,0.9255197808084602
0.20000000000000007,0.10000000000000002,0.1,0.2777817459305203,0.06464466094067266,0.28,-45,90.0,-90.0,0.09088142275667867,-0.17666496258751174,0.4468958877247356,0.40603011879553946,0.0005603361884779122,0.7186196060965833,0.6091230123037
0.20000000000000007,0.10000000000000002,0.1,0.28428203230275517,0.0859807621135332,0.2800000000000001,-30,90.0,-90.0,0.09118639235119878,-0.23690503237495011,0.4407885017917121,0.4154553441208648,-0.001832174973312773,0.7140169362217901,0.28907681925293255
0.20000000000000007,0.10000000000000002,0.1,0.28503863745620117,0.10827225118047043,0.28,-15,90.0,-90.0,0.09041744790795042,-0.2960168940973049,0.4565675107238705,0.3919475274340235,-0.001383122295129889,0.7230562003765083,-0.03255470566722708
0.20000000000000007,0.10000000000000002,0.1,0.2800000000000001,0.13000000000000006,0.2800000000000001,0,90.0,-90.0,0.08864557336154152,-0.34649218312975494,0.49186269794005233,0.33955301898504553,-0.00030721291477310716,0.7382890603838287,-0.3464390245298489
0.20000000000000007,0.10000000000000002,0.1,0.2695094947500499,0.14968329839687375,0.28,15,90.0,-90.0,0.08582315576355463,-0.3837006261420564,0.5439866635950263,0.2602941625791458,-0.001511546722791476,0.7663581576551172,-0.644569384225275
0.20000000000000007,0.10000000000000002,0.1,0.25428203230275515,0.16598076211353321,0.2800000000000001,30,90.0,-90.0,0.08205069475330741,-0.4063063950801778,0.6076520596477085,0.1609120351799904,-0.0007470770962233824,0.8026685214056253,-0.9285408294603129
0.20000000000000007,0.10000000000000002,0.1,0.23535533905932743,0.17778174593052026,0.28,45,90.0,-90.0,0.07737600072760481,-0.41397441327429796,0.6794559107794884,0.046300854656992414,-0.0009980254556617798,0.8452946717396536,-1.199600256819574
0.20000000000000007,0.10000000000000002,0.1,0.2140192378864669,0.18428203230275514,0.28,60,90.0,-90.0,0.07196025071014989,-0.40807460694584113,0.7546818258714623,-0.0773503049114698,-0.001177088352251878,0.8940977994322847,-1.4535442916408492
0.20000000000000007,0.10000000000000002,0.1,0.19172774881952964,0.1850386374562011,0.2800000000000001,75,90.0,-90.0,0.06604252639034093,-0.3913258799820305,0.8299309508342546,-0.20378618570967605,-0.0009862813523914284,0.9444672819135816,-1.6998817948416047
0.20000000000000007,0.10000000000000002,0.1,0.17000000000000004,0.18000000000000005,0.2800000000000001,90,90.0,-90.0,0.059978566133779394,-0.36596109037565566,0.9013829134535144,-0.3260548043182324,0.0011223743037379352,0.9950862001730634,-1.9377265443067362
0.15000000000000008,0.15000000000000002,0.1,0.1800000000000001,0.07000000000000002,0.2800000000000001,-90,90.0,-90.0,0.07052328050300821,-0.15096304507268624,0.7587142500427374,-0.08399799970452228,-8.307778460542641e-05,0.8957820884030168,1.4190754547869913
0.15000000000000008,0.15000000000000002,0.1,0.19968329839687382,0.08049050524995018,0.2800000000000001,-75,90.0,-90.0,0.07490868591714418,-0.18064679071003986,0.6978063969129812,0.016153555055065376,0.0002286850894805103,0.8560573337643466,1.1283540726424155
0.15000000000000008,0.15000000000000002,0.1,0.21598076211353326,0.09571796769724494,0.28,-60,90.0,-90.0,0.07781022798271053,-0.22187889903446698,0.65518953909377,0.08544358001515685,-0.0014844912778941512,0.8300371237798831,0.8272253063473186
0.15000000000000008,0.15000000000000002,0.1,0.2277817459305203,0.11464466094067266,0.28,-45,90.0,-90.0,0.07923543483923828,-0.27128807220416185,0.633027321050345,0.1206002399359109,-0.00025355870607551785,0.8172096142839171,0.5133467364019692
0.15000000000000008,0.15000000000000002,0.1,0.23428203230275518,0.13598076211353322,0.2800000000000001,-30,90.0,-90.0,0.07921940436035267,-0.3233151191951748,0.6334001486377546,0.12028869280522804,-0.0012998520634230535,0.8163024520458383,0.2012611153894543
0.15000000000000008,0.15000000000000002,0.1,0.23503863745620118,0.15827225118047045,0.28,-15,90.0,-90.0,0.07777324020851321,-0.3726483400044937,0.6555283065918635,0.08465251646131121,0.0005373439055637041,0.8297240369714276,-0.11052881764466366
0.15000000000000008,0.15000000000000002,0.1,0.2300000000000001,0.18000000000000005,0.2800000000000001,0,90.0,-90.0,0.07488935321653108,-0.4137509956061562,0.6983282409170837,0.01569178481680062,-0.00028533354518753355,0.8560500232519419,-0.4134403211591719
0.15000000000000008,0.15000000000000002,0.1,0.21950949475004994,0.19968329839687377,0.28,15,90.0,-90.0,0.07046357761460934,-0.44357557550691884,0.7593514741942173,-0.08539166680865107,0.0007334446758234321,0.8965877575675547,-0.7062631409362624
0.15000000000000008,0.15000000000000002,0.1,0.20428203230275516,0.21598076211353323,0.2800000000000001,30,90.0,-90.0,0.06461181366447047,-0.46031278540606274,0.8343970666252198,-0.21158947137233225,0.0004929322615660743,0.9470002602250549,-0.9845477311256857
0.15000000000000008,0.15000000000000002,0.1,0.18535533905932744,0.22778174593052028,0.28,45,90.0,-90.0,0.05709813963650228,-0.46418312206900064,0.9230336424164933,-0.36370632231443406,-0.000996681339331347,1.0108535442735003,-1.248046004977113
0.15000000000000008,0.15000000000000002,0.1,0.1640192378864669,0.23428203230275513,0.28,60,90.0,-90.0,0.04777892426003063,-0.4574809882036718,1.024064232397535,-0.5407802544037603,0.0009014926113647614,1.0873941023087657,-1.5044340370365608
0.15000000000000008,0.15000000000000002,0.1,0.14172774881952965,0.23503863745620113,0.2800000000000001,75,90.0,-90.0,0.03637262682816662,-0.44073085542982227,1.138225002072347,-0.7445146126172305,-0.0007410146471469297,1.1762797548609694,-1.7504015111583184
0.15000000000000008,0.15000000000000002,0.1,0.12000000000000005,0.23000000000000004,0.2800000000000001,90,90.0,-90.0,0.020657852698292015,-0.41620440362986405,1.2839240679452644,-1.0096839288372297,-0.0005863479961376544,1.2971094787735626,-1.9859465860249526
0.05000000000000007,0.3,0.1,0.0800000000000001,0.21999999999999997,0.2800000000000001,-90,90.0,-90.0,0.020657852698292015,-0.41620440362986405,1.2839240679452644,-1.0096839288372297,-0.0005863479961376544,1.2971094787735626,-1.9859465860249526
0.05000000000000007,0.3,0.1,0.1277817459305203,0.2646446609406726,0.28,-45,90.0,-90.0,0.0033308927269247893,-0.47679660972803156,1.4339223896159514,-1.2875139939762177,-0.0012588680817235648,1.4237407419176062,0.3097374063922059
0.05000000000000007,0.3,0.1,0.08535533905932743,0.3777817459305203,0.28,45,90.0,-90.0,0.0033308927269247893,-0.47679660972803156,1.4339223896159514,-1.2875139939762177,-0.0012588680817235648,1.4237407419176062,0.3097374063922059
0.20000000000000007,0.25,0.1,0.2300000000000001,0.16999999999999998,0.2800000000000001,-90,90.0,-90.0,0.07591303865116374,-0.3930542848916011,0.6852652385594796,0.03693470153940173,-0.0005696911702470237,0.8475223703713771,1.178768749221714
0.20000000000000007,0.25,0.1,0.2496832983968738,0.18049050524995014,0.2800000000000001,-75,90.0,-90.0,0.07891119428386441,-0.4330755709018529,0.6401616029162696,0.10946069166725227,-0.000668413064890118,0.8212379885278418,0.8769405471988188
0.20000000000000007,0.25,0.1,0.2659807621135333,0.19571796769724492,0.28,-60,90.0,-90.0,0.0805190786037058,-0.48210828025280006,0.6149536712987148,0.14966409505335498,-0.0005544961394466598,0.8071937246143812,0.5651597174157084
0.20000000000000007,0.25,0.1,0.2777817459305203,0.21464466094067264,0.28,-45,90.0,-90.0,0.08076153084434333,-0.5350224817346979,0.6110505535845674,0.15588203884307675,0.0005952786409507583,0.8028954057680866,0.2506463754871548
0.20000000000000007,0.25,0.1,0.28428203230275517,0.2359807621135332,0.2800000000000001,-30,90.0,-90.0,0.0795744417214207,-0.5857996064789747,0.6297798918820956,0.12589922275720195,0.0011067157618572247,0.8155573246285281,-0.06220089447069087
0.20000000000000007,0.25,0.1,0.28503863745620117,0.2582722511804704,0.28,-15,90.0,-90.0,0.07697512798806838,-0.6286974684627473,0.669455480631705,0.06235258676971547,-0.0011242923468574918,0.8391140008675588,-0.3651427756086587
0.20000000000000007,0.25,0.1,0.2800000000000001,0.28,0.2800000000000001,0,90.0,-90.0,0.07301293631526684,-0.6611818633076373,0.7264889140580771,-0.030685496236512084,0.001547595024848559,0.874878049123193,-0.6629316942280914
0.20000000000000007,0.25,0.1,0.2695094947500499,0.29968329839687374,0.28,15,90.0,-90.0,0.06755149098184592,-0.6800803799948006,0.7990067439270232,-0.15159543731054506,-0.00032562797847059496,0.9235013162036277,-0.9421866997467996
0.20000000000000007,0.25,0.1,0.25428203230275515,0.3159807621135332,0.2800000000000001,30,90.0,-90.0,0.060690656079889084,-0.6861951209404779,0.8828900986489873,-0.2943700267175587,0.0002846671740555212,0.9826735096621203,-1.2090953619154687
0.20000000000000007,0.25,0.1,0.23535533905932743,0.32778174593052023,0.28,45,90.0,-90.0,0.052306787153376916,-0.6807929066232236,0.9770118182702949,-0.45786002487384775,-0.000767993795726985,1.0508898906711837,-1.4651177672100981
0.20000000000000007,0.25,0.1,0.2140192378864669,0.3342820323027551,0.28,60,90.0,-90.0,0.04219565111204833,-0.6655008051473242,1.081703893975764,-0.6434218549884749,0.0009463905970309833,1.133179332367457,-1.7134638239747668
0.20000000000000007,0.25,0.1,0.19172774881952964,0.3350386374562011,0.2800000000000001,75,90.0,-90.0,0.029947526151377135,-0.6418817441807855,1.1996044600695899,-0.855566498422831,-0.00034889344256408897,1.2259431561194802,-1.9498338635360124
0.20000000000000007,0.25,0.1,0.17000000000000004,0.33,0.2800000000000001,90,90.0,-90.0,0.011636038637094117,-0.6122606052330051,1.363822649845796,-1.1569831076192627,0.00085104559065957,1.3634195865880325,-2.1841627194576394
0.20000000000000007,0.05,0.1,0.2300000000000001,-0.03,0.2800000000000001,-90,90.0,-90.0,0.08391778888012191,0.07287353533661327,0.5797914380833021,0.2047175307733738,0.001321842505552031,0.7867365216612474,1.643051610354686
0.20000000000000007,0.05,0.1,0.2496832983968738,-0.019509494750049844,0.2800000000000001,-75,90.0,-90.0,0.08750057269138327,0.0502538031212843,0.5168038231613249,0.3018010447587417,-0.0011523643977507682,0.7525106282569465,1.361053903643555
0.20000000000000007,0.05,0.1,0.2659807621135333,-0.004282032302755069,0.28,-60,90.0,-90.0,0.09016466933738335,0.011499881123103647,0.4652411366294407,0.37914363653074895,-0.0016434139539043347,0.7269070590720328,1.0607108592646919
0.20000000000000007,0.05,0.1,0.2777817459305203,0.01464466094067264,0.28,-45,90.0,-90.0,0.09185742846101838,-0.04036094434339969,0.4299732963050862,0.43129120199126325,0.00014356433037721226,0.7083934547809093,0.7447848023316607
0.20000000000000007,0.05,0.1,0.28428203230275517,0.03598076211353318,0.2800000000000001,-30,90.0,-90.0,0.09252392891916564,-0.10119772539423623,0.4149211272136681,0.4524115445109007,0.0018709026731684806,0.7038132347527369,0.4215636066525348
0.20000000000000007,0.05,0.1,0.28503863745620117,0.058272251180470414,0.28,-15,90.0,-90.0,0.09223332110801519,-0.16271867434207288,0.42143974006033963,0.4431604582510955,-3.9254592751487367e-05,0.7054393579818584,0.09811808266148783
0.20000000000000007,0.05,0.1,0.2800000000000001,0.08000000000000004,0.2800000000000001,0,90.0,-90.0,0.09096152849099601,-0.21887770435117374,0.4489372144166322,0.4033646595197674,0.0012514736812289063,0.7180481374344291,-0.2200500069656236
0.20000000000000007,0.05,0.1,0.2695094947500499,0.09968329839687373,0.28,15,90.0,-90.0,0.08868129440591707,-0.2627017460372306,0.4945150680550755,0.33570260621242737,-0.0004784964495129526,0.7396593084436139,-0.5234204440350313
0.20000000000000007,0.05,0.1,0.25428203230275515,0.1159807621135332,0.2800000000000001,30,90.0,-90.0,0.0854529784915224,-0.2919829081938013,0.5534537384538777,0.24561317170104552,-0.0005445829856190929,0.7708777594130838,-0.8144700998966882
0.20000000000000007,0.05,0.1,0.23535533905932743,0.12778174593052027,0.28,45,90.0,-90.0,0.08136192090931238,-0.3058229053273802,0.6215389044696724,0.13930929325677177,0.00017393751713172425,0.8088480653645432,-1.091789174139681
0.20000000000000007,0.05,0.1,0.2140192378864669,0.1342820323027551,0.28,60,90.0,-90.0,0.07646748884514126,-0.30524932187121,0.6947464264330224,0.021189754714329934,-0.001242699786158848,0.8548573556690403,-1.3522696067205677
0.20000000000000007,0.05,0.1,0.19172774881952964,0.1350386374562011,0.2800000000000001,75,90.0,-90.0,0.07104910024266102,-0.2927508604728312,0.768603749538441,-0.10070717399801174,-1.5082815889405328e-06,0.9025636483030975,-1.602513960446391
0.20000000000000007,0.05,0.1,0.17000000000000004,0.13000000000000003,0.2800000000000001,90,90.0,-90.0,0.06534787518504825,-0.2698406627408857,0.8401553773104102,-0.22099803109524355,-0.001025577710275297,0.9513270387355401,-1.8399835665118909
0.30000000000000004,-0.15000000000000002,0.1,0.33000000000000007,-0.23000000000000004,0.2800000000000001,-90,90.0,-90.0,0.08972999291518402,0.6382431826947061,0.5021798415220302,0.3243326618796411,0.0016443976883133912,0.7443773702680381,2.2069066439782343
0.30000000000000004,-0.15000000000000002,0.1,0.3496832983968738,-0.21950949475004988,0.2800000000000001,-75,90.0,-90.0,0.09306324382031197,0.6472219995222517,0.43432355119209426,0.42463754474062887,0.0008637212577329278,0.7120005362398575,1.9551013709372906
0.30000000000000004,-0.15000000000000002,0.1,0.36598076211353325,-0.2042820323027551,0.28,-60,90.0,-90.0,0.09588313158086434,0.6407071902674604,0.3672397188381402,0.5204563203799091,-0.0004890186350223764,0.6829603631264111,1.6873610667079926
0.30000000000000004,-0.15000000000000002,0.1,0.3777817459305203,-0.18535533905932738,0.28,-45,90.0,-90.0,0.09802208747847511,0.6149643403398962,0.30341076707864667,0.6072757453258246,0.0010690276159202412,0.6600096314814452,1.3996302254910862
0.30000000000000004,-0.15000000000000002,0.1,0.38428203230275515,-0.16401923788646683,0.2800000000000001,-30,90.0,-90.0,0.09920022271935082,0.5703045222129309,0.2492028475385267,0.6781665846345275,0.0009309103727204913,0.6440911168435755,1.09384355761291
0.30000000000000004,-0.15000000000000002,0.1,0.38503863745620115,-0.1417277488195296,0.28,-15,90.0,-90.0,0.09729431684645243,0.5075426294314072,0.21098675946976758,0.7268510477945891,-0.00017765187332628165,0.6317955033192746,0.7704679556668123
0.30000000000000004,-0.15000000000000002,0.1,0.38000000000000006,-0.12,0.2800000000000001,0,90.0,-90.0,0.09565425851567796,0.4327195445003778,0.19337205427793613,0.7478705648303818,-0.001563302424356531,0.6291291971446182,0.4343573660593429
0.30000000000000004,-0.15000000000000002,0.1,0.3695094947500499,-0.1003167016031263,0.28,15,90.0,-90.0,0.09654888740063101,0.3550769444199913,0.20110335542089516,0.7385918111689533,-0.00037767046685649995,0.6320315771248384,0.09375054143119707
0.30000000000000004,-0.15000000000000002,0.1,0.3542820323027551,-0.08401923788646683,0.2800000000000001,30,90.0,-90.0,0.09898049251291187,0.28557255716650054,0.23026004046784146,0.7024069699304574,0.0019215368716789987,0.6374646812661015,-0.2389831756245819
0.30000000000000004,-0.15000000000000002,0.1,0.3353553390593274,-0.07221825406947976,0.28,45,90.0,-90.0,0.09867449578519216,0.2326556374451122,0.2788990273776798,0.6399255287125426,0.0009233260218279738,0.6527585031067749,-0.5527808330601591
0.30000000000000004,-0.15000000000000002,0.1,0.31401923788646685,-0.06571796769724492,0.28,60,90.0,-90.0,0.0969181668089946,0.19893130572055745,0.3385931548555995,0.5599992626020753,-0.001427555749648714,0.6725990299284209,-0.8465077028741739
0.30000000000000004,-0.15000000000000002,0.1,0.2917277488195296,-0.06496136254379893,0.2800000000000001,75,90.0,-90.0,0.09435809797503475,0.1844578813183461,0.405150943326501,0.4668984251489008,-0.000696501080805847,0.6997378085708432,-1.1235248092806727
0.30000000000000004,-0.15000000000000002,0.1,0.27,-0.06999999999999999,0.2800000000000001,90,90.0,-90.0,0.09120799084008402,0.18690788422967186,0.47321894347535287,0.36743947379810227,-0.0010842647813413414,0.7307245231856621,-1.3828986569446322
0.15000000000000008,-0.05,0.1,0.1800000000000001,-0.13,0.2800000000000001,-90,90.0,-90.0,0.06740536947549008,0.2754958303107234,0.8037551327060835,-0.15986539050620097,0.0003746430489888405,0.9259616436422343,1.8452754676598178
0.15000000000000008,-0.05,0.1,0.19968329839687382,-0.11950949475004985,0.2800000000000001,-75,90.0,-90.0,0.07321740253636859,0.265238629984674,0.7271403534481593,-0.0318933215220424,-0.0011270384232119198,0.8762027277579748,1.5746115381821837
0.15000000000000008,-0.05,0.1,0.21598076211353326,-0.10428203230275507,0.28,-60,90.0,-90.0,0.07775333939421146,0.2412966395337968,0.6617003145539506,0.07472585937759713,-0.0007589493949204107,0.8340194330096792,1.2883150765807645
0.15000000000000008,-0.05,0.1,0.2277817459305203,-0.08535533905932736,0.28,-45,90.0,-90.0,0.08100577590647252,0.20418744500381164,0.6113077207038565,0.1552994774404304,0.0004309720741266673,0.8053905682915466,0.9888572347563522
0.15000000000000008,-0.05,0.1,0.23428203230275518,-0.06401923788646682,0.2800000000000001,-30,90.0,-90.0,0.08296530503559649,0.15655257343209739,0.5792024239235322,0.205926429757829,-0.0005800306155036471,0.7862141495413348,0.6812572294078132
0.15000000000000008,-0.05,0.1,0.23503863745620118,-0.04172774881952959,0.28,-15,90.0,-90.0,0.0836741046889706,0.10270653712489192,0.5673315866447025,0.22463987594675086,-0.0014632684728926226,0.7781602360381163,0.36569483895760335
0.15000000000000008,-0.05,0.1,0.2300000000000001,-0.01999999999999997,0.2800000000000001,0,90.0,-90.0,0.08303915364157125,0.04877844270320143,0.5780417557979413,0.20787231087089472,0.0009099663699065799,0.7843695970986482,0.047966976696000606
0.15000000000000008,-0.05,0.1,0.21950949475004994,-0.0003167016031262737,0.28,15,90.0,-90.0,0.08112190170820761,0.000573767029878575,0.6095169996584437,0.15829179638038135,0.0005906999271896472,0.8022448302190242,-0.2624021598066225
0.15000000000000008,-0.05,0.1,0.20428203230275516,0.015980762113533192,0.2800000000000001,30,90.0,-90.0,0.07789739930222471,-0.03681527121907087,0.6594774231654068,0.07816463197987074,0.001580316540163397,0.8328498178544967,-0.5609696431265829
0.15000000000000008,-0.05,0.1,0.18535533905932744,0.027781745930520255,0.28,45,90.0,-90.0,0.0734014314119808,-0.06073292473489963,0.7244787043236631,-0.027510374434147025,-0.0016407560009973267,0.8737527821104655,-0.844523794104529
0.15000000000000008,-0.05,0.1,0.1640192378864669,0.0342820323027551,0.28,60,90.0,-90.0,0.06761748587246466,-0.07197060728060499,0.8012444338430239,-0.15536097669583754,-0.00043844006750909186,0.924687118164317,-1.1184026113124543
0.15000000000000008,-0.05,0.1,0.14172774881952965,0.03503863745620109,0.2800000000000001,75,90.0,-90.0,0.0606206384310641,-0.07008424507816312,0.8861825788453884,-0.30025025171110387,-5.4201496860189526e-05,0.9846991569496013,-1.3798236725179482
0.15000000000000008,-0.05,0.1,0.12000000000000005,0.030000000000000027,0.2800000000000001,90,90.0,-90.0,0.05243378118432226,-0.057593187207526694,0.9778111046540039,-0.4592568643833629,0.0009366429425345539,1.0529197196881108,-1.6286497272566829
0.4,0.1,0.1,0.43000000000000005,0.020000000000000004,0.2800000000000001,-90,90.0,-90.0,0.07396796264814068,-0.09544171001814067,-0.07198882169776932,1.0323782270548865,0.0012636875652696153,0.6111628996863612,1.4736233998520796
0.4,0.1,0.1,0.44968329839687377,0.03049050524995016,0.2800000000000001,-75,90.0,-90.0,0.06773398002701576,-0.15970728978380036,-0.14797264789176182,1.0984339528601628,0.0016012014777462126,0.6200335877568364,1.1482616647193429
0.4,0.1,0.1,0.46598076211353323,0.045717967697244934,0.28,-60,90.0,-90.0,0.06339266907037584,-0.2571931633244846,-0.20482626230231557,1.143647663714006,0.0012174284247708912,0.631514846511867,0.7887748621073968
0.4,0.1,0.1,0.47778174593052025,0.06464466094067264,0.28,-45,90.0,-90.0,0.06161960198618641,-0.37910316395094973,-0.2293090904348124,1.1624239259277491,-0.0010379686912049201,0.6381312252851042,0.40737629992957425
0.4,0.1,0.1,0.4842820323027551,0.08598076211353319,0.2800000000000001,-30,90.0,-90.0,0.062630371732915,-0.5042266514598949,-0.21506085086156373,1.1514843036231481,-0.001113729668877784,0.633783925246962,0.01980362644482178
0.4,0.1,0.1,0.4850386374562011,0.10827225118047042,0.28,-15,90.0,-90.0,0.06648589151103414,-0.6096987067399855,-0.16373244874341963,1.1114600788328597,-0.001265217076766403,0.6226029742364206,-0.3459603433324671
0.4,0.1,0.1,0.48000000000000004,0.13000000000000003,0.2800000000000001,0,90.0,-90.0,0.0722434429963776,-0.6823860646412202,-0.09158778391430963,1.0502036960915389,0.0005723635007509652,0.6118718532897744,-0.683818119985273
0.4,0.1,0.1,0.4695094947500499,0.14968329839687372,0.28,15,90.0,-90.0,0.07919860513615733,-0.7210056388978096,-0.01098880341034287,0.9743073865650337,0.0014325592463758985,0.6076057151098817,-0.9835178572426226
0.4,0.1,0.1,0.4542820323027551,0.1659807621135332,0.2800000000000001,30,90.0,-90.0,0.08649405985484505,-0.7287836194698796,0.06874535971184913,0.8917033700636335,-0.0010724412331681794,0.6095399515748068,-1.2523548167590788
0.4,0.1,0.1,0.4353553390593274,0.17778174593052026,0.28,45,90.0,-90.0,0.09384707774762081,-0.7148288566072473,0.1438566874397248,0.8072368496871569,-0.0013767181138010956,0.6190627884576163,-1.499826354748171
