fryumbla/Robot-Manipulability/jupyter/indyrobot_manip_2021-04-12_22-43-37.csv
TCP x,TCP y,TCP z,eef x,eef y,eef z,Cr(rzyz),Pitch(rzyz),Roll(rzyz),Manipulability,joint0,joint1,joint2,joint3,joint4,joint5
-0.1,0,0.1,-0.10000000000000003,0.18000000000000002,0.1,-90,90.0,-90.0,0.09400756743547585,0.8242130422216358,-1.3830680160497426,-1.4685046531264065,-0.7675219681107871,-1.7825215428720775,1.371689092796273
-0.1,0,0.1,-0.1465874281184537,0.1738666487320323,0.09999999999999999,-75,90.0,-90.0,0.11431303694865734,0.9037109880817276,-1.2658780280377013,-1.878000755201824,-0.9281546568736033,-1.5703291615474904,1.572493711425467
-0.1,0,0.1,-0.19,0.15588457268119893,0.09999999999999999,-60,90.0,-90.0,0.11790760924695354,0.9293390967314065,-1.186636218500634,-2.2419685599604198,-1.1792032545656193,-1.4579838327600931,1.835240019807155
-0.1,0,0.1,-0.22727922061357855,0.12727922061357855,0.09999999999999999,-45,90.0,-90.0,0.08583846530729439,0.8461105998918629,-1.162350374747566,-2.5437712234356837,-1.5196143758969103,-1.5373093085887442,2.133851886183838
-0.1,0,0.1,-0.255884572681199,0.09,0.09999999999999999,-30,90.0,-90.0,0.0522532130746972,0.5774880412570554,-1.2473448724979779,-2.769369153783416,-1.8855345382098605,-1.924605176492451,2.389767907325531
-0.1,0,0.1,-0.27386664873203226,-0.04658742811845371,0.09999999999999995,15,90.0,-90.0,0.0988704705483848,2.1700276844561897,1.3952934072162766,2.0060732815656004,-1.2446943600457219,-1.6562476184077919,1.325746703756826
-0.1,0,0.1,-0.255884572681199,-0.09,0.1,30,90.0,-90.0,0.1234003910909473,2.2189738367759517,1.2135739996432566,1.7861478413623746,-1.447167541281939,-1.5526234191828563,1.712209866532257
-0.1,0,0.1,-0.22727922061357855,-0.12727922061357852,0.09999999999999994,45,90.0,-90.0,0.14148552796421965,2.3002651221405364,1.159647612972728,1.5360115653994997,-1.6209315202328929,-1.593839494081794,2.0158702956719687
-0.1,0,0.1,-0.19,-0.15588457268119896,0.09999999999999999,60,90.0,-90.0,0.13061150608048397,2.386298387795975,1.1859338535056745,1.260641555867165,-1.7503487279378684,-1.7193203623734592,2.2516433854134412
-0.1,0,0.1,-0.14658742811845374,-0.17386664873203228,0.09999999999999999,75,90.0,-90.0,0.11057939709643327,2.4713441432955396,1.2609558318578884,0.9579040906165633,-1.8254165066081198,-1.893285239987368,2.4523297541524016
-0.1,0,0.1,-0.10000000000000003,-0.18000000000000002,0.1,90,90.0,-90.0,0.08476511279204278,2.5521364060851,1.3752484120772555,0.6092946207613648,-1.8326380294249056,-2.104597043368833,2.65632844332398
-0.07500000000000001,0.025,0.1,-0.07500000000000004,0.20500000000000002,0.1,-90,90.0,-90.0,0.07843123375442979,0.5796924511919547,-1.4079823564585896,-0.5130496770014455,1.7929526347989766,2.1112883320569753,-2.7288540254590177
-0.07500000000000001,0.025,0.1,-0.12158742811845373,0.1988666487320323,0.09999999999999999,-75,90.0,-90.0,0.10657207663824059,0.6528117392846846,-1.2785729021789807,-0.8905936538490372,1.7989910743679038,1.8900923150776423,-2.5060489350747894
-0.07500000000000001,0.025,0.1,-0.16500000000000004,0.18088457268119892,0.09999999999999999,-60,90.0,-90.0,0.12801724149186935,0.7311165887337532,-1.193651371670175,-1.2094332339106662,1.7252641745437025,1.708833185542078,-2.2982826661367124
-0.07500000000000001,0.025,0.1,-0.20227922061357856,0.15227922061357854,0.09999999999999999,-45,90.0,-90.0,0.1406964884950657,0.809258230764254,-1.1590520545476601,-1.4933549030216384,1.5914988886598878,1.5807604352526305,-2.0591185204291365
-0.07500000000000001,0.025,0.1,-0.230884572681199,0.11499999999999999,0.09999999999999999,-30,90.0,-90.0,0.1261260607964659,0.8813799843975082,-1.2013281201876984,-1.7516433987666045,1.4069545704240214,1.5399714182799413,-1.7564903593816226
-0.07500000000000001,0.025,0.1,-0.2488666487320323,0.07158742811845373,0.09999999999999996,-15,90.0,-90.0,0.10200721135331099,0.9180237974164858,-1.3600106150353464,-1.9826729582784193,1.1877036857340906,1.6461547878932872,-1.3846977582555953
-0.07500000000000001,0.025,0.1,-0.2488666487320323,-0.02158742811845371,0.09999999999999995,15,90.0,-90.0,0.0992556404030717,-0.8518346503366417,-1.3984885726483574,-2.017735917321688,2.0129310810107097,-1.6902980937989263,1.322291514924441
-0.07500000000000001,0.025,0.1,-0.230884572681199,-0.065,0.1,30,90.0,-90.0,0.1215799108875081,-0.8327865621180495,-1.2182830482147378,-1.7921527654641303,1.7834468828400676,-1.5432869121805814,1.6999435424950466
-0.07500000000000001,0.025,0.1,-0.20227922061357856,-0.10227922061357853,0.09999999999999994,45,90.0,-90.0,0.1407194400328985,-0.7658379090694446,-1.1599012008709904,-1.5374503596483609,1.588493223457432,-1.5618504321960098,2.0148508254799373
-0.07500000000000001,0.025,0.1,-0.165,-0.13088457268119896,0.09999999999999999,60,90.0,-90.0,0.13099994084024,-0.6899582205146833,-1.1840938287496505,-1.2587933177293718,1.44364677144709,-1.6774419176166961,2.26267629960553
-0.07500000000000001,0.025,0.1,-0.12158742811845374,-0.1488666487320323,0.09999999999999999,75,90.0,-90.0,0.11065864649823372,-0.6125152877531544,-1.261056402981776,-0.9474441584298925,1.3562889581324307,-1.8495394097534645,2.472622813006207
-0.07500000000000001,0.025,0.1,-0.07500000000000004,-0.15500000000000003,0.1,90,90.0,-90.0,0.08374826525572118,-0.5385456294335446,-1.3821666705377142,-0.5832502440583337,1.3440347122691612,-2.0641250708518037,2.6891621392002936
-0.07500000000000001,0.0,0.1,-0.07500000000000004,0.18000000000000002,0.1,-90,90.0,-90.0,0.0837993003625923,-2.602826008614704,1.3821556872847618,0.583761336206328,-1.3444331127206235,2.0632906426236945,-2.6889041119810155
-0.07500000000000001,0.0,0.1,-0.12158742811845373,0.1738666487320323,0.09999999999999999,-75,90.0,-90.0,0.11067498919706796,-2.529183722261984,1.2608607621581869,0.9476811308249654,-1.356280467663438,1.8493161256074409,-2.4737483093554182
-0.07500000000000001,0.0,0.1,-0.16500000000000004,0.15588457268119893,0.09999999999999999,-60,90.0,-90.0,0.1309749958920036,-2.451995463292814,1.1838017918168544,1.2585683086049233,-1.4425433913833299,1.6768732411257823,-2.2625329346685628
-0.07500000000000001,0.0,0.1,-0.20227922061357856,0.12727922061357855,0.09999999999999999,-45,90.0,-90.0,0.14071911511728805,-2.375828613535306,1.159620368220973,1.5370705256866337,-1.5878566126400129,1.5616098394923044,-2.0152044924188757
-0.07500000000000001,0.0,0.1,-0.230884572681199,0.09,0.09999999999999999,-30,90.0,-90.0,0.12170388991913776,-2.309016574123405,1.2183476303426886,1.7911476937408939,-1.7827807308816734,1.543644071351517,-1.7008520373282767
-0.07500000000000001,0.0,0.1,-0.2488666487320323,0.04658742811845373,0.09999999999999996,-15,90.0,-90.0,0.0992159685825388,-2.2897851864011116,1.3982175538640278,2.018027612245256,-2.0133985816689273,1.6899456408697782,-1.3227050441049293
-0.07500000000000001,0.0,0.1,-0.2488666487320323,-0.04658742811845371,0.09999999999999995,15,90.0,-90.0,0.10209409279288555,-0.8991049876413515,-1.3589736866052216,-1.983012228389001,1.97279681689499,-1.6494482855637052,1.3863628013855362
-0.07500000000000001,0.0,0.1,-0.230884572681199,-0.09,0.1,30,90.0,-90.0,0.12585565439715515,-0.8666645393182969,-1.2007534156112099,-1.7518673053492135,1.748620397345408,-1.5360379800426962,1.756454884876952
-0.07500000000000001,0.0,0.1,-0.20227922061357856,-0.12727922061357852,0.09999999999999994,45,90.0,-90.0,0.14064326766225904,-0.7969551199169844,-1.1592349019927402,-1.4922915031229154,1.5598611348760398,-1.576239429126031,2.0610202263241955
-0.07500000000000001,0.0,0.1,-0.165,-0.15588457268119896,0.09999999999999999,60,90.0,-90.0,0.12807381310451474,-0.7202606351370205,-1.1936532703494471,-1.2093826927325126,1.4242521729473305,-1.7024315865588713,2.2999885184179076
-0.07500000000000001,0.0,0.1,-0.12158742811845374,-0.17386664873203228,0.09999999999999999,75,90.0,-90.0,0.10660833868439801,-0.6428561828665061,-1.2783353557153931,-0.8907520935881258,1.348094471504644,-1.8835849163511467,2.5071382080060363
-0.07500000000000001,0.0,0.1,-0.07500000000000004,-0.18000000000000002,0.1,90,90.0,-90.0,0.07861152705765105,-0.5708096649405721,-1.4066965696930855,-0.5158702706238615,1.3523020751598145,-2.101777237905971,2.7293749234126627
-0.05000000000000001,0.025,0.1,-0.05000000000000004,0.20500000000000002,0.1,-90,90.0,-90.0,0.07135325033321062,0.5716367476716527,-1.4456149918319348,-0.4095560974934763,1.7498998593303445,2.1158542987226356,-2.80763739311458
-0.05000000000000001,0.025,0.1,-0.09658742811845372,0.1988666487320323,0.09999999999999999,-75,90.0,-90.0,0.10207505177039283,0.6363024758883931,-1.2995626181165902,-0.8187481738784506,1.7731193037874586,1.8873566026810835,-2.560877426759944
-0.05000000000000001,0.025,0.1,-0.14,0.18088457268119892,0.09999999999999999,-60,90.0,-90.0,0.1249574054663824,0.7081847413117724,-1.2049387942505523,-1.1534391016909844,1.7014056584670145,1.7003564251501722,-2.344799196968513
-0.05000000000000001,0.025,0.1,-0.17727922061357856,0.15227922061357854,0.09999999999999999,-45,90.0,-90.0,0.1392459197764003,0.7789327694046542,-1.160752175614016,-1.4475966437647338,1.564798990323544,1.567329504565333,-2.103695833574978
-0.05000000000000001,0.025,0.1,-0.205884572681199,0.11499999999999999,0.09999999999999999,-30,90.0,-90.0,0.12859749002682985,0.8415455250192517,-1.1895153918964327,-1.7135913293637248,1.3717007523715303,1.522983194285435,-1.8043466510409072
-0.05000000000000001,0.025,0.1,-0.2238666487320323,0.07158742811845373,0.09999999999999996,-15,90.0,-90.0,0.10520669362389665,0.8685167339625531,-1.327765039336899,-1.9558903337818536,1.1338023866092788,1.6302728917489882,-1.4424517812072637
-0.05000000000000001,0.025,0.1,-0.2238666487320323,-0.02158742811845371,0.09999999999999995,15,90.0,-90.0,0.050322941632147844,0.4747018712531549,-1.6553445809632683,-2.368059776757559,0.32896618148999773,2.425185916658273,-1.319066805758205
-0.05000000000000001,0.025,0.1,-0.205884572681199,-0.065,0.1,30,90.0,-90.0,0.05281181788914567,-0.332164239331805,-1.2422602285280175,-2.663186199924863,-1.010997369062989,2.0402654435424554,-2.197973798653066
-0.05000000000000001,0.025,0.1,-0.17727922061357856,-0.10227922061357853,0.09999999999999994,45,90.0,-90.0,0.09279982875412306,-0.6725429181292761,-1.1602382954584496,-2.4531708806972468,-1.4704069686092895,1.6211794000034137,-2.0396798588972045
-0.05000000000000001,0.025,0.1,-0.14,-0.13088457268119896,0.09999999999999999,60,90.0,-90.0,0.12062142592616709,-0.7963337877183712,-1.1981169226366322,-2.1490635900697987,-1.8372398050762888,1.5153511971568003,-1.7683252036598736
-0.05000000000000001,0.025,0.1,-0.09658742811845375,-0.1488666487320323,0.09999999999999999,75,90.0,-90.0,0.10682689913457456,-0.8027078541167596,-1.297269544963948,-1.7641341611401151,-2.109646909275338,1.6112070892433725,-1.5018336504254763
-0.05000000000000001,0.025,0.1,-0.05000000000000004,-0.15500000000000003,0.1,90,90.0,-90.0,0.07698128505824306,-0.5302293896681024,-1.4173645012190073,-0.4837318013744623,1.3821493321448008,-2.0687427902729,2.7637713174354688
-0.05000000000000001,0.05,0.1,-0.05000000000000004,0.23000000000000004,0.1,-90,90.0,-90.0,0.06485675145987388,0.6049256422566661,-1.4784821660056024,-0.32495414155267804,1.7285996039911091,2.1575032940939693,3.421534055579536
-0.05000000000000001,0.05,0.1,-0.09658742811845372,0.22386664873203233,0.09999999999999999,-75,90.0,-90.0,0.09755828244698567,0.6663211485971001,-1.320326158159691,-0.7564877104583345,1.775716527562885,1.9212019550087718,3.6833861756482724
-0.05000000000000001,0.05,0.1,-0.14,0.20588457268119892,0.09999999999999999,-60,90.0,-90.0,0.121621413973053,0.7375604236294787,-1.2177994503557112,-1.1006203153758038,1.7162689679934269,1.7270049009564679,-2.3818454840474175
-0.05000000000000001,0.05,0.1,-0.17727922061357856,0.17727922061357854,0.09999999999999999,-45,90.0,-90.0,0.13779600020017657,0.8078866723083843,-1.1640585036892372,-1.3999666820285066,1.590282702146833,1.5838897325158694,-2.147860819327306
-0.05000000000000001,0.05,0.1,-0.205884572681199,0.14,0.09999999999999999,-30,90.0,-90.0,0.13235848917584453,0.8728668610649164,-1.1779091530196029,-1.671353817630706,1.4044734790678641,1.520349255228322,-1.8583332236544992
-0.05000000000000001,0.05,0.1,-0.2238666487320323,0.09658742811845374,0.09999999999999996,-15,90.0,-90.0,0.10839963241643975,0.9094640451202182,-1.296726795265245,-1.9188795475944493,1.1713568763764168,1.59895656313463,-1.50219930965493
-0.05000000000000001,0.05,0.1,-0.2238666487320323,0.0034125718815462905,0.09999999999999995,15,90.0,-90.0,0.10057903667650796,2.370823398467718,1.394542813216361,2.0219106540768976,-1.0498015411540562,-1.7098516490410505,1.3322982918204576
-0.05000000000000001,0.05,0.1,-0.205884572681199,-0.039999999999999994,0.1,30,90.0,-90.0,0.12066751472890824,2.369330375923609,1.2199542461367625,1.7926711957500803,-1.297714183564673,-1.5364486683225134,1.6956739520648796
-0.05000000000000001,0.05,0.1,-0.17727922061357856,-0.07727922061357852,0.09999999999999994,45,90.0,-90.0,0.13975051801379443,2.4256414367773007,1.1599708749464486,1.5334653927812874,-1.5077139641136232,-1.5399311715200072,2.018488870346877
-0.05000000000000001,0.05,0.1,-0.14,-0.10588457268119895,0.09999999999999999,60,90.0,-90.0,0.13060954452365578,2.4950514652705835,1.1846350519420077,1.2487040863299415,-1.66395742693175,-1.6498074824912206,2.274555229586817
-0.05000000000000001,0.05,0.1,-0.09658742811845375,-0.12386664873203228,0.09999999999999999,75,90.0,-90.0,0.10980771107913744,2.5668821721182766,1.2661315260978232,0.9265117926279253,-1.7576279132408004,-1.8243842916811353,2.4953617135374335
-0.05000000000000001,0.05,0.1,-0.05000000000000004,-0.13,0.1,90,90.0,-90.0,0.08185215660699625,2.634429214655153,1.3947677802191132,0.5463241935290141,-1.7685198313350392,-2.0404417628746057,2.7235585782148313
-0.02500000000000001,0.0,0.1,-0.025000000000000036,0.18000000000000002,0.1,-90,90.0,-90.0,0.06900254762924876,-2.6185863051517138,1.4593761777355634,0.37154154951994267,-1.423137017276128,2.0738730280506896,-2.8425678145472673
-0.02500000000000001,0.0,0.1,-0.07158742811845373,0.1738666487320323,0.09999999999999999,-75,90.0,-90.0,0.10124049802029203,-2.560758409100159,1.30463388788369,0.799377867525751,-1.403966795150585,1.8450301696680123,-2.5860039831176795
-0.02500000000000001,0.0,0.1,-0.11500000000000002,0.15588457268119893,0.09999999999999999,-60,90.0,-90.0,0.1246182091391637,-2.496632066737284,1.2053479308624009,1.1441505405670607,-1.4845523691115783,1.656881767665133,-2.358190230074401
-0.02500000000000001,0.0,0.1,-0.15227922061357857,0.12727922061357855,0.09999999999999999,-45,90.0,-90.0,0.13815884449094004,-2.4344137508737003,1.1609143568173506,1.4432863895529173,-1.6377182581186749,1.530001318599008,-2.1065674788692967
-0.02500000000000001,0.0,0.1,-0.180884572681199,0.09,0.09999999999999999,-30,90.0,-90.0,0.12660803882645574,-2.384086411558433,1.1925921240316741,1.71402172596526,-1.8537056263414973,1.5045062022859015,-1.797231547896107
-0.02500000000000001,0.0,0.1,-0.1988666487320323,0.04658742811845373,0.09999999999999996,-15,90.0,-90.0,0.1061169878198426,-2.382558031205225,1.3258769350209314,1.958822525716772,-2.1155706193902835,1.6449343311585565,-1.4480748116496707
-0.02500000000000001,0.0,0.1,-0.1988666487320323,-0.04658742811845371,0.09999999999999995,15,90.0,-90.0,0.04431005735673628,0.3245169984175916,-1.5481074126280547,-2.419544021103523,0.09138961180245105,2.3939242692325955,-1.5035228121156539
-0.02500000000000001,0.0,0.1,-0.180884572681199,-0.09,0.1,30,90.0,-90.0,0.06313207075929103,-0.37873292916654594,-1.2135865036388915,-2.5794626995312036,-1.0102971617551568,1.955332248021181,-2.1100975509871844
-0.02500000000000001,0.0,0.1,-0.15227922061357857,-0.12727922061357852,0.09999999999999994,45,90.0,-90.0,0.10225108212779381,-0.684564255502212,-1.1646473356798719,-2.3609403969169196,-1.477875875886009,1.6080603752199178,-1.9528044846155503
-0.02500000000000001,0.0,0.1,-0.115,-0.15588457268119896,0.09999999999999999,60,90.0,-90.0,0.11859716824066317,-0.7971025881910819,-1.2218186833278657,-2.040419838638142,-1.8418785982760153,1.5378187123680027,-1.6867014610280695
-0.02500000000000001,0.0,0.1,-0.07158742811845374,-0.17386664873203228,0.09999999999999999,75,90.0,-90.0,0.09837693909830952,-0.7996733261771771,-1.3403993712317888,-1.629417033176093,-2.1014113652783037,1.6588283785808762,-1.4220997402039623
-0.02500000000000001,0.0,0.1,-0.025000000000000036,-0.18000000000000002,0.1,90,90.0,-90.0,0.06272859029817966,2.576601312750798,1.4917885931706256,0.2895236579535572,-1.7023138119095833,-2.121398180317941,2.892987216727146
-0.1,-0.025,0.1,-0.10000000000000003,0.15500000000000003,0.1,-90,90.0,-90.0,0.09794235832989613,0.793248671483884,-1.3606321676510766,-1.540441088769584,-0.7919643437864397,-1.7416811744448641,1.4008323486203056
-0.1,-0.025,0.1,-0.1465874281184537,0.14886664873203231,0.09999999999999999,-75,90.0,-90.0,0.1168723114770278,0.8655195752793606,-1.2492052853561761,-1.9431271160665617,-0.967258639244991,-1.541699439623011,1.6118447049355489
-0.1,-0.025,0.1,-0.19,0.13088457268119894,0.09999999999999999,-60,90.0,-90.0,0.11303394116124728,0.8761229584614366,-1.1774477952128763,-2.2982572016599407,-1.236434784175379,-1.4566557618950886,1.8862239845205435
-0.1,-0.025,0.1,-0.22727922061357855,0.10227922061357855,0.09999999999999999,-45,90.0,-90.0,0.08049942600374092,0.7677273240752557,-1.1678637955605284,-2.585695876124138,-1.5844168566850694,-1.5809362042324275,2.1819188919498833
-0.1,-0.025,0.1,-0.255884572681199,0.065,0.09999999999999999,-30,90.0,-90.0,0.04523048677239343,0.4478600487357696,-1.280623689448975,-2.7987221278118497,-1.9538710279078473,-2.0430270766480163,2.41546325609589
-0.1,-0.025,0.1,-0.27386664873203226,-0.07158742811845371,0.09999999999999995,15,90.0,-90.0,0.10237302228164476,2.1295859380536246,1.3517456785969173,1.971229076252301,-1.2776107369594618,-1.622988082654106,1.396408851023742
-0.1,-0.025,0.1,-0.255884572681199,-0.11499999999999999,0.1,30,90.0,-90.0,0.12818012066163084,2.1885292327583143,1.196700110080573,1.7431081904840964,-1.4778362727384642,-1.5516761121494629,1.771773252904561
-0.1,-0.025,0.1,-0.22727922061357855,-0.15227922061357851,0.09999999999999994,45,90.0,-90.0,0.14096358861780664,2.2709837918272084,1.1598788894647036,1.4882569847063294,-1.6450369511265375,-1.6108207759411206,2.062310695771824
-0.1,-0.025,0.1,-0.19,-0.18088457268119895,0.09999999999999999,60,90.0,-90.0,0.1275268607833121,2.356407690122903,1.1958668921395839,1.2093249207207604,-1.7656055444058711,-1.7451954776427905,2.2892759513572134
-0.1,-0.025,0.1,-0.14658742811845374,-0.19886664873203228,0.09999999999999999,75,90.0,-90.0,0.10629633679260955,2.4411449992064473,1.278997034959291,0.8976733814922095,-1.8312069923887175,-1.927843707836651,2.488071192419658
-0.1,-0.025,0.1,-0.10000000000000003,-0.20500000000000002,0.1,90,90.0,-90.0,0.0793519250758023,2.520363369990287,1.4005326049392959,0.5378715912758302,-1.8230267694389966,-2.144089754677428,2.699029600966965
-0.05000000000000001,-0.025,0.1,-0.05000000000000004,0.15500000000000003,0.1,-90,90.0,-90.0,0.08188617935166133,-2.643364891137009,1.3941746272000661,0.5473931265842943,-1.3766950114162493,2.032729924410191,3.5570161903957502
-0.05000000000000001,-0.025,0.1,-0.09658742811845372,0.14886664873203231,0.09999999999999999,-75,90.0,-90.0,0.11014876030068693,0.7795179403589998,-1.2797177705937355,-1.8274671538352394,-1.0541740834660662,-1.5884181850246524,1.5407434257534114
-0.05000000000000001,-0.025,0.1,-0.14,0.13088457268119894,0.09999999999999999,-60,90.0,-90.0,0.1202420915097873,0.7639999598463739,-1.1888847311467885,-2.199537979075679,-1.336411470948136,-1.5131615541390773,1.8107846390328917
-0.05000000000000001,-0.025,0.1,-0.17727922061357856,0.10227922061357855,0.09999999999999999,-45,90.0,-90.0,0.08784761517499019,0.6217824085335012,-1.1616739163459002,-2.4913297887579033,-1.7139540637336308,-1.6495899242131562,2.0765901588933984
-0.05000000000000001,-0.025,0.1,-0.205884572681199,0.065,0.09999999999999999,-30,90.0,-90.0,0.04578783937192544,0.23912338847576628,-1.2685597476416475,-2.680859135960129,-2.1956619900608363,-2.120796748818821,2.1973662968905114
-0.05000000000000001,-0.025,0.1,-0.2238666487320323,0.02158742811845373,0.09999999999999996,-15,90.0,-90.0,0.10073242387071918,-2.3907451977284873,1.3928667951658649,2.0225167522770007,-2.1112686736701396,1.7138630612012458,-1.3370462468462778
-0.05000000000000001,-0.025,0.1,-0.2238666487320323,-0.07158742811845371,0.09999999999999995,15,90.0,-90.0,0.026695877185330535,0.22942628208754934,-1.5870165350240357,-2.520456485164047,-0.05742643720437801,2.535532114020991,-1.617079307946967
-0.05000000000000001,-0.025,0.1,-0.205884572681199,-0.11499999999999999,0.1,30,90.0,-90.0,0.06722124417998511,-0.5570308940358294,-1.1951129528757976,-2.606879680625403,-1.1716124021436252,1.862981747494547,-2.1709934086085325
-0.05000000000000001,-0.025,0.1,-0.17727922061357856,-0.15227922061357851,0.09999999999999994,45,90.0,-90.0,0.10392460370298412,-0.8088794137013039,-1.1634564005988488,-2.3644625665313903,-1.5920647178520926,1.5613761565923991,-1.9563450111824627
-0.05000000000000001,-0.025,0.1,-0.14,-0.18088457268119895,0.09999999999999999,60,90.0,-90.0,0.11872067823960321,-0.8898585865264643,-1.22506158209779,-2.03126273419552,-1.9355066957888512,1.5289755743660147,-1.6781559528609722
-0.05000000000000001,-0.025,0.1,-0.09658742811845375,-0.19886664873203228,0.09999999999999999,75,90.0,-90.0,0.09930319331704085,-0.8707029155598692,-1.3402798163996277,-1.622650909110178,-2.1730217844748103,1.6718279124612963,-1.423074677766821
-0.05000000000000001,-0.025,0.1,-0.05000000000000004,-0.20500000000000002,0.1,90,90.0,-90.0,0.06750582637724964,-0.7983836193535764,-1.5140222068412206,-1.1231807125860567,-2.3019332015682816,1.9238506526535046,-1.2036577431265467
-0.1,0.025,0.1,-0.10000000000000003,0.20500000000000002,0.1,-90,90.0,-90.0,0.0895578940692381,0.8530586537836276,-1.407373402530944,-1.3924094973307906,-0.7472623421950985,-1.8257095092056974,1.3411506109469402
-0.1,0.025,0.1,-0.1465874281184537,0.1988666487320323,0.09999999999999999,-75,90.0,-90.0,0.11138073027030262,0.9380354871679315,-1.282716830180004,-1.8109144017964303,-0.8942591185169385,-1.6003406946622412,1.533035726254367
-0.1,0.025,0.1,-0.19,0.18088457268119892,0.09999999999999999,-60,90.0,-90.0,0.12119035895423062,0.9764019212408634,-1.197636194236912,-2.1831186273467247,-1.1291983260430112,-1.4676221342403108,1.7872865813827237
-0.1,0.025,0.1,-0.22727922061357855,0.15227922061357854,0.09999999999999999,-45,90.0,-90.0,0.09140301167092944,0.9165153055210137,-1.1607942428283988,-2.497080616565531,-1.456769069416387,-1.5051827118029257,2.0827716419905125
-0.1,0.025,0.1,-0.255884572681199,0.11499999999999999,0.09999999999999999,-30,90.0,-90.0,0.05859550842859795,0.6896964589907794,-1.2211542968926041,-2.7358235033529925,-1.8215759753478535,-1.8278197698105787,2.3533069077285873
-0.1,0.025,0.1,-0.27386664873203226,0.07158742811845373,0.09999999999999996,-15,90.0,-90.0,0.09878364530315041,0.9717803229544498,-1.394428300260408,-2.0065378920978114,1.2448654436682702,1.6551042081234388,-1.3254656130755131
-0.1,0.025,0.1,-0.255884572681199,-0.065,0.1,30,90.0,-90.0,0.05230761708939919,2.562585983277016,1.2474896889801204,2.7692315058639574,1.8834028146331534,1.9242289698803998,-2.3890657576311263
-0.1,0.025,0.1,-0.22727922061357855,-0.10227922061357853,0.09999999999999994,45,90.0,-90.0,0.08579012496173748,2.295560364034023,1.163091667571983,2.544042799906045,1.5198339308790165,1.539039134545881,-2.1352956669241596
-0.1,0.025,0.1,-0.19,-0.13088457268119896,0.09999999999999999,60,90.0,-90.0,0.11795858736132987,2.211922687306368,1.1870514004978763,2.241813737357981,1.1787656575839485,1.4587751482538698,-1.8356035398592474
-0.1,0.025,0.1,-0.14658742811845374,-0.1488666487320323,0.09999999999999999,75,90.0,-90.0,0.11437444102255305,2.2378454137868817,1.2643078730583432,1.8807075461181118,0.9298204913149659,1.5677863797877625,-1.5728732041244171
-0.1,0.025,0.1,-0.10000000000000003,-0.15500000000000003,0.1,90,90.0,-90.0,0.09405337976008622,2.3172984137395445,1.3823226683226366,1.469506726258246,0.7676793489002276,1.7813952991651414,-1.3720421983221691
-0.07500000000000001,0.05,0.1,-0.07500000000000004,0.23000000000000004,0.1,-90,90.0,-90.0,0.07258535258300076,0.6125098331428193,-1.4371233773169512,-0.43600568004076834,1.776379148012168,2.1526157137991273,-2.7776710728013736
-0.07500000000000001,0.05,0.1,-0.12158742811845373,0.22386664873203233,0.09999999999999999,-75,90.0,-90.0,0.10209275244301144,0.6829236991324122,-1.2989154598002315,-0.8281628933236068,1.802708696018574,1.9263622245844407,-2.5432836236118375
-0.07500000000000001,0.05,0.1,-0.16500000000000004,0.20588457268119892,0.09999999999999999,-60,90.0,-90.0,0.12476107861128355,0.760547564544488,-1.2051670155565783,-1.156739060831974,1.7409948149613268,1.735463717790692,-2.3360040138262286
-0.07500000000000001,0.05,0.1,-0.20227922061357856,0.17727922061357854,0.09999999999999999,-45,90.0,-90.0,0.13962898933389498,0.8383342385951538,-1.1604840352632253,-1.445469955895073,1.6174609343025015,1.5974377853589317,-2.106538194401728
-0.07500000000000001,0.05,0.1,-0.230884572681199,0.14,0.09999999999999999,-30,90.0,-90.0,0.13057057425181906,0.9118457627422083,-1.1864617485628546,-1.7079046726151854,1.4402294010341172,1.5380303172126044,-1.8166203911582088
-0.07500000000000001,0.05,0.1,-0.2488666487320323,0.09658742811845374,0.09999999999999996,-15,90.0,-90.0,0.10541147306901968,0.9587739460309964,-1.3228510098497055,-1.9463835924721997,1.2228458055287679,1.61393147003625,-1.4518165203782685
-0.07500000000000001,0.05,0.1,-0.230884572681199,-0.039999999999999994,0.1,30,90.0,-90.0,0.04299823984849585,-0.2793036608064941,-1.2838797308409753,-2.744515364621313,-1.0222611977648848,2.138559977404209,-2.2925920761264145
-0.07500000000000001,0.05,0.1,-0.20227922061357856,-0.07727922061357852,0.09999999999999994,45,90.0,-90.0,0.08346663561089487,-0.6584797258290376,-1.1639957511726737,-2.5411595338879005,-1.463149468503789,1.6386282236000906,-2.131171808819432
-0.07500000000000001,0.05,0.1,-0.165,-0.10588457268119895,0.09999999999999999,60,90.0,-90.0,0.11615201731275435,-0.795213494875282,-1.1809456633105189,-2.2509188933072553,-1.8322489255349992,1.492994473741461,-1.8501744189550717
-0.07500000000000001,0.05,0.1,-0.12158742811845374,-0.12386664873203228,0.09999999999999999,75,90.0,-90.0,0.11361112881998994,-0.8047375773848898,-1.2626205419123444,-1.8875299347996577,-2.1137303071460294,1.5656962634170528,-1.5776867434129256
-0.07500000000000001,0.05,0.1,-0.07500000000000004,-0.13,0.1,90,90.0,-90.0,0.0917946703803818,-0.7454139270272923,-1.3886554233771369,-1.4633028873255338,-2.295676532587235,1.7650782106209242,-1.355345210786925
-0.05000000000000001,0.07500000000000001,0.1,-0.05000000000000004,0.255,0.1,-90,90.0,-90.0,0.057482316718673654,-2.5115064152385473,1.5154771760686196,0.2310819978245625,-1.4443629664521542,2.1901762353863754,3.3574429230370852
-0.05000000000000001,0.07500000000000001,0.1,-0.09658742811845372,0.24886664873203232,0.09999999999999999,-75,90.0,-90.0,0.09258290562566991,-2.4549855746779987,1.343607690107613,0.6885689584149149,-1.372090236090467,1.9497431160853738,3.640360788213444
-0.05000000000000001,0.07500000000000001,0.1,-0.14,0.23088457268119894,0.09999999999999999,-60,90.0,-90.0,0.11796483786101661,0.7658440637949926,-1.2323273324977724,-1.0444891607901468,1.7285962225902767,1.7543604381977835,-2.4204819567994678
-0.05000000000000001,0.07500000000000001,0.1,-0.17727922061357856,0.20227922061357856,0.09999999999999999,-45,90.0,-90.0,0.13578319989548715,0.8360463269621466,-1.1684620362066793,-1.3509321980611306,1.6131769959052733,1.5999616468723865,-2.1915089160650734
-0.05000000000000001,0.07500000000000001,0.1,-0.205884572681199,0.165,0.09999999999999999,-30,90.0,-90.0,0.135748351565349,0.9022989509087871,-1.1701938684506574,-1.6263695703104173,1.4344857337365549,1.522745179228356,-1.911596753857112
-0.05000000000000001,0.07500000000000001,0.1,-0.2238666487320323,0.12158742811845374,0.09999999999999996,-15,90.0,-90.0,0.1121634133298034,0.9453300254777429,-1.2671107059247555,-1.8779876032951393,1.2080457412771892,1.571565409214276,-1.566677832420969
-0.05000000000000001,0.07500000000000001,0.1,-0.2238666487320323,0.0284125718815463,0.09999999999999995,15,90.0,-90.0,0.09938108566325575,-0.6924086870489204,-1.4254003245830102,-2.0524038982512174,2.159745405411985,-1.7621504109615218,1.2921028432616481
-0.05000000000000001,0.07500000000000001,0.1,-0.205884572681199,-0.014999999999999986,0.1,30,90.0,-90.0,0.1168294526966857,-0.7174308196186223,-1.2374077237368748,-1.8282025357791591,1.899226040348314,-1.5457448018977396,1.6431393641551653
-0.05000000000000001,0.07500000000000001,0.1,-0.17727922061357856,-0.05227922061357851,0.09999999999999994,45,90.0,-90.0,0.13840152059346708,-0.6695618462065605,-1.1636390150584068,-1.5719819966014825,1.678361802363237,-1.5251953303319197,1.9748315979796338
-0.05000000000000001,0.07500000000000001,0.1,-0.14,-0.08088457268119895,0.09999999999999999,60,90.0,-90.0,0.1328844086311711,-0.6027702184068642,-1.1769916029111485,-1.2906237674691277,1.5077347204251232,-1.6200329820586374,2.2424647803299522
-0.05000000000000001,0.07500000000000001,0.1,-0.09658742811845375,-0.09886664873203227,0.09999999999999999,75,90.0,-90.0,0.11331705553287465,-0.5332175886546549,-1.250925573524253,-0.9758975004342025,1.401861900910329,-1.7852131258785269,2.466361807172261
-0.05000000000000001,0.07500000000000001,0.1,-0.05000000000000004,-0.10500000000000001,0.1,90,90.0,-90.0,0.08647920913281808,-0.4658409724926714,-1.3721709078798137,-0.6072507466286832,1.3738429723447467,-1.9946452692830814,2.6897354866286554
-0.02500000000000001,-0.05,0.1,-0.025000000000000036,0.13,0.1,-90,90.0,-90.0,0.07930090918670259,-2.6833071883373987,1.4085137898884708,0.5045297663853959,-1.4064262768066391,1.9996863172996429,-2.7625261767597067
-0.02500000000000001,-0.05,0.1,-0.07158742811845373,0.1238666487320323,0.09999999999999999,-75,90.0,-90.0,0.10869880525303625,-2.6230109667478434,1.27124996358587,0.9031928673301158,-1.4223017833443419,1.7806617174298807,-2.5213901544425315
-0.02500000000000001,-0.05,0.1,-0.11500000000000002,0.10588457268119893,0.09999999999999999,-60,90.0,-90.0,0.12967428046092833,-2.559903928094824,1.1869614674287128,1.2315318371804203,-1.526158299465245,1.6094934649146981,-2.2920661426690923
-0.02500000000000001,-0.05,0.1,-0.15227922061357857,0.07727922061357854,0.09999999999999999,-45,90.0,-90.0,0.13809777390443184,-2.500499719853169,1.1618996097492962,1.5213528607951423,-1.7002271789990273,1.508070574075323,-2.0242922858174848
-0.02500000000000001,-0.05,0.1,-0.180884572681199,0.039999999999999994,0.09999999999999999,-30,90.0,-90.0,0.1197746614478548,-2.4596406219887514,1.2196890412699495,1.7875468998266926,-1.933854514612676,1.5227604916464752,-1.6956995416869045
-0.02500000000000001,-0.05,0.1,-0.1988666487320323,-0.0034125718815462697,0.09999999999999996,-15,90.0,-90.0,0.10299786778681906,-2.489686720437311,1.3804129531879807,2.0218911076419404,-2.210537825839121,1.72934722596523,-1.3631808456565795
-0.02500000000000001,-0.05,0.1,-0.20500000000000002,-0.05,0.1,0,90.0,-90.0,0.10134061587545364,-0.8227323123769579,-1.4267948515387538,-2.0718779499275604,2.2858834829019883,-1.8108065202510424,1.302918321453392
-0.02500000000000001,-0.05,0.1,-0.1988666487320323,-0.09658742811845372,0.09999999999999995,15,90.0,-90.0,0.11459488911643022,-0.8837644310619498,-1.24927542263995,-1.8469784273534544,1.9960415881769267,-1.5521204609101955,1.6116066008488037
-0.02500000000000001,-0.05,0.1,-0.180884572681199,-0.14,0.1,30,90.0,-90.0,0.13576724978076962,-0.8528609980013797,-1.1660098746024614,-1.58762241432833,1.7507328764387204,-1.4971912468911925,1.9529675796453208
-0.02500000000000001,-0.05,0.1,-0.15227922061357857,-0.17727922061357854,0.09999999999999994,45,90.0,-90.0,0.13334894730700494,-0.7958788698747044,-1.174669662556841,-1.3042618183279555,1.5620374596959794,-1.5767956027649703,2.233404544383431
-0.02500000000000001,-0.05,0.1,-0.115,-0.20588457268119897,0.09999999999999999,60,90.0,-90.0,0.11443963344348489,-0.7331249172027908,-1.2464632793472594,-0.9863418771704554,1.4403431619884126,-1.7350973724763559,2.468084709927898
-0.02500000000000001,-0.05,0.1,-0.07158742811845374,-0.22386664873203227,0.09999999999999999,75,90.0,-90.0,0.08724973950089385,-0.6712502814169893,-1.3703169013799081,-0.6093048501699069,1.4005182592535825,-1.9439821141076408,2.7001660151953533
-0.02500000000000001,-0.05,0.1,-0.025000000000000036,-0.23000000000000004,0.1,90,90.0,-90.0,0.04670801492785344,-0.6255317917253143,-1.5735987599516466,-0.0881317631633867,1.5044865618749121,-2.1924423561366075,3.0288619070694116
-0.02500000000000001,-0.07500000000000001,0.1,-0.025000000000000036,0.10500000000000001,0.1,-90,90.0,-90.0,0.0857783393092438,0.6275217407797637,-1.4092426672000922,-1.422356689292575,-0.965738193461019,-1.751210886897398,1.3169320559450117
-0.02500000000000001,-0.07500000000000001,0.1,-0.07158742811845373,0.0988666487320323,0.09999999999999999,-75,90.0,-90.0,0.11144587281252381,0.6557377727237294,-1.2659817995224938,-1.8746016742808058,-1.1768554217321272,-1.570547086508109,1.569475583732231
-0.02500000000000001,-0.07500000000000001,0.1,-0.11500000000000002,0.08088457268119892,0.09999999999999999,-60,90.0,-90.0,0.1168131113073613,0.5963212189230639,-1.1802250560790892,-2.233343150368782,-1.4999879203752757,-1.5504000636757838,1.8411407177074988
-0.02500000000000001,-0.07500000000000001,0.1,-0.15227922061357857,0.052279220613578536,0.09999999999999999,-45,90.0,-90.0,0.08118306257786095,0.38755688492967993,-1.1732816482329325,-2.494932457946399,-1.9190877188055164,-1.7657897662314403,2.062770209466342
-0.02500000000000001,-0.07500000000000001,0.1,-0.180884572681199,0.014999999999999986,0.09999999999999999,-30,90.0,-90.0,0.03516057167613293,-0.14887081710682687,-1.362417255027141,-2.581362254182902,-2.6255006920667197,-2.304004255118886,1.932536244158115
-0.02500000000000001,-0.07500000000000001,0.1,-0.1988666487320323,-0.028412571881546278,0.09999999999999996,-15,90.0,-90.0,0.10218302781200254,-2.5510563978935754,1.4040624333346041,2.050592672987272,-2.2636948830050727,1.774741900180884,-1.3309992892152722
-0.02500000000000001,-0.07500000000000001,0.1,-0.20500000000000002,-0.07500000000000001,0.1,0,90.0,-90.0,0.07383434384737197,-2.7692987653685703,1.5474730987735197,2.2574740748218263,-2.681405466338017,2.1826780870366296,-1.2928292214941024
-0.02500000000000001,-0.07500000000000001,0.1,-0.1988666487320323,-0.12158742811845372,0.09999999999999995,15,90.0,-90.0,0.03660165611607413,-0.13521906539426212,-1.3531783718304806,-2.585179611999136,-0.5408228464593023,2.290093901024119,-1.9477220916769127
-0.02500000000000001,-0.07500000000000001,0.1,-0.180884572681199,-0.165,0.1,30,90.0,-90.0,0.08286672553446363,-0.6548508601824754,-1.1722681524828145,-2.4826059609969184,-1.2238008506573144,1.7593149431262232,-2.049909340237028
-0.02500000000000001,-0.07500000000000001,0.1,-0.15227922061357857,-0.20227922061357853,0.09999999999999994,45,90.0,-90.0,0.1171998901194723,-0.8595178781016626,-1.1837700919097094,-2.214615446548788,-1.6416169064915427,1.5522264301924937,-1.8266725261776549
-0.02500000000000001,-0.07500000000000001,0.1,-0.115,-0.23088457268119897,0.09999999999999999,60,90.0,-90.0,0.1099287995052416,-0.9181949848676814,-1.273475094766721,-1.8493541689690771,-1.964485812417824,1.5778537565926787,-1.5541751006681133
-0.02500000000000001,-0.07500000000000001,0.1,-0.07158742811845374,-0.2488666487320323,0.09999999999999999,75,90.0,-90.0,0.08359523795392343,-0.8892954491816776,-1.42056987594759,-1.3906524169131516,-2.172047557653263,1.7616236276095367,-1.299239610258559
-0.02500000000000001,-0.07500000000000001,0.1,-0.025000000000000036,-0.255,0.1,90,90.0,-90.0,0.031075470521416685,-0.8063193272032428,-1.6926608424837977,-0.7073048144426078,-2.225981858074476,2.0788183801318794,-1.0060287356469075
-6.938893903907228e-18,0.0,0.1,-3.520055816021518e-17,0.18000000000000002,0.1,-90,90.0,-90.0,0.06391280778103155,0.6390823619296023,-2.1741653629245037,1.1604607478849474,1.1968151073874176,2.1024447440723,2.4824503466436156
-6.938893903907228e-18,0.0,0.1,-0.046587428118453726,0.1738666487320323,0.09999999999999999,-75,90.0,-90.0,0.09694169633622064,0.7430331618258431,-1.3426781825586063,-1.624514916180789,-1.0947087272758391,-1.6504261021565707,1.4168063686632235
-6.938893903907228e-18,0.0,0.1,-0.09000000000000002,0.15588457268119893,0.09999999999999999,-60,90.0,-90.0,0.11861001663738958,0.7228489827991967,-1.2220153778009053,-2.0373376087328223,-1.3728566460029294,-1.547002118133123,1.685555941622035
-6.938893903907228e-18,0.0,0.1,-0.12727922061357855,0.12727922061357855,0.09999999999999999,-45,90.0,-90.0,0.101594055004669,0.5851687542370589,-1.1679481273049435,-2.3468174662698598,-1.7570506346325045,-1.643462451458578,1.9365616023698637
-6.938893903907228e-18,0.0,0.1,-0.15588457268119899,0.09,0.09999999999999999,-30,90.0,-90.0,0.061537397818104245,0.2428598862120307,-1.2282518749110931,-2.533690055287771,-2.2721670380801626,-2.0022094302992155,2.0318787643597043
-6.938893903907228e-18,0.0,0.1,-0.17386664873203228,0.04658742811845373,0.09999999999999996,-15,90.0,-90.0,0.10920172853217051,-2.4236137925170333,1.2958176419511414,1.923780997633218,-2.159589047732493,1.6134897307596474,-1.5056228765101245
-6.938893903907228e-18,0.0,0.1,-0.18,0.0,0.1,0,90.0,-90.0,0.09968230212011672,-2.557325199427063,1.4565436325524068,2.1420928866488294,-2.5058512419437173,1.9468558022328346,-1.3051126244330216
-6.938893903907228e-18,0.0,0.1,-0.17386664873203228,-0.04658742811845371,0.09999999999999995,15,90.0,-90.0,0.051645793139795,0.2890126455628863,-1.4750635509362566,-2.3893332024322076,0.035151297665972296,2.2940896427677337,-1.5468855446686964
-6.938893903907228e-18,0.0,0.1,-0.15588457268119899,-0.09,0.1,30,90.0,-90.0,0.06718951950138996,-0.31848755628675407,-1.2125419041483534,-2.516933020759423,-0.9315368586773527,1.9485399542188149,-2.0322225546010992
-6.938893903907228e-18,0.0,0.1,-0.12727922061357855,-0.12727922061357852,0.09999999999999994,45,90.0,-90.0,0.1060897625419554,-0.6293357540504821,-1.1711047471787102,-2.308321407504777,-1.422744944693255,1.6229864629686659,-1.904844318772966
-6.938893903907228e-18,0.0,0.1,-0.09,-0.15588457268119896,0.09999999999999999,60,90.0,-90.0,0.11577932177209078,-0.7528138642259452,-1.2358905321858178,-1.9826673457862483,-1.7997963607664083,1.552289395553802,-1.6453971789583732
-6.938893903907228e-18,0.0,0.1,-0.04658742811845374,-0.17386664873203228,0.09999999999999999,75,90.0,-90.0,0.09269739163038997,-0.7637549910340373,-1.3659183758208788,-1.5558042083579968,-2.0625004865074765,1.6752856114234322,-1.377038713467122
-6.938893903907228e-18,0.0,0.1,-3.5200558160215184e-17,-0.18000000000000002,0.1,90,90.0,-90.0,0.052133085569845486,-0.5515218952213494,-1.5476980596332464,-0.15084112716764664,1.4934643020622695,-2.1169600464548903,2.99244071127133
-0.02500000000000001,-0.025,0.1,-0.025000000000000036,0.15500000000000003,0.1,-90,90.0,-90.0,0.07449478209176341,-2.650717286756683,1.4322668192364296,0.44227194458950037,-1.4129047269885586,2.0365012413575254,-2.8006929638974234
-0.02500000000000001,-0.025,0.1,-0.07158742811845373,0.14886664873203231,0.09999999999999999,-75,90.0,-90.0,0.10517049981509231,-2.5912295630203226,1.2874004290684031,0.8535421346407953,-1.412976267586441,1.8128666155365685,-2.55162927709278
-0.02500000000000001,-0.025,0.1,-0.11500000000000002,0.13088457268119894,0.09999999999999999,-60,90.0,-90.0,0.12731618652624235,-2.5276973766917443,1.1953253745032424,1.1895188097458647,-1.504284831613043,1.6322172519633584,-2.3248930683918045
-0.02500000000000001,-0.025,0.1,-0.15227922061357857,0.10227922061357855,0.09999999999999999,-45,90.0,-90.0,0.13851331520542148,-2.4665032502089916,1.1609021001221638,1.4838452979625265,-1.6684485232510968,1.5186716613073385,-2.0642336638063474
-0.02500000000000001,-0.025,0.1,-0.180884572681199,0.065,0.09999999999999999,-30,90.0,-90.0,0.12321703563764971,-2.420820378699613,1.2050636135111765,1.7510755510432137,-1.8915846551065119,1.512456689018523,-1.7467107141393878
-0.02500000000000001,-0.025,0.1,-0.1988666487320323,0.02158742811845373,0.09999999999999996,-15,90.0,-90.0,0.10422660168275902,-2.4333000191150527,1.3533241564089962,1.9917140748465907,-2.1610489227176304,1.6846496874603718,-1.40291279100234
-0.02500000000000001,-0.025,0.1,-0.1988666487320323,-0.07158742811845371,0.09999999999999995,15,90.0,-90.0,0.11126503811528142,-0.8464609355664402,-1.2727386560260991,-1.8872566465911031,2.0339824532033064,-1.57822394315582,1.5541599069986585
-0.02500000000000001,-0.025,0.1,-0.180884572681199,-0.11499999999999999,0.1,30,90.0,-90.0,0.13324536764946476,-0.8232411258124214,-1.1732833628244517,-1.631860218621164,1.7833030227362296,-1.4979223648374422,1.9001248684102725
-0.02500000000000001,-0.025,0.1,-0.15227922061357857,-0.15227922061357851,0.09999999999999994,45,90.0,-90.0,0.13550488879427547,-0.7676718412577709,-1.168128785416309,-1.3535519647241097,1.5852214384836252,-1.5600748553525512,2.1910698680424416
-0.02500000000000001,-0.025,0.1,-0.115,-0.18088457268119895,0.09999999999999999,60,90.0,-90.0,0.11810103062498487,-0.7046282691845895,-1.231814360697077,-1.0412743504383764,1.4531000904301428,-1.7099300847197407,2.4317773806494656
-0.02500000000000001,-0.025,0.1,-0.07158742811845374,-0.19886664873203228,0.09999999999999999,75,90.0,-90.0,0.09237302555584875,-0.6412917455557045,-1.3455825119322722,-0.6784712770026828,1.3974777285682558,-1.909873876999157,2.6590064706400725
-0.02500000000000001,-0.025,0.1,-0.025000000000000036,-0.20500000000000002,0.1,90,90.0,-90.0,0.05536358888441767,-0.589849690213881,-1.5286714822436838,-0.19714178652950404,1.4668483663095337,-2.1531141192958163,2.9561215142260044
-0.1,0.05,0.1,-0.10000000000000003,0.23000000000000004,0.1,-90,90.0,-90.0,0.07946062500032137,-2.529264932841589,1.3994644393508051,0.5396605216973804,-1.322471207889015,2.135679814881869,-2.7013050388851734
-0.1,0.05,0.1,-0.1465874281184537,0.22386664873203233,0.09999999999999999,-75,90.0,-90.0,0.10805366375213425,0.9690524924517332,-1.3022854506975639,-1.7394208504051603,-0.8657073586713322,-1.635763042964103,1.4949809384497148
-0.1,0.05,0.1,-0.19,0.20588457268119892,0.09999999999999999,-60,90.0,-90.0,0.12187370450733642,1.0179311067756753,-1.2095747406174293,-2.119710164698315,-1.0828613842596158,-1.4822640111976744,1.7355722051245401
-0.1,0.05,0.1,-0.22727922061357855,0.17727922061357854,0.09999999999999999,-45,90.0,-90.0,0.09735327582514715,0.9792076918286361,-1.1629292219460456,-2.4451293021583567,-1.3961259254373384,-1.4845439332218213,2.0291460006505435
-0.1,0.05,0.1,-0.255884572681199,0.14,0.09999999999999999,-30,90.0,-90.0,0.06475268860766407,0.7882833337586123,-1.200939733036197,-2.697081990573689,-1.7600332557283478,-1.7477930888907882,2.3099283124603285
-0.1,0.05,0.1,-0.27386664873203226,0.09658742811845374,0.09999999999999996,-15,90.0,-90.0,0.013683616868908026,0.19740735130478956,-1.4500283107248164,-2.859397849317076,-2.239178533717516,-2.5403857050586796,2.3776685126612795
-0.1,0.05,0.1,-0.255884572681199,-0.039999999999999994,0.1,30,90.0,-90.0,0.11421749732501678,2.2880675734414426,1.2589655372894155,1.865162661082452,-1.3774127016174074,-1.5674370619550617,1.5873247445766454
-0.1,0.05,0.1,-0.22727922061357855,-0.07727922061357852,0.09999999999999994,45,90.0,-90.0,0.1388543143552946,2.3636389464576935,1.167258742746768,1.6234743505749802,-1.5636707029609467,-1.5675534519994379,1.9206624612168126
-0.1,0.05,0.1,-0.19,-0.10588457268119895,0.09999999999999999,60,90.0,-90.0,0.13591815287621617,2.448679419938802,1.1700609160652407,1.356746558590012,-1.7102590334332335,-1.6681534085910195,2.179519520034915
-0.1,0.05,0.1,-0.14658742811845374,-0.12386664873203228,0.09999999999999999,75,90.0,-90.0,0.1179971625360618,2.534393252776966,1.230298234202991,1.0640284236272284,-1.8060454671737256,-1.827329212028581,2.386948325484414
-0.1,0.05,0.1,-0.10000000000000003,-0.13,0.1,90,90.0,-90.0,0.0941673507821708,2.616262048535586,1.332466945802283,0.7330233631134488,-1.8381205928229596,-2.027744029673696,2.5839390896230277
-0.05000000000000001,0.0,0.1,-0.05000000000000004,0.18000000000000002,0.1,-90,90.0,-90.0,0.07690465013217261,0.5396289046863473,-1.418874866874806,-0.4817370419539403,1.7610476622954496,2.078184430658038,3.5196900043404864
-0.05000000000000001,0.0,0.1,-0.09658742811845372,0.1738666487320323,0.09999999999999999,-75,90.0,-90.0,0.10697848697665868,0.8179866701909212,-1.2972758709946732,-1.7638188754245818,-1.0160089896096143,-1.6124040401959499,1.5022299204888778
-0.05000000000000001,0.0,0.1,-0.14,0.15588457268119893,0.09999999999999999,-60,90.0,-90.0,0.12162678394827314,0.8166407184377548,-1.1989087439160198,-2.1482399783986925,-1.2836514532404948,-1.5113844811762847,1.7684157868883756
-0.05000000000000001,0.0,0.1,-0.17727922061357856,0.12727922061357855,0.09999999999999999,-45,90.0,-90.0,0.09345795206980297,0.7010403056411066,-1.1602970019593495,-2.45261488579973,-1.6448969812133452,-1.6090513509907207,2.0400878428218014
-0.05000000000000001,0.0,0.1,-0.205884572681199,0.09,0.09999999999999999,-30,90.0,-90.0,0.05390552381884064,0.37446229371139705,-1.2355084968997037,-2.663266039663324,-2.0948961527050534,-2.013668236412658,2.207421447840103
-0.05000000000000001,0.0,0.1,-0.2238666487320323,0.04658742811845373,0.09999999999999996,-15,90.0,-90.0,0.10268218752969589,-2.337997340391359,1.3597811446718944,1.9905876436718046,-2.0665606976340096,1.6702962892799877,-1.3869486951761776
-0.05000000000000001,0.0,0.1,-0.2238666487320323,-0.04658742811845371,0.09999999999999995,15,90.0,-90.0,0.03702011177786921,-2.811537858566168,1.620207237513487,2.4500526675010126,-3.0266421664507077,2.4964244735831578,-1.4784580237501865
-0.05000000000000001,0.0,0.1,-0.205884572681199,-0.09,0.1,30,90.0,-90.0,0.1282325250685278,-0.8277184754943738,-1.1894947987917726,-1.714204424816789,1.7836564956717083,-1.5188526474706934,1.80265904194896
-0.05000000000000001,0.0,0.1,-0.17727922061357856,-0.12727922061357852,0.09999999999999994,45,90.0,-90.0,0.13916470988762678,-0.7670118795206822,-1.1602817671837695,-1.4478907228517204,1.5866908961047963,-1.56032159851892,2.103422581617671
-0.05000000000000001,0.0,0.1,-0.14,-0.15588457268119896,0.09999999999999999,60,90.0,-90.0,0.12502666494259831,-0.6973057883982701,-1.2039815526405948,-1.1541597045275984,1.4466888353140053,-1.6922998506412856,2.3467468063429893
-0.05000000000000001,0.0,0.1,-0.09658742811845375,-0.17386664873203228,0.09999999999999999,75,90.0,-90.0,0.10210528533148602,-0.6268759583532102,-1.299325534094698,-0.8190137129605538,1.3737651089044147,-1.8798823837472696,2.564034979801675
-0.05000000000000001,0.0,0.1,-0.05000000000000004,-0.18000000000000002,0.1,90,90.0,-90.0,0.07133476777868558,-0.5631492630389202,-1.4457149254513073,-0.41005315250430946,1.3963926399721465,-2.1084106407051837,2.8079275242569786
-0.05000000000000001,-0.05,0.1,-0.05000000000000004,0.13,0.1,-90,90.0,-90.0,0.08926597443846294,0.6927224224657557,-1.3966498395009188,-1.4490209212803336,-0.8997049873674622,-1.7580353458467914,1.3402473699396356
-0.05000000000000001,-0.05,0.1,-0.09658742811845372,0.1238666487320323,0.09999999999999999,-75,90.0,-90.0,0.11287927017109999,0.7381953614359282,-1.2627670805960565,-1.8859789709339765,-1.0942372992691096,-1.566554203398881,1.5763827160423924
-0.05000000000000001,-0.05,0.1,-0.14,0.10588457268119893,0.09999999999999999,-60,90.0,-90.0,0.11680231372061563,0.7055920965722218,-1.1791619023290607,-2.2479446389241566,-1.3957170484028576,-1.518762225776575,1.85252296498525
-0.05000000000000001,-0.05,0.1,-0.17727922061357856,0.07727922061357854,0.09999999999999999,-45,90.0,-90.0,0.08225767950844623,0.5349823539775477,-1.1674459652660556,-2.52503348490803,-1.7859863959608209,-1.7018102733687668,2.108334199022925
-0.05000000000000001,-0.05,0.1,-0.205884572681199,0.039999999999999994,0.09999999999999999,-30,90.0,-90.0,0.03617099345425021,0.07539274818832727,-1.31569202224853,-2.6856774977573337,-2.3320295867773355,-2.247250752990641,2.1505547346249885
-0.05000000000000001,-0.05,0.1,-0.2238666487320323,-0.0034125718815462697,0.09999999999999996,-15,90.0,-90.0,0.09942384886582678,-2.4490942255826598,1.4254708926661293,2.0521337725513664,-2.1596391543252724,1.7625594230858697,-1.2923371889188555
-0.05000000000000001,-0.05,0.1,-0.2238666487320323,-0.09658742811845372,0.09999999999999995,15,90.0,-90.0,0.01951968406123746,0.017003681223864746,-1.4690094884422609,-2.63120012092597,-0.4084180312072485,2.4877474240650743,-1.9016474597466755
-0.05000000000000001,-0.05,0.1,-0.205884572681199,-0.14,0.1,30,90.0,-90.0,0.07380595466575461,-0.6489787318302375,-1.1804857099846902,-2.5707568492814388,-1.2382042324339517,1.7939416482786887,-2.142349843248343
-0.05000000000000001,-0.05,0.1,-0.17727922061357856,-0.17727922061357854,0.09999999999999994,45,90.0,-90.0,0.10958860669244831,-0.8676745717707257,-1.168914871600081,-2.312918842752885,-1.6487322750644011,1.5422267043169358,-1.9096351560173976
-0.05000000000000001,-0.05,0.1,-0.14,-0.20588457268119897,0.09999999999999999,60,90.0,-90.0,0.11625198779813711,-0.9294861945085805,-1.2415927983936055,-1.967057317171883,-1.9761085025461318,1.5441678102964962,-1.6320876827755817
-0.05000000000000001,-0.05,0.1,-0.09658742811845375,-0.22386664873203227,0.09999999999999999,75,90.0,-90.0,0.09479015903055771,-0.9004957911067522,-1.3652203547087747,-1.5446990089924386,-2.1975184249105206,1.7073144398128135,-1.3830640968474093
-0.05000000000000001,-0.05,0.1,-0.05000000000000004,-0.23000000000000004,0.1,90,90.0,-90.0,0.05914832039590395,-0.8221648287041178,-1.55664756838622,-1.0142886390074413,-2.3070341849228937,1.9771883263724819,-1.158071305786769
-6.938893903907228e-18,0.025,0.1,-3.520055816021518e-17,0.20500000000000002,0.1,-90,90.0,-90.0,0.05212161184641962,0.5602710674172783,-1.548488856064209,-0.1490085138120142,1.6492617696915022,2.125933675247161,-2.9919167893992626
-6.938893903907228e-18,0.025,0.1,-0.046587428118453726,0.1988666487320323,0.09999999999999999,-75,90.0,-90.0,0.09140920729189161,0.606162594788339,-1.3516076248706417,-0.6590660410562096,1.7220395940396493,1.880307507719269,-2.677590713972654
-6.938893903907228e-18,0.025,0.1,-0.09000000000000002,0.18088457268119892,0.09999999999999999,-60,90.0,-90.0,0.11773723537511216,0.6646644799804073,-1.233116499300049,-1.0330295675645045,1.6607125167015409,1.6784749618455734,-2.4406900162663976
-6.938893903907228e-18,0.025,0.1,-0.12727922061357855,0.15227922061357854,0.09999999999999999,-45,90.0,-90.0,0.134724960049535,0.7221654860392132,-1.1697689335149195,-1.348754528987328,1.5184554896155293,1.5341857362646425,-2.1922649304097535
-6.938893903907228e-18,0.025,0.1,-0.15588457268119899,0.11499999999999999,0.09999999999999999,-30,90.0,-90.0,0.13155168427601768,0.7699060738833208,-1.1749415630734334,-1.6308801429679103,1.3076304930946971,1.48124686639862,-1.8938458479211913
-6.938893903907228e-18,0.025,0.1,-0.17386664873203228,0.07158742811845373,0.09999999999999996,-15,90.0,-90.0,0.11146150702843262,0.7795536766859993,-1.2744131119227193,-1.889041035506841,1.0407526322186453,1.5816801900100461,-1.5512727643658155
-6.938893903907228e-18,0.025,0.1,-0.18,0.025,0.1,0,90.0,-90.0,0.10316185653762727,0.6751479898664463,-1.4405262084686996,-2.108478428941806,0.7183219722291877,1.885904284265744,-1.306099148001569
-6.938893903907228e-18,0.025,0.1,-0.17386664873203228,-0.02158742811845371,0.09999999999999995,15,90.0,-90.0,0.05921981203874315,0.3924528541629944,-1.4948693853974948,-2.3413277714595493,0.16995411513837722,2.2581295227157945,-1.4613600499897237
-6.938893903907228e-18,0.025,0.1,-0.15588457268119899,-0.065,0.1,30,90.0,-90.0,0.060676348306437776,-0.20903213865277087,-1.2349850846324093,-2.5328345934393566,-0.8385367512235246,2.0215088289084817,-2.0227590913486866
-6.938893903907228e-18,0.025,0.1,-0.12727922061357855,-0.10227922061357853,0.09999999999999994,45,90.0,-90.0,0.10096422662366844,-0.5606096715071348,-1.168197651457022,-2.346638305670045,-1.361407209586565,1.651184500830437,-1.9350471563469511
-6.938893903907228e-18,0.025,0.1,-0.09,-0.13088457268119896,0.09999999999999999,60,90.0,-90.0,0.11804753148320253,-0.7045237476344505,-1.2224146201808328,-2.037600185217939,-1.7498855227048857,1.5502039293799443,-1.6876814816099626
-6.938893903907228e-18,0.025,0.1,-0.04658742811845374,-0.1488666487320323,0.09999999999999999,75,90.0,-90.0,0.0967844230535722,-0.7288975699494358,-1.3437140409667272,-1.6243095479693994,-2.032168261596609,1.6489968525733014,-1.4146547074153555
-6.938893903907228e-18,0.025,0.1,-3.5200558160215184e-17,-0.15500000000000003,0.1,90,90.0,-90.0,0.06377499778536491,-0.6282171475826339,-2.1723727384868816,1.1578708312475494,1.937050184257933,-2.0938118817849447,-2.485367800089454
-6.938893903907228e-18,-0.1,0.1,-3.520055816021518e-17,0.08000000000000002,0.1,-90,90.0,-90.0,0.08150230085426986,0.56358690583205,-1.4255446834982266,-1.3848565746264383,-1.0311472695736708,-1.7448787905704242,1.2879092236104297
-6.938893903907228e-18,-0.1,0.1,-0.046587428118453726,0.0738666487320323,0.09999999999999999,-75,90.0,-90.0,0.10934993378111553,0.5755096510239482,-1.27339317698617,-1.8512913867968717,-1.256250285847656,-1.5768836045654826,1.5544136842008167
-6.938893903907228e-18,-0.1,0.1,-0.09000000000000002,0.055884572681198924,0.09999999999999999,-60,90.0,-90.0,0.117114896776062,0.4908394373730855,-1.184543916818263,-2.2081793047176563,-1.6017842677465466,-1.5785312921410368,1.8208346724484807
-6.938893903907228e-18,-0.1,0.1,-0.12727922061357855,0.027279220613578542,0.09999999999999999,-45,90.0,-90.0,0.08108878364858228,0.2504149297784592,-1.1830492800259527,-2.4511211846347836,-2.051215737663214,-1.8140586811331847,2.003313518002614
-6.938893903907228e-18,-0.1,0.1,-0.15588457268119899,-0.010000000000000009,0.09999999999999999,-30,90.0,-90.0,0.04642454246564064,-0.2821183028837991,-1.371255501368245,-2.4670661316336053,-2.829851252029904,-2.244332497366342,1.7683855882510677
-6.938893903907228e-18,-0.1,0.1,-0.17386664873203228,-0.05341257188154627,0.09999999999999996,-15,90.0,-90.0,0.08890681956685655,-0.6934347573052934,-1.4638876715913423,-2.1901199807155587,2.654824732088842,-2.032460299824116,1.3401794273712018
-6.938893903907228e-18,-0.1,0.1,-0.18,-0.1,0.1,0,90.0,-90.0,0.10730959934169552,-0.8729182513274331,-1.328727291062936,-1.9734099160896201,2.262056395865426,-1.6738370408716987,1.4478055628062645
-6.938893903907228e-18,-0.1,0.1,-0.17386664873203228,-0.1465874281184537,0.09999999999999995,15,90.0,-90.0,0.1230702435003122,-0.9061224276379837,-1.1993605592630896,-1.7261200653921815,1.9659383260302015,-1.4855141635593234,1.7693491803297412
-6.938893903907228e-18,-0.1,0.1,-0.15588457268119899,-0.19,0.1,30,90.0,-90.0,0.13617494703609098,-0.8729039777140601,-1.162305074066566,-1.4512252181099587,1.7216493624874585,-1.4823115644359435,2.092122063829935
-6.938893903907228e-18,-0.1,0.1,-0.12727922061357855,-0.22727922061357853,0.09999999999999994,45,90.0,-90.0,0.12477126999828472,-0.8220578766386634,-1.2044717584704088,-1.1475330092118532,1.5452732772205453,-1.5974331549959093,2.359404573849598
-6.938893903907228e-18,-0.1,0.1,-0.09,-0.25588457268119896,0.09999999999999999,60,90.0,-90.0,0.10162990012229929,-0.7663522512864512,-1.3034692737607283,-0.7975331738153106,1.445889213109437,-1.77834577727949,2.5972643593309845
-6.938893903907228e-18,-0.1,0.1,-0.04658742811845374,-0.27386664873203226,0.09999999999999999,75,90.0,-90.0,0.06780140583713133,-0.7158204101559601,-1.4679523536562664,-0.3476751842163216,1.4528532156465812,-2.0095131394252506,2.8696199403825324
-0.02500000000000001,0.025,0.1,-0.025000000000000036,0.20500000000000002,0.1,-90,90.0,-90.0,0.0627999290074543,0.5649762971049995,-1.491217349716446,-0.2904693926482402,1.7027357948994353,2.1210262795245542,3.389028602889654
-0.02500000000000001,0.025,0.1,-0.07158742811845373,0.1988666487320323,0.09999999999999999,-75,90.0,-90.0,0.0970251069502859,0.6207941826304777,-1.3241837080051604,-0.7415094357741351,1.7472822888046131,1.8839872559828454,3.664113999146289
-0.02500000000000001,0.025,0.1,-0.11500000000000002,0.18088457268119892,0.09999999999999999,-60,90.0,-90.0,0.1191813968361727,0.8157525651893496,-1.2228413269347018,-2.0397195864937796,-1.2806470189133048,-1.536726772809982,1.6871326119295738
-0.02500000000000001,0.025,0.1,-0.15227922061357857,0.15227922061357854,0.09999999999999999,-45,90.0,-90.0,0.1028368616935389,0.7083902856919267,-1.1642818416142673,-2.361511623650533,-1.6425855188960032,-1.599277749404279,1.9529784927831753
-0.02500000000000001,0.025,0.1,-0.180884572681199,0.11499999999999999,0.09999999999999999,-30,90.0,-90.0,0.0640159371469388,0.41520917318604555,-1.2082994117534798,-2.5799282799646117,-2.0988183339498008,-1.934115796958542,2.118537113257232
-0.02500000000000001,0.025,0.1,-0.1988666487320323,0.07158742811845373,0.09999999999999996,-15,90.0,-90.0,0.10847795786233352,-2.3365324797868507,1.2979797808788422,1.923718178223375,-2.0724453266425504,1.608517422719801,-1.5001025587314962
-0.02500000000000001,0.025,0.1,-0.1988666487320323,-0.02158742811845371,0.09999999999999995,15,90.0,-90.0,0.052070458871313154,-2.73930238871929,1.557298992163973,2.3734582714231993,-2.942564457802232,2.349099582235075,-1.429245671870749
-0.02500000000000001,0.025,0.1,-0.180884572681199,-0.065,0.1,30,90.0,-90.0,0.05587813943392921,-0.2626792039212666,-1.2387931050261989,-2.5998606788449563,-0.9186508549882292,2.04128673978092,-2.105554156726308
-0.02500000000000001,0.025,0.1,-0.15227922061357857,-0.10227922061357853,0.09999999999999994,45,90.0,-90.0,0.09672587243948577,-0.6125191545901837,-1.163004743155426,-2.4019793994149294,-1.412905908873048,1.6408721289850137,-1.98773109978381
-0.02500000000000001,0.025,0.1,-0.115,-0.13088457268119896,0.09999999999999999,60,90.0,-90.0,0.12004091838135916,-0.7486506524466848,-1.2087246688164845,-2.0953527373475693,-1.7926381181580489,1.5340375432240114,-1.7286654412512608
-0.02500000000000001,0.025,0.1,-0.07158742811845374,-0.1488666487320323,0.09999999999999999,75,90.0,-90.0,0.10217631100275489,-0.7645707714868948,-1.3183584698558963,-1.6977916095731616,-2.0700381532082885,1.6304272202387857,-1.4606613217321758
-0.02500000000000001,0.025,0.1,-0.025000000000000036,-0.15500000000000003,0.1,90,90.0,-90.0,0.06896783651529821,-0.5230079106526652,-1.4596252311022169,-0.3711256514571872,1.4231831838994837,-2.0744033080873368,2.8430003696546606
-0.02500000000000001,0.07500000000000001,0.1,-0.025000000000000036,0.255,0.1,-90,90.0,-90.0,0.045761866866544265,-2.354267158490519,1.6201197689460922,0.8738585739808197,2.2460081870830724,-2.013489320935628,1.079665831610631
-0.02500000000000001,0.07500000000000001,0.1,-0.07158742811845373,0.24886664873203232,0.09999999999999999,-75,90.0,-90.0,0.08911445272186848,-2.2795413268507985,1.3916625823543898,1.4750573033854408,2.1538978545258156,-1.7255019964663174,1.3421522327143083
-0.02500000000000001,0.07500000000000001,0.1,-0.11500000000000002,0.23088457268119894,0.09999999999999999,-60,90.0,-90.0,0.11328634403671749,-2.259578318503458,1.254549997086637,1.9160474837038592,1.929616844455437,-1.5597333656201928,1.5971297418510273
-0.02500000000000001,0.07500000000000001,0.1,-0.15227922061357857,0.20227922061357856,0.09999999999999999,-45,90.0,-90.0,0.11278463410421499,-2.3347923525497873,1.1751288048647353,2.2676281579857562,1.5908525349899016,-1.5649435848250635,1.871342183968272
-0.02500000000000001,0.07500000000000001,0.1,-0.180884572681199,0.165,0.09999999999999999,-30,90.0,-90.0,0.07660086413861786,-2.5670087173751535,1.1814244364821918,2.5193688717541494,1.1625778376130234,-1.8143393897581168,2.0792834088905687
-0.02500000000000001,0.07500000000000001,0.1,-0.1988666487320323,0.12158742811845374,0.09999999999999996,-15,90.0,-90.0,0.11477702284056475,0.8998366925307504,-1.249727689391945,-1.846903014058619,1.1612174072795003,1.5534957834453438,-1.6111216334976146
-0.02500000000000001,0.07500000000000001,0.1,-0.20500000000000002,0.07500000000000001,0.1,0,90.0,-90.0,0.10110358272126037,0.8438137035771262,-1.4294965598483833,-2.0706717489495223,0.8766079099852713,1.8057639292276133,-1.2979967689764256
-0.02500000000000001,0.07500000000000001,0.1,-0.1988666487320323,0.0284125718815463,0.09999999999999995,15,90.0,-90.0,0.07001828632414031,0.6147954046464748,-1.567307089851801,-2.2734616686299325,0.4496934025409906,2.219373537637574,-1.2881369619017469
-0.02500000000000001,0.07500000000000001,0.1,-0.180884572681199,-0.014999999999999986,0.1,30,90.0,-90.0,0.039833598245663,0.02781997915403858,-1.3214619880985976,-2.6040522773437362,-0.6522142357058887,2.2418544493272026,-2.012893151701498
-0.02500000000000001,0.07500000000000001,0.1,-0.15227922061357857,-0.05227922061357851,0.09999999999999994,45,90.0,-90.0,0.08582244003374406,-0.4496166340835788,-1.1690605805952834,-2.4693834895044464,-1.2725381980799073,1.729305071862501,-2.0434549571621003
-0.02500000000000001,0.07500000000000001,0.1,-0.115,-0.08088457268119895,0.09999999999999999,60,90.0,-90.0,0.11868860245724876,-0.6370879908118754,-1.187929587033272,-2.1920536147792196,-1.681412163691477,1.5433611099252222,-1.806871795293873
-0.02500000000000001,0.07500000000000001,0.1,-0.07158742811845374,-0.09886664873203227,0.09999999999999999,75,90.0,-90.0,0.10856774162750915,-0.6843492842565785,-1.2815434883282584,-1.8207950214550863,-1.992466081323773,1.58608594896973,-1.5342054852206264
-0.02500000000000001,0.07500000000000001,0.1,-0.025000000000000036,-0.10500000000000001,0.1,90,90.0,-90.0,0.08152127749518412,-0.6491922412131739,-1.4329780192624235,-1.3552636502480246,-2.1897638876330654,1.7815545113826043,-1.2849086549776518
-6.938893903907228e-18,-0.07500000000000001,0.1,-3.520055816021518e-17,0.10500000000000001,0.1,-90,90.0,-90.0,0.07565116620810328,-2.7224291790984814,1.4281305772145259,0.4500552999988443,-1.4357804920011061,1.9690300208499476,-2.8066887294902627
-6.938893903907228e-18,-0.07500000000000001,0.1,-0.046587428118453726,0.0988666487320323,0.09999999999999999,-75,90.0,-90.0,0.10677297340691698,-2.6685944432313313,1.2802612428375826,0.8704749084711418,-1.453763719094483,1.746837929454443,-2.5514385762442946
-6.938893903907228e-18,-0.07500000000000001,0.1,-0.09000000000000002,0.08088457268119892,0.09999999999999999,-60,90.0,-90.0,0.12821162594532312,-2.6125615614855873,1.1908376332332433,1.2092429588563671,-1.5660255741706715,1.574307011304185,-2.3113749373264634
-6.938893903907228e-18,-0.07500000000000001,0.1,-0.12727922061357855,0.052279220613578536,0.09999999999999999,-45,90.0,-90.0,0.136126386976704,-2.5619604610809854,1.1623848632498615,1.5050127660779657,-1.753557118228787,1.476762606086937,-2.0358186773950804
-6.938893903907228e-18,-0.07500000000000001,0.1,-0.15588457268119899,0.014999999999999986,0.09999999999999999,-30,90.0,-90.0,0.11958526676113843,-2.5340085024452086,1.2173573748974997,1.7748020087490255,-2.005609134348141,1.50765371124077,-1.7065291608692197
-6.938893903907228e-18,-0.07500000000000001,0.1,-0.17386664873203228,-0.028412571881546278,0.09999999999999996,-15,90.0,-90.0,0.10563163067127365,-2.5852376916835014,1.361276037678585,2.0153815820952965,-2.308899142500797,1.7313738077586984,-1.3978241452978584
-6.938893903907228e-18,-0.07500000000000001,0.1,-0.18,-0.07500000000000001,0.1,0,90.0,-90.0,0.08020884470932675,-2.793895041634791,1.4816531422711876,2.2316808854298693,-2.733853551869216,2.1044995555967043,-1.353925749276463
-6.938893903907228e-18,-0.07500000000000001,0.1,-0.17386664873203228,-0.12158742811845372,0.09999999999999995,15,90.0,-90.0,0.12003538894949181,-0.8751862277341562,-1.2151928025945165,-1.7692385098957368,1.9999155698733369,-1.5055676689321833,1.71385526370267
-6.938893903907228e-18,-0.07500000000000001,0.1,-0.15588457268119899,-0.165,0.1,30,90.0,-90.0,0.13622648598234738,-0.8460370852562324,-1.1621183564635489,-1.4990277035901733,1.7486731299483136,-1.4777305639262661,2.043041078327843
-6.938893903907228e-18,-0.07500000000000001,0.1,-0.12727922061357855,-0.20227922061357853,0.09999999999999994,45,90.0,-90.0,0.12783710068777993,-0.7955217087003111,-1.192553065573204,-1.2020826060197496,1.5626925723864762,-1.5781044556913018,2.317059536291399
-6.938893903907228e-18,-0.07500000000000001,0.1,-0.09,-0.23088457268119897,0.09999999999999999,60,90.0,-90.0,0.10624257855023474,-0.7393187619742864,-1.2824927215802726,-0.8630104159731633,1.4519469118956956,-1.7502765960383742,2.5557204660052824
-6.938893903907228e-18,-0.07500000000000001,0.1,-0.04658742811845374,-0.2488666487320323,0.09999999999999999,75,90.0,-90.0,0.0748093301156829,-0.6859014109140215,-1.4325185170971593,-0.4390193785361817,1.4373915314775272,-1.9741080382311997,2.8133109104824436
-0.02500000000000001,0.1,0.1,-0.025000000000000036,0.28,0.1,-90,90.0,-90.0,0.03484791921966773,-2.476908648112584,1.6361156072465712,-0.057573778961803726,-1.5656186543298265,2.2356606414372346,3.1499463134122605
-0.02500000000000001,0.1,0.1,-0.07158742811845373,0.2738666487320323,0.09999999999999999,-75,90.0,-90.0,0.08143055689019262,-2.44106401854169,1.398436731896244,0.5316907579496087,-1.4065968615633289,1.979286739867588,3.53425689149158
-0.02500000000000001,0.1,0.1,-0.11500000000000002,0.2558845726811989,0.09999999999999999,-60,90.0,-90.0,0.11024980552448108,0.7703060974842627,-1.2645329383763255,-0.9249279663707939,1.71680616135946,1.7709272497921622,-2.5073575030275013
-0.02500000000000001,0.1,0.1,-0.15227922061357857,0.22727922061357855,0.09999999999999999,-45,90.0,-90.0,0.13079335886420684,0.8341824699299569,-1.1829999009553205,-1.2527985230460796,1.6081434850763465,1.6015597917429751,-2.275847096058521
-0.02500000000000001,0.1,0.1,-0.180884572681199,0.19,0.09999999999999999,-30,90.0,-90.0,0.13772111421944544,0.8935244936723997,-1.1623704182011843,-1.5411808511078968,1.4309521837937391,1.506450601584966,-2.0034314080804556
-0.02500000000000001,0.1,0.1,-0.1988666487320323,0.14658742811845374,0.09999999999999996,-15,90.0,-90.0,0.11826272293177903,0.9327472379594126,-1.2271474313105761,-1.8053936978668972,1.1962062482109856,1.5299687312372172,-1.671606790106743
-0.02500000000000001,0.1,0.1,-0.20500000000000002,0.1,0.1,0,90.0,-90.0,0.10238414947675188,0.8962539741300815,-1.393518017582828,-2.0368239982145773,0.9174665602421623,1.7485618943560166,-1.3422871301623867
-0.02500000000000001,0.1,0.1,-0.1988666487320323,0.05341257188154629,0.09999999999999995,15,90.0,-90.0,0.10195896195333273,2.5308948105494657,1.4066030902364624,2.050211843877505,-0.8969898566253326,-1.7708955051810888,1.3255275857944926
-0.02500000000000001,0.1,0.1,-0.180884572681199,0.010000000000000009,0.1,30,90.0,-90.0,0.11692374861156492,2.4861884566354986,1.2344748352826378,1.8205617082208612,-1.180624040492409,-1.5369665970072328,1.6500600686350275
-0.02500000000000001,0.1,0.1,-0.15227922061357857,-0.027279220613578514,0.09999999999999994,45,90.0,-90.0,0.13710920884926525,2.523067418769306,1.1632258963020976,1.5590147429143495,-1.417384230362179,-1.5024499405344376,1.984084016007302
-0.02500000000000001,0.1,0.1,-0.115,-0.05588457268119895,0.09999999999999999,60,90.0,-90.0,0.13176477576163104,2.5817399548811366,1.1796900683380018,1.271815593814694,-1.598735849583278,-1.5926353270022389,2.259779912923844
-0.02500000000000001,0.1,0.1,-0.07158742811845374,-0.07386664873203228,0.09999999999999999,75,90.0,-90.0,0.11178281582139583,2.6452855388983982,1.2579743955960232,0.9470289212012205,-1.7118316002953917,-1.7588845488070122,2.4930215790823307
-0.02500000000000001,0.1,0.1,-0.025000000000000036,-0.08000000000000002,0.1,90,90.0,-90.0,0.08351283277779012,2.7065270493984444,1.3889364373570374,0.5583653831882606,-1.7396368275391219,-1.9728906864106905,2.7296802077451874
-6.938893903907228e-18,0.125,0.1,-0.046587428118453726,0.2988666487320323,0.09999999999999999,-75,90.0,-90.0,0.0678304834065758,0.7248915945484445,-1.4685847401766126,-0.34681373821898354,1.6904359909621713,2.0185120665952376,-2.8692273394962844
-6.938893903907228e-18,0.125,0.1,-0.09000000000000002,0.28088457268119893,0.09999999999999999,-60,90.0,-90.0,0.1015800569991049,0.7760287410786978,-1.304040079700236,-0.7966072427922135,1.700324435118091,1.7870412448778588,-2.597062699940939
-6.938893903907228e-18,0.125,0.1,-0.12727922061357855,0.25227922061357855,0.09999999999999999,-45,90.0,-90.0,0.12479316016437757,0.8324766690948646,-1.2043405649110848,-1.1475909961577981,1.6034895290289921,1.6047389698916654,-2.3591119563801914
-6.938893903907228e-18,0.125,0.1,-0.15588457268119899,0.215,0.09999999999999999,-30,90.0,-90.0,0.13644684987171873,0.8849912814690379,-1.162381716679438,-1.4515704679977186,1.429751104865928,1.4887578435164739,-2.092729803655114
-6.938893903907228e-18,0.125,0.1,-0.17386664873203228,0.17158742811845373,0.09999999999999996,-15,90.0,-90.0,0.1235134511590471,0.9201330868318152,-1.199060984206868,-1.7256229017467888,1.1907422870354356,1.4887695959162548,-1.7711914818378762
-6.938893903907228e-18,0.125,0.1,-0.18,0.125,0.1,0,90.0,-90.0,0.10718974204520675,0.8915219849036656,-1.3292979920137196,-1.9735872521192543,0.8974343693263721,1.6713472416501567,-1.4455158399866208
-6.938893903907228e-18,0.125,0.1,-0.17386664873203228,0.0784125718815463,0.09999999999999995,15,90.0,-90.0,0.08939081428684585,0.717613067821697,-1.4693351387014582,-2.186086089532464,0.5133753351387634,2.028182601298625,-1.326866885716153
-6.938893903907228e-18,0.125,0.1,-0.15588457268119899,0.035,0.1,30,90.0,-90.0,0.04671202803105757,0.3194686231255379,-1.3841243445569915,-2.459102929963748,-0.2650697112072396,2.2540401873926865,-1.7411547712432782
-6.938893903907228e-18,0.125,0.1,-0.12727922061357855,-0.00227922061357852,0.09999999999999994,45,90.0,-90.0,0.08039970315445813,-0.22076284606545588,-1.1865489164243133,-2.450843048010535,-1.0626402232312804,1.8290780063359549,-1.9992612922331612
-6.938893903907228e-18,0.125,0.1,-0.09,-0.030884572681198957,0.09999999999999999,60,90.0,-90.0,0.1159079500604101,-0.46843303338889275,-1.1841658925345524,-2.2092432749271387,-1.5164948204211157,1.5839381396833199,-1.8218592953413861
-6.938893903907228e-18,0.125,0.1,-0.04658742811845374,-0.04886664873203228,0.09999999999999999,75,90.0,-90.0,0.10907686363216751,-0.5595051534258916,-1.2726440082461172,-1.8518084196079232,-1.8692634723882278,1.5749818633062678,-1.5536285636111087
-6.938893903907228e-18,0.125,0.1,-3.5200558160215184e-17,-0.05500000000000002,0.1,90,90.0,-90.0,0.08143006307603759,-0.5507828809191679,-1.4257554018515055,-1.386173649964352,-2.096443349948631,1.74025947518202,-1.2864180919446147
-0.02500000000000001,-0.05000000000000001,0.1,-0.025000000000000036,0.13,0.1,-90,90.0,-90.0,0.08144284335076238,-2.4922730039441143,1.4336067344349344,1.3539831054584837,2.190142377784561,-1.7823970794438377,1.283910207523292
-0.02500000000000001,-0.05000000000000001,0.1,-0.07158742811845373,0.12386664873203229,0.09999999999999999,-75,90.0,-90.0,0.10848627485552206,-2.456994718490642,1.2826111933156203,1.818664132601616,1.9939376959104724,-1.5876485066852113,1.5333301038606382
-0.02500000000000001,-0.05000000000000001,0.1,-0.11500000000000002,0.10588457268119891,0.09999999999999999,-60,90.0,-90.0,0.1186421231449688,-2.504730239802953,1.1877514994864462,2.1928621222347373,1.680189945893473,-1.5435326414742383,1.8087354204026922
-0.02500000000000001,-0.05000000000000001,0.1,-0.15227922061357857,0.07727922061357853,0.09999999999999999,-45,90.0,-90.0,0.0859474284394208,-2.690821820331345,1.1684817571391397,2.4690424881424966,1.2744404489891707,-1.727354740865469,2.043225903202331
-0.02500000000000001,-0.05000000000000001,0.1,-0.180884572681199,0.03999999999999999,0.09999999999999999,-30,90.0,-90.0,0.11980566510706575,-2.459557789325452,1.2192632602024385,1.7871481717594524,-1.9329956548714984,1.5223947074512023,-1.696857585215321
-0.02500000000000001,-0.05000000000000001,0.1,-0.1988666487320323,-0.0034125718815462766,0.09999999999999996,-15,90.0,-90.0,0.10297121415565937,-2.4894033925441708,1.3803710906052904,2.022105390281319,-2.2106434744589025,1.7292459018347197,-1.3632302631738165
-0.02500000000000001,-0.05000000000000001,0.1,-0.20500000000000002,-0.05000000000000001,0.1,0,90.0,-90.0,0.10109559257035881,2.2978708027916652,1.42987009685977,2.0710475517273026,-0.8761008369169623,-1.8065514507068121,1.2970370492241874
-0.02500000000000001,-0.05000000000000001,0.1,-0.1988666487320323,-0.09658742811845372,0.09999999999999995,15,90.0,-90.0,0.11486668701670293,2.2419848493631744,1.249412832296242,1.8459923221562347,-1.1623832583282614,-1.5532352782493368,1.6125934467287681
-0.02500000000000001,-0.05000000000000001,0.1,-0.180884572681199,-0.14,0.1,30,90.0,-90.0,0.13604735909586388,2.2760288630020065,1.1652908702541995,1.588236178548981,-1.4023171760906836,-1.501337538912833,1.9524471993802819
-0.02500000000000001,-0.05000000000000001,0.1,-0.15227922061357857,-0.17727922061357854,0.09999999999999994,45,90.0,-90.0,0.13340545709618667,2.333957065414557,1.175358311900226,1.3045014002040651,-1.5869993513114002,-1.5845609937293028,2.2322728184369325
-0.02500000000000001,-0.05000000000000001,0.1,-0.115,-0.20588457268119897,0.09999999999999999,60,90.0,-90.0,0.11432586893884071,2.3985566029937537,1.2475586424868736,0.9847841603622126,-1.7071264814413625,-1.7443326770529735,2.4677017826531027
-0.02500000000000001,-0.05000000000000001,0.1,-0.07158742811845374,-0.2238666487320323,0.09999999999999999,75,90.0,-90.0,0.08708385685060924,2.4611610272625386,1.3718371824332172,0.606563494758439,-1.7445020180692512,-1.9536347288956304,2.699969908711026
-0.02500000000000001,-0.05000000000000001,0.1,-0.025000000000000036,-0.23000000000000004,0.1,90,90.0,-90.0,0.046492837174609815,2.5069622819442894,1.5759345135480565,0.0834510650728207,-1.6350295613650199,-2.203300875869596,3.031716444393529
0.024999999999999994,0.1,0.1,-0.021587428118453725,0.2738666487320323,0.09999999999999999,-75,90.0,-90.0,0.06714839734286743,-2.4692367446298435,1.4720673294893,0.3358904182662758,-1.4684800313251758,1.9681186452271084,3.3995922774732104
0.024999999999999994,0.1,0.1,-0.06500000000000002,0.2558845726811989,0.09999999999999999,-60,90.0,-90.0,0.10155615586857694,-2.422859121400761,1.3046871715449004,0.7936495614182172,-1.4719599277705921,1.7401885675646562,3.6777746550740904
0.024999999999999994,0.1,0.1,-0.10227922061357855,0.22727922061357855,0.09999999999999999,-45,90.0,-90.0,0.11997539792288504,0.7744905621670267,-1.2031314600856151,-2.1135346394609216,-1.581885855961596,-1.5717644575969811,1.745985134835548
0.024999999999999994,0.1,0.1,-0.130884572681199,0.19,0.09999999999999999,-30,90.0,-90.0,0.09088997983222964,0.5597078274287487,-1.1799468073361006,-2.3715413833545544,-2.0222456229889594,-1.7587122051025996,1.9379546003154866
0.024999999999999994,0.1,0.1,-0.1488666487320323,0.14658742811845374,0.09999999999999996,-15,90.0,-90.0,0.05647942517284327,0.1064175239310474,-1.3070436717421692,-2.4377245030943606,-2.703382900552695,-2.128381500252503,1.813683445899402
0.024999999999999994,0.1,0.1,-0.155,0.1,0.1,0,90.0,-90.0,0.08737224495630459,-0.32339267587235676,-1.4257163640496133,-2.1981968466737976,2.7790803059531255,-2.025359163788283,1.4047601361972804
0.024999999999999994,0.1,0.1,-0.1488666487320323,0.05341257188154629,0.09999999999999995,15,90.0,-90.0,0.10865274161054257,-0.5243799407402118,-1.324197195754064,-1.975932255272838,2.348098792454036,-1.6830419032085473,1.4581756744412724
0.024999999999999994,0.1,0.1,-0.130884572681199,0.010000000000000009,0.1,30,90.0,-90.0,0.12146063668778363,-0.5772166091048744,-1.2030234406763258,-1.7277747149571105,2.0325497255036318,-1.4749226255397772,1.7599629396885392
0.024999999999999994,0.1,0.1,-0.10227922061357855,-0.027279220613578514,0.09999999999999994,45,90.0,-90.0,0.13444531879939392,-0.5552222828477917,-1.1647697867434874,-1.4502606306505819,1.77151827828479,-1.455563873122394,2.085701538640225
0.024999999999999994,0.1,0.1,-0.065,-0.05588457268119895,0.09999999999999999,60,90.0,-90.0,0.12435115594552287,-0.5101968156213288,-1.2042963082302767,-1.1450138603706994,1.5793948196861467,-1.5606914777431848,2.3628358439247372
0.024999999999999994,0.1,0.1,-0.02158742811845374,-0.07386664873203228,0.09999999999999999,75,90.0,-90.0,0.10116110328138647,-0.45992808641002136,-1.306006612219,-0.7883365334893181,1.4697603907766554,-1.7423614584565832,2.6083789308484966
0.024999999999999994,0.1,0.1,0.024999999999999967,-0.08000000000000002,0.1,90,90.0,-90.0,0.06644405443900951,-0.41380811666590195,-1.4755887544317485,-0.32693166646379335,1.4693579931647875,-1.972316301214338,2.888270789978364
0.024999999999999994,-0.1,0.1,0.024999999999999967,0.08000000000000002,0.1,-90,90.0,-90.0,0.07094916396420896,-2.7600111637291547,1.4531562897986559,0.3842302633602227,-1.465228045352527,1.9389851356323784,3.4270102215640996
0.024999999999999994,-0.1,0.1,-0.021587428118453725,0.0738666487320323,0.09999999999999999,-75,90.0,-90.0,0.10424795862643546,-2.7130682430649675,1.2917749637378546,0.8315057456072644,-1.4827071097108984,1.7122624900045242,3.699383118339904
0.024999999999999994,-0.1,0.1,-0.06500000000000002,0.055884572681198924,0.09999999999999999,-60,90.0,-90.0,0.12626128525028157,0.48799074793608005,-1.1964612302836781,-1.1811156072816738,1.545707543781761,1.5453994684015866,-2.333582180444031
0.024999999999999994,-0.1,0.1,-0.10227922061357855,0.027279220613578542,0.09999999999999999,-45,90.0,-90.0,0.1341354347980109,0.5318352633032478,-1.1643563483024137,-1.4834980161142794,1.3458676576655029,1.4505851074684881,-2.0502241170227946
0.024999999999999994,-0.1,0.1,-0.130884572681199,-0.010000000000000009,0.09999999999999999,-30,90.0,-90.0,0.1196614985788686,0.5494300394394656,-1.213674219614566,-1.757508768499783,1.0787697563117484,1.4898599654126834,-1.7199312341470718
0.024999999999999994,-0.1,0.1,-0.1488666487320323,-0.05341257188154627,0.09999999999999996,-15,90.0,-90.0,0.10831938343031854,0.48331653402829183,-1.3400370544011517,-2.0021768402645805,0.7546455755801119,1.7184104269182063,-1.4328964530619996
0.024999999999999994,-0.1,0.1,-0.155,-0.1,0.1,0,90.0,-90.0,0.08266007279582914,0.264889686196757,-1.4253006490628617,-2.221426402603557,0.3014032205675305,2.055689862321292,-1.426364495032196
0.024999999999999994,-0.1,0.1,-0.1488666487320323,-0.1465874281184537,0.09999999999999995,15,90.0,-90.0,0.060216178907288836,-0.1862804745855243,-1.2824267614314158,-2.437068417429963,-0.5206721514846513,2.0850999802782435,-1.8450215239019692
0.024999999999999994,-0.1,0.1,-0.130884572681199,-0.19,0.1,30,90.0,-90.0,0.09611981544875145,-0.6045154007429082,-1.1787966439445308,-2.335398330980277,-1.1542940279526517,1.7277934771835575,-1.9095418856770743
0.024999999999999994,-0.1,0.1,-0.10227922061357855,-0.22727922061357853,0.09999999999999994,45,90.0,-90.0,0.11794482918151608,-0.8037391244783652,-1.216182602398972,-2.0578878473745963,-1.5896625124736088,1.5673028429009803,-1.7026598563668995
0.024999999999999994,-0.1,0.1,-0.065,-0.25588457268119896,0.09999999999999999,60,90.0,-90.0,0.09720925965748874,-0.8666041074997778,-1.3339162659390005,-1.6594938587328367,-1.9093763685336722,1.6203705263730552,-1.431727745830589
0.024999999999999994,-0.1,0.1,-0.02158742811845374,-0.27386664873203226,0.09999999999999999,75,90.0,-90.0,0.05969805479224639,-0.8424054051440211,-1.537085211675796,-1.1022305030700137,-2.0928288026751214,1.8391622432139325,-1.1398366701062526
-0.02500000000000001,0.05000000000000001,0.1,-0.025000000000000036,0.23000000000000004,0.1,-90,90.0,-90.0,0.060366137743808425,0.7201312494687296,-2.1488710455731637,1.1040164412675106,1.1557707972018496,2.1774500242058696,2.4832419170904743
-0.02500000000000001,0.05000000000000001,0.1,-0.07158742811845373,0.22386664873203233,0.09999999999999999,-75,90.0,-90.0,0.09400374457234041,-2.309099303227996,1.3644122878139138,1.554524548506094,2.130908058079221,-1.6901394312959912,1.3834190837071778
-0.02500000000000001,0.05000000000000001,0.1,-0.11500000000000002,0.20588457268119895,0.09999999999999999,-60,90.0,-90.0,0.11623615478019941,-2.2997071462034695,1.2378876228133635,1.9792055623157678,1.8891261762956182,-1.5474671582811417,1.6418555524987792
-0.02500000000000001,0.05000000000000001,0.1,-0.15227922061357857,0.17727922061357856,0.09999999999999999,-45,90.0,-90.0,0.10765814470784156,-2.39249083915108,1.1685536871536413,2.316243942287908,1.537260240146284,-1.5828677867510164,1.9145670914168764
-0.02500000000000001,0.05000000000000001,0.1,-0.180884572681199,0.14,0.09999999999999999,-30,90.0,-90.0,0.06987375495740629,-2.6607387181980697,1.1952976386468406,2.552435715447177,1.0887297384463788,-1.8815327559222692,2.0989420694531438
-0.02500000000000001,0.05000000000000001,0.1,-0.1988666487320323,0.09658742811845375,0.09999999999999996,-15,90.0,-90.0,0.03570219467513872,2.9428571340979905,1.504841077184251,2.483763166974408,0.09406123496195692,-2.4157243497637073,1.6410554280335936
-0.02500000000000001,0.05000000000000001,0.1,-0.1988666487320323,0.0034125718815462974,0.09999999999999995,15,90.0,-90.0,0.1040858875692919,2.414441685928741,1.3549095830185696,1.991914752378016,-0.9980885633310623,-1.6825231088288661,1.3976847372977226
-0.02500000000000001,0.05000000000000001,0.1,-0.180884572681199,-0.03999999999999999,0.1,30,90.0,-90.0,0.12334407281866265,2.4061326273604604,1.204851982167879,1.7523044300265587,-1.26325006491428,-1.5142176421369098,1.745562773398416
-0.02500000000000001,0.05000000000000001,0.1,-0.15227922061357857,-0.0772792206135785,0.09999999999999994,45,90.0,-90.0,0.13868098102490486,2.4544685791340957,1.1599371116846224,1.484550346342208,-1.4838806154811646,-1.5229308365407586,2.064938749267986
-0.02500000000000001,0.05000000000000001,0.1,-0.115,-0.10588457268119894,0.09999999999999999,60,90.0,-90.0,0.12732888064380174,2.516647402493625,1.1959915293090555,1.189710762696721,-1.6440768271430346,-1.6401093421389537,2.32365847285374
-0.02500000000000001,0.05000000000000001,0.1,-0.07158742811845374,-0.12386664873203226,0.09999999999999999,75,90.0,-90.0,0.10511780694040675,2.581649989264305,1.287865430484814,0.85290716517464,-1.734107822633936,-1.8206586943199865,2.550186991502036
-0.02500000000000001,0.05000000000000001,0.1,-0.025000000000000036,-0.13,0.1,90,90.0,-90.0,0.07442499032864336,2.6416725700321115,1.4333301069415518,0.44034267679200084,-1.7309010664170807,-2.0454489177449178,2.7998739657921417
0.049999999999999996,0.125,0.1,0.0034125718815462766,0.2988666487320323,0.09999999999999999,-75,90.0,-90.0,0.0485784453994297,0.6997282806395291,-1.5690041747223227,-0.09805472537226975,1.6165457400310113,2.0056429208658084,-3.0348758012333072
0.049999999999999996,0.125,0.1,-0.040000000000000015,0.28088457268119893,0.09999999999999999,-60,90.0,-90.0,0.09138831040687835,0.7351030533761196,-1.353009477322706,-0.6508805215623927,1.6605161867798033,1.763414736756265,-2.7006580417125203
0.049999999999999996,0.125,0.1,-0.07727922061357856,0.25227922061357855,0.09999999999999999,-45,90.0,-90.0,0.11786048205655465,0.7797943371907706,-1.2301226886331218,-1.0395863540953787,1.5670514014162518,1.5653525946203126,-2.441815637307627
0.049999999999999996,0.125,0.1,-0.105884572681199,0.215,0.09999999999999999,-30,90.0,-90.0,0.13161455366845853,0.8201789243441133,-1.1721035820378924,-1.3597247558911605,1.382772106849196,1.4416434055120986,-2.168155094552732
0.049999999999999996,0.125,0.1,-0.12386664873203229,0.17158742811845373,0.09999999999999996,-15,90.0,-90.0,0.12458858098360691,0.8417231786949028,-1.1874424889077835,-1.6461778950934538,1.121818983944645,1.434545235663601,-1.8473282705218572
0.049999999999999996,0.125,0.1,-0.13,0.125,0.1,0,90.0,-90.0,0.11211506425458466,0.7996103051114831,-1.2809242768844165,-1.90677524329156,0.7993034434898806,1.602715216905867,-1.536856678913511
0.049999999999999996,0.125,0.1,-0.12386664873203229,0.0784125718815463,0.09999999999999995,15,90.0,-90.0,0.10029351671635257,0.6245700619545482,-1.3746160397242648,-2.130991127258869,0.38672160190056926,1.9090088883723249,-1.4358829535279618
0.049999999999999996,0.125,0.1,-0.105884572681199,0.035,0.1,30,90.0,-90.0,0.0681685358974593,0.2639636665564192,-1.3088242639980516,-2.341203191935909,-0.29463436271575144,2.060900928823597,-1.7122595509165552
0.049999999999999996,0.125,0.1,-0.07727922061357856,-0.00227922061357852,0.09999999999999994,45,90.0,-90.0,0.09270402124884027,-0.16814897605233176,-1.1923943016975418,-2.3156213157708017,-0.9855580168369862,1.7803967754207495,-1.8730812769797531
0.049999999999999996,0.125,0.1,-0.04,-0.030884572681198957,0.09999999999999999,60,90.0,-90.0,0.11774920047382612,-0.40721639499800244,-1.2125651712442218,-2.0742269952748105,-1.454516682253332,1.5868712808878092,-1.7147406898297435
0.049999999999999996,0.125,0.1,0.0034125718815462627,-0.04886664873203228,0.09999999999999999,75,90.0,-90.0,0.09814464634774074,-0.5033384388505762,-1.3237002027334672,-1.6919976651135031,-1.8109204344382301,1.5999044774428657,-1.4481123048503284
0.049999999999999996,0.125,0.1,0.04999999999999997,-0.05500000000000002,0.1,90,90.0,-90.0,0.0604587195758081,-0.37736214555813175,-1.5071741413414521,-0.24785324492212246,1.4979528488683482,-1.94183156199248,2.9427124724661895
-0.02500000000000001,-0.1,0.1,-0.025000000000000036,0.08000000000000002,0.1,-90,90.0,-90.0,0.08740572271158642,-2.7482842546084507,1.3694818314001205,0.6096748732416043,-1.406623782533615,1.929620284461888,3.5796610002211664
-0.02500000000000001,-0.1,0.1,-0.07158742811845373,0.0738666487320323,0.09999999999999999,-75,90.0,-90.0,0.11466531051225556,-2.687629471549049,1.2457637374825181,0.988431266489357,-1.451073537591825,1.7218097607290839,-2.4682709155686604
-0.02500000000000001,-0.1,0.1,-0.11500000000000002,0.055884572681198924,0.09999999999999999,-60,90.0,-90.0,0.13339942587482606,-2.6267639905738966,1.1739120767701883,1.3080862098564285,-1.5776218748246953,1.5644731900785427,-2.2295782417155956
-0.02500000000000001,-0.1,0.1,-0.15227922061357857,0.027279220613578542,0.09999999999999999,-45,90.0,-90.0,0.13496772154632347,-2.5727791710755334,1.1670114088059553,1.5912204271722077,-1.7712784200046443,1.490053335939146,-1.9469175761385116
-0.02500000000000001,-0.1,0.1,-0.180884572681199,-0.010000000000000009,0.09999999999999999,-30,90.0,-90.0,0.1142085891044425,-2.5469402742538327,1.2517954065810308,1.8506301010953,-2.0222610796677776,1.5539380696488057,-1.6054640998419127
-0.02500000000000001,-0.1,0.1,-0.1988666487320323,-0.05341257188154627,0.09999999999999996,-15,90.0,-90.0,0.1019198414959239,-2.61767632589155,1.4250637545509715,2.0777332758164464,-2.322650894595863,1.8223109896903602,-1.3092465689628179
-0.02500000000000001,-0.1,0.1,-0.20500000000000002,-0.1,0.1,0,90.0,-90.0,0.0673186208474402,-2.861639234138362,1.5401186527429376,2.291772618860191,-2.783477807107202,2.230007312951492,-1.3460220842209785
-0.02500000000000001,-0.1,0.1,-0.1988666487320323,-0.1465874281184537,0.09999999999999995,15,90.0,-90.0,0.12203526119096184,2.1789653662685335,1.208552617959683,1.761086943455448,-1.2284817833965735,-1.5119928011085664,1.7328986923636227
-0.02500000000000001,-0.1,0.1,-0.180884572681199,-0.19,0.1,30,90.0,-90.0,0.13816987857468271,2.2221843935474803,1.161195240662379,1.4920863528242994,-1.4576207026165544,-1.5113611957523112,2.0566459012947393
-0.02500000000000001,-0.1,0.1,-0.15227922061357857,-0.22727922061357853,0.09999999999999994,45,90.0,-90.0,0.12779395287706607,2.2814318762964625,1.1934985871518953,1.1981152804621797,-1.6253784672886948,-1.6205412995499968,2.31838962972858
-0.02500000000000001,-0.1,0.1,-0.115,-0.25588457268119896,0.09999999999999999,60,90.0,-90.0,0.10581353754353175,2.3437431849771406,1.2846452167657896,0.8605964685363235,-1.7215285023965674,-1.799700165780811,2.549546179351068
-0.02500000000000001,-0.1,0.1,-0.07158742811845374,-0.27386664873203226,0.09999999999999999,75,90.0,-90.0,0.07500382384521764,2.4024581022594984,1.4306678539317446,0.44554077462521197,-1.7251765080602488,-2.0234420607330974,2.800798179821533
-0.02500000000000001,-0.1,0.1,-0.025000000000000036,-0.28,0.1,90,90.0,-90.0,0.014782753649832803,2.418931444495622,1.7427016702623122,-0.29452953483636013,-1.4645667032013525,-2.286717674475964,3.30407889970161
-0.07500000000000001,0.07500000000000001,0.1,-0.07500000000000004,0.255,0.1,-90,90.0,-90.0,0.0699187335499766,0.8684908335051902,-1.5060988638331987,-1.1281519857577447,-0.769833670887629,-1.9499377551551125,1.2264945126553706
-0.07500000000000001,0.07500000000000001,0.1,-0.12158742811845373,0.24886664873203232,0.09999999999999999,-75,90.0,-90.0,0.09999890871985968,0.9544483429873353,-1.342577203462379,-1.6088794325286273,-0.8873959135394442,-1.6922454822815647,1.4246109148792159
-0.07500000000000001,0.07500000000000001,0.1,-0.16500000000000004,0.23088457268119894,0.09999999999999999,-60,90.0,-90.0,0.11893595345837102,0.9988139222661714,-1.230604142517249,-2.013796979309056,-1.0981200592434202,-1.5228633184361813,1.6620874552314402
-0.07500000000000001,0.07500000000000001,0.1,-0.20227922061357856,0.20227922061357856,0.09999999999999999,-45,90.0,-90.0,0.10697296192790988,0.9594067700878878,-1.1664851587072678,-2.354089039242418,-1.4081807260374555,-1.5064082661742546,1.9443922826693412
-0.07500000000000001,0.07500000000000001,0.1,-0.230884572681199,0.165,0.09999999999999999,-30,90.0,-90.0,0.07238807082459248,0.7712725294017746,-1.1796698674588595,-2.6161648212956914,-1.792092006963486,-1.7366982481976538,2.206523263401627
-0.07500000000000001,0.07500000000000001,0.1,-0.2488666487320323,0.12158742811845374,0.09999999999999996,-15,90.0,-90.0,0.019891438349493973,0.2022989823676147,-1.4016093131580012,-2.76210320290114,-2.3757641575512443,-2.438576942259865,2.2033236541473458
-0.07500000000000001,0.07500000000000001,0.1,-0.230884572681199,-0.014999999999999986,0.1,30,90.0,-90.0,0.034851869606825424,2.975851005785567,1.3191261274486639,2.7588750473564723,2.192864085556283,2.2418047514586603,-2.283465430189038
-0.07500000000000001,0.07500000000000001,0.1,-0.20227922061357856,-0.05227922061357851,0.09999999999999994,45,90.0,-90.0,0.07859187233523907,2.540038544799074,1.1694043657266593,2.5766217422149675,1.722601851339522,1.674284135774781,-2.1665144073747444
-0.07500000000000001,0.07500000000000001,0.1,-0.165,-0.08088457268119895,0.09999999999999999,60,90.0,-90.0,0.11259748083777334,2.3837152633730136,1.1730531796875259,2.300693106130057,1.3488718664271258,1.4940774650706785,-1.8935946930280716
-0.07500000000000001,0.07500000000000001,0.1,-0.12158742811845374,-0.09886664873203227,0.09999999999999999,75,90.0,-90.0,0.11630835485361533,2.362125385435311,1.2476356094886847,1.9463431037887955,1.0529516791107199,1.544515451817932,-1.6158321083037126
-0.07500000000000001,0.07500000000000001,0.1,-0.07500000000000004,-0.10500000000000001,0.1,90,90.0,-90.0,0.09576060938388935,2.4162167326430266,1.3661524161331073,1.532368863835877,0.8599515896840573,1.730372263785499,-1.3867082251191973
-0.1,-0.05,0.1,-0.10000000000000003,0.13,0.1,-90,90.0,-90.0,0.09827150540942978,0.4926370340614556,-1.313706860569499,-0.7870599950269677,1.8356235496636124,1.9904623649060453,3.7276184205977145
-0.1,-0.05,0.1,-0.1465874281184537,0.1238666487320323,0.09999999999999999,-75,90.0,-90.0,0.12123387548976014,0.5751685806986226,-1.2186129552958282,-1.1108885707317349,1.7905385042306237,1.7973937817726826,-2.3571280449138943
-0.1,-0.05,0.1,-0.19,0.10588457268119893,0.09999999999999999,-60,90.0,-90.0,0.13797456338738207,0.6599813695697488,-1.1649182163726453,-1.3999949885169405,1.6863904198489688,1.6450445045591744,-2.1422916182589073
-0.1,-0.05,0.1,-0.22727922061357855,0.07727922061357854,0.09999999999999999,-45,90.0,-90.0,0.13583607948376833,0.7439641837625383,-1.1742533317609858,-1.6636524829570785,1.5307335818900394,1.5572055893251986,-1.8738995388213717
-0.1,-0.05,0.1,-0.255884572681199,0.039999999999999994,0.09999999999999999,-30,90.0,-90.0,0.11000340373539648,0.8137227092184192,-1.2857800953907987,-1.9015561927862232,1.33782377339211,1.5808211281158973,-1.526864582877223
-0.1,-0.05,0.1,-0.27386664873203226,-0.09658742811845372,0.09999999999999995,15,90.0,-90.0,0.10665640148573016,-1.0285214506749443,-1.3106079814350873,-1.9315569834588089,1.8493166339122984,-1.5975415597752411,1.4737643572432155
-0.1,-0.05,0.1,-0.255884572681199,-0.14,0.1,30,90.0,-90.0,0.13269943170351614,-0.9667390324882298,-1.1820377342800383,-1.6964514870676721,1.6474260245249213,-1.5493683528907853,1.8326406565263464
-0.1,-0.05,0.1,-0.22727922061357855,-0.17727922061357854,0.09999999999999994,45,90.0,-90.0,0.1395376806756309,-0.886457053745337,-1.1618280710043287,-1.4381605766817032,1.484564191994349,-1.6218849452752946,2.1096556263189323
-0.1,-0.05,0.1,-0.19,-0.20588457268119897,0.09999999999999999,60,90.0,-90.0,0.12412925747089483,-0.8028587389485038,-1.2073059925005238,-1.1538858531972718,1.369741614797268,-1.765114651951674,2.3321200422041772
-0.1,-0.05,0.1,-0.14658742811845374,-0.22386664873203227,0.09999999999999999,75,90.0,-90.0,0.10186914130302842,-0.7202892586280675,-1.297412816755703,-0.8354802250230802,1.3132284530068763,-1.9538681334664179,2.529178456102785
-0.1,-0.05,0.1,-0.10000000000000003,-0.23000000000000004,0.1,90,90.0,-90.0,0.07339570476527167,-0.6448965735250074,-1.428813905038959,-0.45972970730511603,1.339466791333093,-2.178361073608276,2.7500751650381736
-0.02500000000000001,-0.125,0.1,-0.025000000000000036,0.05500000000000002,0.1,-90,90.0,-90.0,0.09068006436038782,0.3702661633841443,-1.355044741154278,-0.6515122408400505,1.7325345291200107,1.9055037670536312,3.6038167704297512
-0.02500000000000001,-0.125,0.1,-0.07158742811845373,0.04886664873203231,0.09999999999999999,-75,90.0,-90.0,0.11547449427899999,-2.6023415053736767,1.239694754358655,1.9700526650613106,1.847504930896891,-1.5515458985326362,1.6362503816065515
-0.02500000000000001,-0.125,0.1,-0.11500000000000002,0.03088457268119893,0.09999999999999999,-60,90.0,-90.0,0.10794125468132322,-2.7078807820133566,1.170770200774293,2.3028420077554776,1.4865091089534854,-1.600245836305527,1.900931122215911
-0.02500000000000001,-0.125,0.1,-0.15227922061357857,0.0022792206135785475,0.09999999999999999,-45,90.0,-90.0,0.0697491021193363,-2.9921409852511345,1.2003249434944885,2.528391579826615,1.0198194403978895,-1.9053659068092068,2.0630957622575354
-0.02500000000000001,-0.125,0.1,-0.180884572681199,-0.035,0.09999999999999999,-30,90.0,-90.0,0.1119083309422108,0.5628302480201203,-1.2684169980570477,-1.880729595261497,1.085626820531086,1.5734487118356895,-1.5634385031365683
-0.02500000000000001,-0.125,0.1,-0.1988666487320323,-0.07841257188154627,0.09999999999999996,-15,90.0,-90.0,0.10191119756117226,0.47478445578965855,-1.4443040146013224,-2.1002028419388967,0.7785518144325723,1.8644972256112498,-1.2914394063541181
-0.02500000000000001,-0.125,0.1,-0.20500000000000002,-0.125,0.1,0,90.0,-90.0,0.06170228268404463,0.20919035279351303,-1.531102983741959,-2.3222352655681506,0.27264170981887875,2.2637196576149905,-1.3938077341241708
-0.02500000000000001,-0.125,0.1,-0.1988666487320323,-0.1715874281184537,0.09999999999999995,15,90.0,-90.0,0.0535579437213494,-0.4070526539678106,-1.2576546887231352,-2.5678459750179914,-0.7949773625186669,2.090563997125501,-2.0387737648183704
-0.02500000000000001,-0.125,0.1,-0.180884572681199,-0.215,0.1,30,90.0,-90.0,0.09549029441889831,-0.7932957068828352,-1.165991544961427,-2.394935050902137,-1.3372775715254779,1.673539899383314,-1.9778927574813785
-0.02500000000000001,-0.125,0.1,-0.15227922061357857,-0.25227922061357855,0.09999999999999994,45,90.0,-90.0,0.11980786726277683,-0.9505462380705956,-1.207812867574225,-2.0964119315600356,-1.7335575990002448,1.54380974390009,-1.7310621637457237
-0.02500000000000001,-0.125,0.1,-0.115,-0.28088457268119893,0.09999999999999999,60,90.0,-90.0,0.10153489380518177,-0.9808337956505191,-1.3187739730691537,-1.6990787533496674,-2.025226214613803,1.6244586058562829,-1.4588304239085008
-0.02500000000000001,-0.125,0.1,-0.07158742811845374,-0.2988666487320323,0.09999999999999999,75,90.0,-90.0,0.06940012992176774,-0.9363055993415815,-1.4950421562454743,-1.1906565222639713,-2.194529206829473,1.848697175996966,-1.2054616728857157
-6.938893903907228e-18,-0.05,0.1,-3.520055816021518e-17,0.13,0.1,-90,90.0,-90.0,0.07101135461877299,0.460732537149386,-1.4519660943620942,-0.3892955139937098,1.7025745889645334,2.0125630506333163,-2.840745896432591
-6.938893903907228e-18,-0.05,0.1,-0.046587428118453726,0.1238666487320323,0.09999999999999999,-75,90.0,-90.0,0.10350812053367762,0.5146544809546465,-1.2955286319676842,-0.8245905526582875,1.7039461729654517,1.7853043623478049,-2.5772657754194848
-6.938893903907228e-18,-0.05,0.1,-0.09000000000000002,0.10588457268119893,0.09999999999999999,-60,90.0,-90.0,0.12613790608866982,0.5723962752088775,-1.1995071677365627,-1.1702899016919388,1.605502724799055,1.6050942279619478,-2.342831249478886
-6.938893903907228e-18,-0.05,0.1,-0.12727922061357855,0.07727922061357854,0.09999999999999999,-45,90.0,-90.0,0.13695505910978314,0.6264230089616449,-1.1613573404048312,-1.4712934451343616,1.4312060312169659,1.4924114594256084,-2.074844525256333
-6.938893903907228e-18,-0.05,0.1,-0.15588457268119899,0.039999999999999994,0.09999999999999999,-30,90.0,-90.0,0.04953081280149238,-0.009652327365965217,-1.289880050916179,-2.5337137557993525,-2.5123771429118875,-2.150694075791941,1.9509722163732004
-6.938893903907228e-18,-0.05,0.1,-0.17386664873203228,-0.0034125718815462697,0.09999999999999996,-15,90.0,-90.0,0.07442081311896367,2.5724099190893392,1.4989254433556995,2.2581806256178827,-0.37196040389626644,-2.1533379872504477,1.3593150255321116
-6.938893903907228e-18,-0.05,0.1,-0.18,-0.05,0.1,0,90.0,-90.0,0.10437701259489812,2.346853616148283,1.387365476891588,2.0451496406801257,-0.8166456015261917,-1.7727385713711774,1.3596126205824497
-6.938893903907228e-18,-0.05,0.1,-0.17386664873203228,-0.09658742811845372,0.09999999999999995,15,90.0,-90.0,0.11710814563304775,2.285323762851297,1.232206819858824,1.811122952622551,-1.1207433784425063,-1.5277546778384945,1.658512633754265
-6.938893903907228e-18,-0.05,0.1,-0.15588457268119899,-0.14,0.1,30,90.0,-90.0,0.13567581940420653,2.311143169367103,1.1637221857041908,1.545788148753146,-1.3737142423194677,-1.4798371660912786,1.9936149201995075
-6.938893903907228e-18,-0.05,0.1,-0.12727922061357855,-0.17727922061357854,0.09999999999999994,45,90.0,-90.0,0.1305692497405013,2.3622939047974167,1.1836054004468002,1.253546892597659,-1.5657102330159862,-1.5677819372737825,2.274831246709739
-6.938893903907228e-18,-0.05,0.1,-0.09,-0.20588457268119897,0.09999999999999999,60,90.0,-90.0,0.11032374548424101,2.419984936145121,1.2649127222814915,0.9218964840036056,-1.686045860380855,-1.733056216886147,2.5168924012940916
-6.938893903907228e-18,-0.05,0.1,-0.04658742811845374,-0.22386664873203227,0.09999999999999999,75,90.0,-90.0,0.08102153737179052,2.476173750333108,1.4020302021133764,0.5201578375784557,-1.7171589993350898,-1.947241825395159,2.7612440538695537
-6.938893903907228e-18,-0.05,0.1,-3.5200558160215184e-17,-0.23000000000000004,0.1,90,90.0,-90.0,0.03088352671062681,2.5069437679585658,1.6592235454844808,-0.11102164369788,-1.5552801995137457,-2.2045137624628017,3.1694597758563186
-6.938893903907228e-18,-0.02500000000000001,0.1,-3.520055816021518e-17,0.15500000000000003,0.1,-90,90.0,-90.0,0.06550220564120023,0.4931217601444827,-1.4796649911096984,-0.3186823631635466,1.691508772112799,2.051044046954426,3.3982816349954255
-6.938893903907228e-18,-0.02500000000000001,0.1,-0.046587428118453726,0.14886664873203231,0.09999999999999999,-75,90.0,-90.0,0.09982422817479737,0.5454075166367356,-1.3123564429964032,-0.7736631885171035,1.7130540983703917,1.8164223126505064,3.6737065218865332
