fryumbla/Robot-Manipulability/jupyter/indyrobot_manip_2021-03-26_19-15-18.csv
TCP x,TCP y,TCP z,eef x,eef y,eef z,Cr(rzyz),Pitch(rzyz),Roll(rzyz),Manipulability,joint0,joint1,joint2,joint3,joint4,joint5
0,0,0.1,-0.05176380902050414,0.1931851652578137,0.09999999999999998,-75,90.0,-90.0,0.07744484305821794,0.5897700867506473,-1.4189710912855742,-0.47308901926319824,1.6768676596572718,1.881058880750156,-2.803666458911976
0,0,0.1,-0.10000000000000003,0.17320508075688773,0.09999999999999998,-60,90.0,-90.0,0.10924655330994293,0.6377973579776255,-1.2656710218876561,-0.9162731086616719,1.6356466594444306,1.6647521302524135,-2.526481169104867
0,0,0.1,-0.14142135623730953,0.14142135623730953,0.09999999999999998,-45,90.0,-90.0,0.12917512569228715,0.6858511454698428,-1.1810529200263047,-1.268377316261119,1.4942218473379885,1.5068112152337598,-2.2608733229176017
0,0,0.1,-0.17320508075688779,0.1,0.09999999999999998,-30,90.0,-90.0,0.13011481116848142,0.7231010604116083,-1.1698863422901467,-1.573998521804875,1.2711307426591674,1.4465952045063832,-1.9507198796389094
0,0,0.1,-0.19318516525781368,0.05176380902050415,0.09999999999999996,-15,90.0,-90.0,0.11271698986978898,0.7187643878019329,-1.2531771408384302,-1.8506098950685046,0.9814373777854094,1.5497400497910454,-1.601428583074932
0,0,0.1,-0.2,0.0,0.1,0,90.0,-90.0,0.10589805342930425,0.5940834077543563,-1.3938103727119782,-2.088407205442201,0.6226352994521577,1.8511857772077953,-1.3740879459221695
0,0,0.1,-0.19318516525781365,-0.05176380902050413,0.09999999999999994,15,90.0,-90.0,0.06350626684940003,0.2841422688968003,-1.409459980019562,-2.326250368000305,0.028147433831626358,2.1641606023931086,-1.5557025822239756
0,0,0.1,-0.17320508075688779,-0.1,0.1,30,90.0,-90.0,0.0732484601158578,-0.2522732609187072,-1.2138193301546494,-2.4312519950435187,-0.8431588447833469,1.9229429797561093,-1.938771454326636
0,0,0.1,-0.1414213562373095,-0.14142135623730948,0.09999999999999992,45,90.0,-90.0,0.11150336826525858,-0.5674887642306399,-1.1841011039701261,-2.222068824493009,-1.3610139806532926,1.6267325277282445,-1.8288817322695068
0,0,0.1,-0.1,-0.17320508075688776,0.09999999999999999,60,90.0,-90.0,0.10829837098100584,-0.6979635988985367,-1.2670071595090533,-1.871387664201366,-1.7458241370071037,1.5708105724725185,-1.566795035544107
0,0,0.1,-0.05176380902050415,-0.19318516525781368,0.09999999999999999,75,90.0,-90.0,0.07743540667273496,-0.5807613990419893,-1.418508447856775,-0.4738626078222563,1.4671916755742964,-1.872398815761508,2.804184761552469
0.0,-0.05,0.1,-3.140184917367551e-17,0.15000000000000008,0.1,-90,90.0,-90.0,0.037472195063511494,-2.6536696728780234,1.6250557669698789,-0.03295354447967664,-1.558395787835077,2.0580824110405183,-3.1165568141082787
0.0,-0.05,0.1,-0.05176380902050414,0.14318516525781372,0.09999999999999998,-75,90.0,-90.0,0.08703293688925971,-2.621424508018254,1.3704520944441843,0.6022664570121776,-1.4670276907768878,1.8077544567474988,-2.7263187285224624
0.0,-0.05,0.1,-0.10000000000000003,0.12320508075688773,0.09999999999999998,-60,90.0,-90.0,0.11549854636218414,-2.5735990168051184,1.2367233289187884,1.0137808392018723,-1.5417139910485702,1.6052578314032744,-2.4604491177717023
0.0,-0.05,0.1,-0.14142135623730953,0.09142135623730953,0.09999999999999998,-45,90.0,-90.0,0.131668846417439,-2.5282973416890355,1.1707303444870796,1.3512550444826432,-1.7113782058235751,1.470484286754927,-2.1827230874652463
0.0,-0.05,0.1,-0.17320508075688779,0.05,0.09999999999999998,-30,90.0,-90.0,0.12518701371859275,-2.499873541557646,1.1828753075299083,1.6487071587593425,-1.958542372015681,1.4494399995454308,-1.8561412091920453
0.0,-0.05,0.1,-0.19318516525781368,0.0017638090205041451,0.09999999999999996,-15,90.0,-90.0,0.10940086171981508,-2.5321872675666945,1.2883714713990464,1.9169403811198347,-2.2686625097709308,1.6117873578216833,-1.5226220546877995
0.0,-0.05,0.1,-0.2,-0.05,0.1,0,90.0,-90.0,0.09623565010059465,-2.707541004636916,1.4125562844322046,2.1496825142048124,-2.671610631646379,1.9493720351314887,-1.3842633816773835
0.0,-0.05,0.1,-0.19318516525781365,-0.10176380902050414,0.09999999999999994,15,90.0,-90.0,0.11701162798097989,-0.7821123973275549,-1.22139010836078,-1.775080322006116,2.093565823822254,-1.498900844527955,1.6956767304746856
0.0,-0.05,0.1,-0.17320508075688779,-0.15000000000000002,0.1,30,90.0,-90.0,0.13234486978589713,-0.7726289163602865,-1.165805930503844,-1.4896453287402556,1.8152458918841687,-1.4444385854274062,2.041030381694417
0.0,-0.05,0.1,-0.1414213562373095,-0.1914213562373095,0.09999999999999992,45,90.0,-90.0,0.12466187815951382,-0.7322294155550002,-1.1981794283250136,-1.1738202324530862,1.6084297788234594,-1.5336009030565305,2.3389681432385587
0.0,-0.05,0.1,-0.1,-0.22320508075688777,0.09999999999999999,60,90.0,-90.0,0.10151605780423571,-0.6847829417361042,-1.3008713002136425,-0.8033773118875964,1.488635570743068,-1.708574071004216,2.601919868882261
0.0,-0.05,0.1,-0.05176380902050415,-0.2431851652578137,0.09999999999999999,75,90.0,-90.0,0.06489999688855355,-0.64014614020692,-1.4819441535072022,-0.31028854560358793,1.4825297045708898,-1.94017554471503,2.902485178863516
0.0,-0.1,0.1,-0.05176380902050414,0.0931851652578137,0.09999999999999998,-75,90.0,-90.0,0.09464519214380103,0.46812684155802686,-1.3337124978076955,-0.7058776869891475,1.6655193024353754,1.7546699709115572,-2.663724893324705
0.0,-0.1,0.1,-0.10000000000000003,0.07320508075688772,0.09999999999999998,-60,90.0,-90.0,0.12046411559651451,0.5160193860410077,-1.2155172341392804,-1.0974017287748232,1.565639465499262,1.5644308746619322,-2.40008631455429
0.0,-0.1,0.1,-0.14142135623730953,0.041421356237309526,0.09999999999999998,-45,90.0,-90.0,0.13263906729197364,0.5587031464833438,-1.1665177301821568,-1.422973933051184,1.3767331415367803,1.4534521033040693,-2.11101220032154
0.0,-0.1,0.1,-0.17320508075688779,0.0,0.09999999999999998,-30,90.0,-90.0,0.12085919394376154,0.577899566167887,-1.19962830608923,-1.7146063462821772,1.1128860451557183,1.4681373836652638,-1.7752343865291311
0.0,-0.1,0.1,-0.19318516525781368,-0.04823619097949586,0.09999999999999996,-15,90.0,-90.0,0.10786715268202121,0.5186337182063743,-1.3216275639196384,-1.9743220208836618,0.7865637853829424,1.6798309988077071,-1.4607588078551421
0.0,-0.1,0.1,-0.2,-0.1,0.1,0,90.0,-90.0,0.0854018414552915,0.30092196905046414,-1.419321681351154,-2.200830448077046,0.3357931999060796,2.0262583671066317,-1.4178058613998998
0.0,-0.1,0.1,-0.19318516525781365,-0.15176380902050413,0.09999999999999994,15,90.0,-90.0,0.060184816036929045,-0.14798223674891145,-1.288655614288948,-2.420956203349798,-0.4755275913461499,2.086291735178075,-1.8205430072073425
0.0,-0.1,0.1,-0.17320508075688779,-0.2,0.1,30,90.0,-90.0,0.0962169825626299,-0.582610017533396,-1.1814561627748306,-2.321033899669661,-1.1330662610623945,1.7302309250027779,-1.8971631521010675
0.0,-0.1,0.1,-0.1414213562373095,-0.24142135623730948,0.09999999999999992,45,90.0,-90.0,0.11580060460871437,-0.7859809660171655,-1.2233141419838849,-2.031038155798741,-1.5710036827089369,1.5712398383531165,-1.6827407362562523
0.0,-0.1,0.1,-0.1,-0.27320508075688776,0.09999999999999999,60,90.0,-90.0,0.09244110602222709,-0.8494277719494484,-1.3531678571658603,-1.604251540257315,-1.8911117436863158,1.6299576440656698,-1.3952510973135632
0.0,-0.1,0.1,-0.05176380902050415,-0.2931851652578137,0.09999999999999999,75,90.0,-90.0,0.04727609120135241,-0.82104677937175,-1.595870993305377,-0.9649414303049326,-2.053271947020938,1.866103140098688,-1.0623258315204136
0.05,-0.1,0.1,-0.0017638090205041382,0.0931851652578137,0.09999999999999998,-75,90.0,-90.0,0.08040314414839209,0.44492570992954755,-1.4038214040097614,-0.5107670195125218,1.6323787860423886,1.742661666351725,-2.7922391990907696
0.05,-0.1,0.1,-0.05000000000000003,0.07320508075688772,0.09999999999999998,-60,90.0,-90.0,0.11107550570241005,0.48134621193024585,-1.2542609765758483,-0.9534590794193457,1.5447755720213483,1.5369487457857265,-2.5034479250303834
0.05,-0.1,0.1,-0.09142135623730953,0.041421356237309526,0.09999999999999998,-45,90.0,-90.0,0.12661555201974503,0.5125748423702738,-1.1802382481338085,-1.3015546662662676,1.354448804649276,1.4047634253735888,-2.211765673271222
0.05,-0.1,0.1,-0.12320508075688778,0.0,0.09999999999999998,-30,90.0,-90.0,0.12172119534713668,0.5233640448998969,-1.1858681850839137,-1.6074071290206677,1.0725379162000805,1.3986199249077162,-1.8743439034907237
0.05,-0.1,0.1,-0.14318516525781366,-0.04823619097949586,0.09999999999999996,-15,90.0,-90.0,0.11218229733969863,0.46246903001037665,-1.2672506684756202,-1.8804661885139218,0.7244699484493452,1.5744177463401232,-1.5660393345538082
0.05,-0.1,0.1,-0.15000000000000002,-0.1,0.1,0,90.0,-90.0,0.101219788199475,0.26117267880831646,-1.3373797397860585,-2.109795513986423,0.27372842362770955,1.8650264650326347,-1.4886160154089463
0.05,-0.1,0.1,-0.14318516525781366,-0.15176380902050413,0.09999999999999994,15,90.0,-90.0,0.07904385526340316,-0.1115299943551667,-1.2657786181053816,-2.278770768982212,-0.40231459429915906,1.9443636541605394,-1.72590201602477
0.05,-0.1,0.1,-0.12320508075688778,-0.2,0.1,30,90.0,-90.0,0.10510807652694099,-0.49098915519161357,-1.198909993598527,-2.1980239067276797,-1.0285216621736468,1.7037907256071123,-1.7881166824039152
0.05,-0.1,0.1,-0.0914213562373095,-0.24142135623730948,0.09999999999999992,45,90.0,-90.0,0.10906304616716674,-0.7010779215525641,-1.2552705936573876,-1.9113211550938176,-1.485496198672969,1.5720447493581557,-1.595827762064555
0.05,-0.1,0.1,-0.05,-0.27320508075688776,0.09999999999999999,60,90.0,-90.0,0.08010283934193127,-0.777971228368632,-1.4110444775522433,-1.4482706360152964,-1.8159129767481583,1.6417031380545826,-1.2980828793081842
0.05,0.05,0.1,-0.0017638090205041382,0.2431851652578137,0.09999999999999998,-75,90.0,-90.0,0.042218760044505185,-2.5232449950999825,1.6010100816995634,0.023419989833295747,-1.551446722946845,1.9267009728663982,-3.0837788632239693
0.05,0.05,0.1,-0.05000000000000003,0.22320508075688772,0.09999999999999998,-60,90.0,-90.0,0.09049775964592334,-2.495242451818363,1.3527466511224353,0.6487035932696797,-1.5189735037237486,1.681262131590251,-2.7080887980387285
0.05,0.05,0.1,-0.09142135623730953,0.19142135623730955,0.09999999999999998,-45,90.0,-90.0,0.11705563292036335,-2.458793443328117,1.2261916692360832,1.056127453013757,-1.6377973413541562,1.492141937074736,-2.4270176187653036
0.05,0.05,0.1,-0.12320508075688778,0.15000000000000002,0.09999999999999998,-30,90.0,-90.0,0.12762685204300656,-2.4297415490505774,1.1742144250513644,1.388294393795935,-1.8556550757364139,1.390137716230095,-2.1230114639317574
0.05,0.05,0.1,-0.14318516525781366,0.10176380902050415,0.09999999999999996,-15,90.0,-90.0,0.11824315107156469,-2.4318842826540235,1.2016347387505157,1.6858514756927612,-2.155256278321606,1.4275134418306967,-1.781941422961838
0.05,0.05,0.1,-0.15000000000000002,0.05,0.1,0,90.0,-90.0,0.11086976848105608,-2.5246074543907566,1.2949487326374687,1.9484271448150443,-2.521657711331477,1.6527735713801284,-1.5124495790457049
0.05,0.05,0.1,-0.14318516525781366,-0.0017638090205041243,0.09999999999999994,15,90.0,-90.0,0.09001158821725645,-2.771660824746604,1.337905664677347,2.172524959290651,-3.025206747593097,1.9373365860871112,-1.5283354821235684
0.05,0.05,0.1,-0.12320508075688778,-0.05,0.1,30,90.0,-90.0,0.08066468840951713,-0.019229267192876504,-1.2396081228499287,-2.2996470378093106,-0.5791649811276837,1.9097692127990216,-1.7843232591145628
0.05,0.05,0.1,-0.0914213562373095,-0.09142135623730947,0.09999999999999992,45,90.0,-90.0,0.11155891927279803,-0.3634982442784269,-1.2002036174518793,-2.157875377889988,-1.1570263602066393,1.65822712894765,-1.7680693614526002
0.05,0.05,0.1,-0.05,-0.12320508075688776,0.09999999999999999,60,90.0,-90.0,0.10468472393872645,-0.5375149696867868,-1.2790315184731238,-1.8321784252734499,-1.584522226614256,1.570448197819414,-1.539625681899206
0.05,0.05,0.1,-0.0017638090205041451,-0.14318516525781366,0.09999999999999999,75,90.0,-90.0,0.0713639923572959,-0.4960848781246094,-1.44917047157817,-0.3921167439405954,1.5064593709832343,-1.7963825057552605,-3.4192309527882014
0.0,0.05,0.1,-0.05176380902050414,0.2431851652578137,0.09999999999999998,-75,90.0,-90.0,0.06506788994629445,0.6489536675795214,-1.4815837954563102,-0.31127522633365434,1.6613088392914626,1.9476467097940346,3.380321058642459
0.0,0.05,0.1,-0.10000000000000003,0.22320508075688772,0.09999999999999998,-60,90.0,-90.0,0.10152385847083376,0.6940651160127186,-1.3005413822016785,-0.8033011263477843,1.6582720164410665,1.7162262559284165,3.6812096058358463
0.0,0.05,0.1,-0.14142135623730953,0.19142135623730955,0.09999999999999998,-45,90.0,-90.0,0.12472260479335535,0.7426881904708881,-1.1981527949229709,-1.1737475944017703,1.5409092477989244,1.5410407293760533,-2.339595580629949
0.0,0.05,0.1,-0.17320508075688779,0.15000000000000002,0.09999999999999998,-30,90.0,-90.0,0.13268130127104003,0.7844833654043942,-1.1646200611577358,-1.4905872940755154,1.3374812903776248,1.448310300811794,-2.0439068025722245
0.0,0.05,0.1,-0.19318516525781368,0.10176380902050415,0.09999999999999996,-15,90.0,-90.0,0.11719502095919367,0.7963258765815349,-1.219481215810154,-1.7752745937063514,1.0634385744935968,1.4981246219709385,-1.6996864228999333
0.0,0.05,0.1,-0.2,0.05,0.1,0,90.0,-90.0,0.10643583106156937,0.7136080576978956,-1.35471151442092,-2.0251490954315634,0.7287078511354378,1.7496837764102147,-1.4121441998045188
0.0,0.05,0.1,-0.19318516525781365,-0.0017638090205041243,0.09999999999999994,15,90.0,-90.0,0.07551357004898476,0.4597035637997687,-1.4279256677105423,-2.253216277487021,0.22920565335794588,2.0982699321379363,-1.4530089545023395
0.0,0.05,0.1,-0.17320508075688779,-0.05,0.1,30,90.0,-90.0,0.0634127468270931,-0.04241583307828346,-1.2539617849478695,-2.4432921859976635,-0.6427511003010541,2.032102468634274,-1.8928162482373592
0.0,0.05,0.1,-0.1414213562373095,-0.09142135623730947,0.09999999999999992,45,90.0,-90.0,0.10230419309100451,-0.4300434024953925,-1.1789819784270281,-2.290555475342437,-1.2338698183938044,1.6830940960645755,-1.879513690898623
0.0,0.05,0.1,-0.1,-0.12320508075688776,0.09999999999999999,60,90.0,-90.0,0.11353188697981778,-0.6020142048101428,-1.237470817568923,-1.9754109278902572,-1.6496942739031986,1.564278998001411,-1.6410071987879866
0.0,0.05,0.1,-0.05176380902050415,-0.14318516525781366,0.09999999999999999,75,90.0,-90.0,0.08779393494236276,-0.6437655342633581,-1.3798414175677847,-1.5262890773154139,-1.942699898102669,1.6583235886965961,-1.3523584597768978
0.0,0.05,0.1,-3.140184917367551e-17,-0.15000000000000008,0.1,90,90.0,-90.0,0.03886325998107336,-0.548023318591212,-2.034830125554973,0.8978948588833054,1.8226249420209533,-2.0635296582435707,-2.643184839739411
0.05,-0.15000000000000002,0.1,-0.0017638090205041382,0.043185165257813685,0.09999999999999998,-75,90.0,-90.0,0.08724297492900208,-2.7126928903590906,1.3703423897285771,1.5600280249901912,1.7344355329842005,-1.60484060023063,1.3627781498480807
0.05,-0.15000000000000002,0.1,-0.05000000000000003,0.023205080756887708,0.09999999999999998,-60,90.0,-90.0,0.11237556607804933,-2.8206845001162444,1.2369023379875708,1.978658515702044,1.3679452280061262,-1.584987507911215,1.6439117735848865
0.05,-0.15000000000000002,0.1,-0.09142135623730953,-0.008578643762690491,0.09999999999999998,-45,90.0,-90.0,0.12646981303601393,0.4449146846110447,-1.1766225653927256,-1.3614195020217061,1.2868010413587998,1.3806448519834023,-2.1471729553229344
0.05,-0.15000000000000002,0.1,-0.12320508075688778,-0.05000000000000002,0.09999999999999998,-30,90.0,-90.0,0.1186757928244681,0.44283184897558825,-1.1992854552928063,-1.6612247955947417,0.9841892370108144,1.4131448700436375,-1.8046404204975424
0.05,-0.15000000000000002,0.1,-0.14318516525781366,-0.09823619097949587,0.09999999999999996,-15,90.0,-90.0,0.11204089632357196,0.35245273597715754,-1.2841964604025937,-1.9250457677473816,0.6161166966484481,1.6257074148306845,-1.5315810737863638
0.05,-0.15000000000000002,0.1,-0.15000000000000002,-0.15000000000000002,0.1,0,90.0,-90.0,0.09457603597321558,0.1130975498732653,-1.3250216396926513,-2.1445197102376476,0.1200295990825174,1.8957727628129744,-1.532752007749707
0.05,-0.15000000000000002,0.1,-0.14318516525781366,-0.20176380902050414,0.09999999999999994,15,90.0,-90.0,0.08538138796512439,-0.27933096133060864,-1.2368186148984475,-2.2613794792139963,-0.5690724752776446,1.8741158786814651,-1.759083575036761
0.05,-0.15000000000000002,0.1,-0.12320508075688778,-0.25,0.1,30,90.0,-90.0,0.11352471115798042,-0.6138391575042952,-1.2076221133612242,-2.119438791596707,-1.144678889031647,1.6478386358990824,-1.7393143127062949
0.05,-0.15000000000000002,0.1,-0.0914213562373095,-0.29142135623730947,0.09999999999999992,45,90.0,-90.0,0.10175732538392536,-0.7863656529431599,-1.2928235212471737,-1.7882539109579128,-1.5725604984680204,1.5701046730474615,-1.5099411662494997
0.05,-0.15000000000000002,0.1,-0.05,-0.3232050807568878,0.09999999999999999,60,90.0,-90.0,0.06656206469723516,-0.8361593350260742,-1.4824874524737652,-1.2609136742933307,-1.8604580087537326,1.6899221788428114,-1.1906345308126838
0.05,-0.05,0.1,-0.0017638090205041382,0.14318516525781372,0.09999999999999998,-75,90.0,-90.0,0.0712835257736767,-2.645058979640959,1.4499226960374632,0.3909028098152458,-1.5077234717084773,1.79779861615364,-2.8653750621909673
0.05,-0.05,0.1,-0.05000000000000003,0.12320508075688773,0.09999999999999998,-60,90.0,-90.0,0.10573553717861812,-2.609564046396987,1.278866679604292,0.8688459297802228,-1.5658540922034578,1.5767590520630541,-2.5639689053290913
0.05,-0.05,0.1,-0.09142135623730953,0.09142135623730953,0.09999999999999998,-45,90.0,-90.0,0.1248571184013549,-2.5756955790028058,1.1903010340061084,1.2300613499881077,-1.735629043873113,1.426675300356312,-2.280063920853215
0.05,-0.05,0.1,-0.12320508075688778,0.05,0.09999999999999998,-30,90.0,-90.0,0.12442293214756352,-2.5576421774953553,1.1769298354191282,1.5424277863771532,-1.9974612320628247,1.3859182285216636,-1.9539335204004116
0.05,-0.05,0.1,-0.14318516525781366,0.0017638090205041451,0.09999999999999996,-15,90.0,-90.0,0.11318641227402705,-2.595518599030559,1.2458394447733512,1.8239593326201669,-2.3314673369017775,1.5207349587808412,-1.622995231821548
0.05,-0.05,0.1,-0.15000000000000002,-0.05,0.1,0,90.0,-90.0,0.10810564147737298,-2.7619673719417657,1.3339348438537137,2.0652621858033298,-2.749353643042377,1.8100697343196077,-1.4729267787360976
0.05,-0.05,0.1,-0.14318516525781366,-0.10176380902050414,0.09999999999999994,15,90.0,-90.0,0.11832469961106945,-0.7098367669636285,-1.201890173837723,-1.6849779624470664,2.15426771619663,-1.427800214786475,1.7825600473673053
0.05,-0.05,0.1,-0.12320508075688778,-0.15000000000000002,0.1,30,90.0,-90.0,0.12762774184022657,-0.7116264545131227,-1.1737278725882119,-1.3880105555755902,1.8546365999216825,-1.389805798412477,2.1238260298354574
0.05,-0.05,0.1,-0.0914213562373095,-0.1914213562373095,0.09999999999999992,45,90.0,-90.0,0.11702830656585113,-0.6830124718746934,-1.2265549038702164,-1.0554388902493748,1.6376175456104864,-1.4931701638649242,2.4285290902845946
0.05,-0.05,0.1,-0.05,-0.22320508075688777,0.09999999999999999,60,90.0,-90.0,0.09044674580679195,-0.6463767397945765,-1.353009879944825,-0.6479587760486265,1.5187259907744057,-1.6823687668815788,2.7088002015067065
0.05,-0.05,0.1,-0.0017638090205041451,-0.2431851652578137,0.09999999999999999,75,90.0,-90.0,0.04242461404204234,-0.6179594348659612,-1.5995245244206897,-0.02600491116851632,1.5496187001001769,-1.925628007492033,3.082179171578059
0.1,-0.10000000000000002,0.1,0.048236190979495865,0.09318516525781369,0.09999999999999998,-75,90.0,-90.0,0.061339655415569475,0.42376249475432215,-1.500185239911515,-0.2638615433289787,1.602280253273238,1.7298300606436103,-2.9458864387443864
0.1,-0.10000000000000002,0.1,-2.7755575615628914e-17,0.07320508075688771,0.09999999999999998,-60,90.0,-90.0,0.09974971247686253,0.4489429266931464,-1.3046682702629453,-0.7904684171956958,1.5329586289501287,1.5074547248182102,-2.6168104359719275
0.1,-0.10000000000000002,0.1,-0.041421356237309526,0.04142135623730951,0.09999999999999998,-45,90.0,-90.0,0.1188106806112342,0.47096206522701844,-1.2057921366602444,-1.1682624224223968,1.3410782723195809,1.354368893220774,-2.3123290130081267
0.1,-0.10000000000000002,0.1,-0.07320508075688778,-1.3877787807814457e-17,0.09999999999999998,-30,90.0,-90.0,0.11876051309029696,0.47460854202748426,-1.1863550252808555,-1.4862035036595374,1.0481157607575275,1.3234362517428604,-1.973076595342024
0.1,-0.10000000000000002,0.1,-0.09318516525781367,-0.04823619097949587,0.09999999999999996,-15,90.0,-90.0,0.11352067127405398,0.4142226312651965,-1.2364666718955737,-1.768940054011864,0.6814695695297477,1.4639416863171013,-1.6562605856256698
0.1,-0.10000000000000002,0.1,-0.1,-0.10000000000000002,0.1,0,90.0,-90.0,0.11245600196779151,0.22876299387868473,-1.2892800854613782,-1.9990254613413039,0.23154491237122454,1.7139669776344444,-1.536413987460243
0.1,-0.10000000000000002,0.1,-0.09318516525781365,-0.15176380902050415,0.09999999999999994,15,90.0,-90.0,0.09675017866975943,-0.09078315101378323,-1.2539885870068461,-2.137085434087828,-0.3621204682602598,1.804941733966174,-1.6578568596930612
0.1,-0.10000000000000002,0.1,-0.07320508075688778,-0.2,0.1,30,90.0,-90.0,0.11325847083461701,-0.4235674567088549,-1.2240683961620893,-2.061704010169906,-0.9515190966074788,1.6540352645967664,-1.6878321507375857
0.1,-0.10000000000000002,0.1,-0.0414213562373095,-0.24142135623730948,0.09999999999999992,45,90.0,-90.0,0.09994914397445749,-0.6310199046914068,-1.2989710403729202,-1.770714322107953,-1.4162040979687591,1.5605864853753417,-1.4987931784924589
0.1,-0.10000000000000002,0.1,0.0,-0.27320508075688776,0.09999999999999999,60,90.0,-90.0,0.06408612175095836,-0.6646327707791955,-1.4853632005561188,-0.3000018752898394,1.5403971658199493,-1.7076153706925685,2.9240850811751473
0.15000000000000002,-0.10000000000000002,0.1,0.09823619097949587,0.09318516525781369,0.09999999999999998,-75,90.0,-90.0,0.03045467691259567,0.40603666639200836,-1.6619973824654382,0.11703866794233335,1.5674892178366377,1.7143523064614437,-3.166944153193862
0.15000000000000002,-0.10000000000000002,0.1,0.04999999999999999,0.07320508075688771,0.09999999999999998,-60,90.0,-90.0,0.08625418585067353,0.4182847224942147,-1.3678368323374115,-0.6062771818608323,1.5294560538893156,1.4729765045792933,-2.736311361614021
0.15000000000000002,-0.10000000000000002,0.1,0.008578643762690491,0.04142135623730951,0.09999999999999998,-45,90.0,-90.0,0.10945204654615269,0.4325174431068907,-1.2420972082470954,-1.020599160237003,1.3390114156095594,1.301364968028055,-2.417064944629214
0.15000000000000002,-0.10000000000000002,0.1,-0.023205080756887764,-1.3877787807814457e-17,0.09999999999999998,-30,90.0,-90.0,0.11265995954339882,0.4303701485053279,-1.198368374856179,-1.3522529926357212,1.0391086448317566,1.2419290019140208,-2.071897837410282
0.15000000000000002,-0.10000000000000002,0.1,-0.04318516525781366,-0.04823619097949587,0.09999999999999996,-15,90.0,-90.0,0.11122680008743831,0.37248821148959566,-1.227052065714827,-1.643690262626141,0.6511646060786004,1.3542783905116387,-1.733113829379138
0.15000000000000002,-0.10000000000000002,0.1,-0.04999999999999999,-0.10000000000000002,0.1,0,90.0,-90.0,0.11506665624987773,0.20175926667480654,-1.265790371705779,-1.8740663117806586,0.200767188607428,1.5684528843103158,-1.5705515668850836
0.15000000000000002,-0.10000000000000002,0.1,-0.04318516525781363,-0.15176380902050415,0.09999999999999994,15,90.0,-90.0,0.11189153985826127,-0.0790532238090911,-1.2549837899712366,-1.9927214046708046,-0.34315088930385007,1.670024585256218,-1.6065549737579166
0.15000000000000002,-0.10000000000000002,0.1,-0.023205080756887764,-0.2,0.1,30,90.0,-90.0,0.11013189597788728,-0.3733574856278238,-1.2567250632042035,-1.913577102434477,-0.897767784636099,1.5882053589132075,-1.5922692362857984
0.15000000000000002,-0.10000000000000002,0.1,0.008578643762690519,-0.24142135623730948,0.09999999999999992,45,90.0,-90.0,0.08860310758901832,-0.5733432807654602,-1.3534642576494713,-1.607480339470283,-1.362626540993024,1.5335123737594876,-1.3931525425366669
0.15000000000000002,-0.10000000000000002,0.1,0.05000000000000002,-0.27320508075688776,0.09999999999999999,60,90.0,-90.0,0.04086336857067369,-0.6456750796026068,-2.0636651478337686,0.9686104336651472,1.6272639975993677,-1.6798380135239814,-2.6635460051297177
0.2,-0.10000000000000002,0.1,0.09999999999999998,0.07320508075688771,0.09999999999999998,-60,90.0,-90.0,0.06900572553741574,-2.7612519234623574,1.4535159420387411,0.38007905160594974,-1.6079297481991024,1.432296696181938,-2.8758828658930597
0.2,-0.10000000000000002,0.1,0.05857864376269048,0.04142135623730951,0.09999999999999998,-45,90.0,-90.0,0.09824621594695394,-2.7554637451236723,1.2899631486268293,0.8536078676050054,-1.7949158701356502,1.238308381020778,-2.5305454207528606
0.2,-0.10000000000000002,0.1,0.026794919243112225,-1.3877787807814457e-17,0.09999999999999998,-30,90.0,-90.0,0.10398847939961571,-2.762359959546055,1.2250974543605728,1.2015254794443557,-2.107046830994013,1.1524722147339639,-2.1686150557877943
0.2,-0.10000000000000002,0.1,0.006814834742186332,-0.04823619097949587,0.09999999999999996,-15,90.0,-90.0,0.10473711496664147,-2.817220273584746,1.2329986126888768,1.5011461177699714,-2.514785900912776,1.2336117488982594,-1.8045114228914663
0.2,-0.10000000000000002,0.1,0.0,-0.10000000000000002,0.1,0,90.0,-90.0,0.11198711560543313,-2.9745378262227278,1.263895424202723,1.7331651291031942,-2.9719434422790214,1.428048540339961,-1.5960354563933334
0.2,-0.10000000000000002,0.1,0.00681483474218636,-0.15176380902050415,0.09999999999999994,15,90.0,-90.0,0.10430316887423965,2.5343763811004667,1.2205536975147564,1.2522983049492422,-0.9859003597780636,-1.1587739482019455,2.114207585183437
0.2,-0.10000000000000002,0.1,0.026794919243112225,-0.2,0.1,30,90.0,-90.0,0.10073507688206403,2.5240147167832947,1.2741849105740883,0.9134624964101871,-1.3113297780390836,-1.2248946544843793,2.4781844892748848
0.2,-0.10000000000000002,0.1,0.05857864376269051,-0.24142135623730948,0.09999999999999992,45,90.0,-90.0,0.07552902246095808,2.5299949123362238,1.418668152321245,0.46995502175070897,-1.5166633168699084,-1.4053399694073518,2.818885715581305
0.1,0.05,0.1,-2.7755575615628914e-17,0.22320508075688772,0.09999999999999998,-60,90.0,-90.0,0.07670384495734087,-2.530917515018793,1.4204132840769887,0.4649559358616963,-1.5432104251629755,1.6527820164521987,-2.8252124426569054
0.1,0.05,0.1,-0.041421356237309526,0.19142135623730955,0.09999999999999998,-45,90.0,-90.0,0.10795339643859414,-2.504594496420752,1.2640008369502462,0.922798117590583,-1.6579078850029272,1.449476860494098,-2.519781709612012
0.1,0.05,0.1,-0.07320508075688778,0.15000000000000002,0.09999999999999998,-30,90.0,-90.0,0.12101680445442624,-2.485605710479367,1.1911839755434694,1.2738803255106965,-1.8823007030888388,1.3305129918331204,-2.209165999818822
0.1,0.05,0.1,-0.09318516525781367,0.10176380902050415,0.09999999999999996,-15,90.0,-90.0,0.11646915609439236,-2.4955836702002308,1.1958045803429702,1.5804755611966155,-2.2000671930763964,1.3491927227293912,-1.8629545854115472
0.1,0.05,0.1,-0.1,0.05,0.1,0,90.0,-90.0,0.11309707156840405,-2.5899499889489235,1.2593959802250412,1.8510964848911142,-2.58877514809115,1.5443056259963628,-1.5866762961327352
0.1,0.05,0.1,-0.09318516525781365,-0.0017638090205041243,0.09999999999999994,15,90.0,-90.0,0.11375921221636287,-0.4911863475937556,-1.2228265255292619,-1.7154578682751482,2.3774192712486046,-1.4223766765265884,1.7099856993809435
0.1,0.05,0.1,-0.07320508075688778,-0.05,0.1,30,90.0,-90.0,0.12010503858916116,-0.5323758574865265,-1.1827560015798124,-1.425116498609808,2.02444910002036,-1.3162681492563038,2.0458513929228053
0.1,0.05,0.1,-0.0414213562373095,-0.09142135623730947,0.09999999999999992,45,90.0,-90.0,0.11659886781505681,-0.5226009891827816,-1.218822658844331,-1.0987554984938803,1.7512576607155395,-1.3780825558634664,2.376997502334924
0.1,0.05,0.1,0.0,-0.12320508075688776,0.09999999999999999,60,90.0,-90.0,0.09392516227888979,-0.4984059460465891,-1.3331595829260867,-0.7033087961636133,1.581391396715886,-1.547541193792106,2.675741440419767
0.1,0.05,0.1,0.04823619097949586,-0.14318516525781366,0.09999999999999999,75,90.0,-90.0,0.04937000326230197,-0.4751747320245037,-1.5623926027029986,-0.11323600735272286,1.5472273673053367,-1.7820263250992707,3.0334024381824167
0.1,-0.15000000000000002,0.1,0.048236190979495865,0.043185165257813685,0.09999999999999998,-75,90.0,-90.0,0.07003428075147725,-2.7873981668708265,1.4543760624551731,0.37793380099700374,-1.5465211841824797,1.6598250117868845,-2.8785392636108598
0.1,-0.15000000000000002,0.1,-2.7755575615628914e-17,0.023205080756887708,0.09999999999999998,-60,90.0,-90.0,0.1040375697990755,-2.7637792186504075,1.2817242098963,0.8632300075940598,-1.6500388717546097,1.4488282201230447,-2.561837229110316
0.1,-0.15000000000000002,0.1,-0.041421356237309526,-0.008578643762690491,0.09999999999999998,-45,90.0,-90.0,0.11888132650325678,-2.7463483091901866,1.1989945398144135,1.2246315598309772,-1.871105828126546,1.3185367925827838,-2.2496538130356707
0.1,-0.15000000000000002,0.1,-0.07320508075688778,-0.05000000000000002,0.09999999999999998,-30,90.0,-90.0,0.1158524523005204,-2.7550682892436256,1.1941668075010987,1.5353967723870423,-2.188746614944183,1.322674336931498,-1.9023167384515995
0.1,-0.15000000000000002,0.1,-0.09318516525781367,-0.09823619097949587,0.09999999999999996,-15,90.0,-90.0,0.11304601970380278,-2.8424795522455537,1.2499131242137327,1.8112011189499155,-2.5791555591511393,1.5018435614188836,-1.612798409632455
0.1,-0.15000000000000002,0.1,-0.1,-0.15000000000000002,0.1,0,90.0,-90.0,0.10953755404763144,0.09796061043080971,-1.2849281867868665,-2.0238592580115267,0.09978060475844888,1.7380830697297796,-1.5540088378983774
0.1,-0.15000000000000002,0.1,-0.09318516525781365,-0.20176380902050414,0.09999999999999994,15,90.0,-90.0,0.10080167189071666,-0.2360641589762967,-1.2406080878659436,-2.119079231193963,-0.5087859674718569,1.762403913336395,-1.6768793139456957
0.1,-0.15000000000000002,0.1,-0.07320508075688778,-0.25,0.1,30,90.0,-90.0,0.11259476772414276,-0.538371349703483,-1.2370763147855606,-1.9880771157370887,-1.063628110678671,1.6104745052358447,-1.6431960315122063
0.1,-0.15000000000000002,0.1,-0.0414213562373095,-0.29142135623730947,0.09999999999999992,45,90.0,-90.0,0.09169615332317636,-0.7143494335915659,-1.3400321148176375,-1.6469029835787674,-1.5010805808920595,1.5589530750029434,-1.415755804543852
0.1,-0.15000000000000002,0.1,0.0,-0.3232050807568878,0.09999999999999999,60,90.0,-90.0,0.046981373381654055,-0.7475366240465002,-2.0964353700907723,1.032007417920369,1.6806792287951053,-1.7656464241618106,-2.625298948214037
0.15000000000000002,0.05,0.1,0.04999999999999999,0.22320508075688772,0.09999999999999998,-60,90.0,-90.0,0.05872292102248482,-2.553381397973428,2.177033521236236,-1.1931609507423802,-1.605970534127225,1.6247039672791364,2.5536481454393267
0.15000000000000002,0.05,0.1,0.008578643762690491,0.19142135623730955,0.09999999999999998,-45,90.0,-90.0,0.09625111396357867,0.49840999738270503,-1.3162292524336783,-1.7130011422071039,-1.8565154005048254,-1.538288058293331,1.4631886496517612
0.15000000000000002,0.05,0.1,-0.023205080756887764,0.15000000000000002,0.09999999999999998,-30,90.0,-90.0,0.11395308724149039,0.27542909958058537,-1.2466475512742377,-1.9646725742497793,-2.3403593894086043,-1.6195695194097064,1.620208379438945
0.15000000000000002,0.05,0.1,-0.04318516525781366,0.10176380902050415,0.09999999999999996,-15,90.0,-90.0,0.11050978082119776,-0.03130509160049053,-1.2598468655973276,-1.9932198267737438,-2.9089549487095496,-1.6783930413687265,1.596527070698792
0.15000000000000002,0.05,0.1,-0.04999999999999999,0.05,0.1,0,90.0,-90.0,0.11251662322190639,0.5105724985018473,-1.2423964525291982,-1.738923868141552,0.5162285638455394,1.4301661316562584,-1.6492768229099894
0.15000000000000002,0.05,0.1,-0.04318516525781363,-0.0017638090205041243,0.09999999999999994,15,90.0,-90.0,0.114480446164795,0.2980269794299511,-1.2694862584283861,-1.9400628402986086,0.035660984863036406,1.6392983712882296,-1.5686178417862204
0.15000000000000002,0.05,0.1,-0.023205080756887764,-0.05,0.1,30,90.0,-90.0,0.11253718535612137,-0.005031798515365425,-1.2477903155103907,-2.004465763915492,-0.5304072029029299,1.6672382348288453,-1.6270201465685792
0.15000000000000002,0.05,0.1,0.008578643762690519,-0.09142135623730947,0.09999999999999992,45,90.0,-90.0,0.10566428974321802,-0.2793330849025719,-1.2722267106154241,-1.8528617977139323,-1.0656015109264212,1.5624718732940406,-1.5556192995933535
0.15000000000000002,0.05,0.1,0.05000000000000002,-0.12320508075688776,0.09999999999999999,60,90.0,-90.0,0.07889661000987377,-0.441353096796021,-1.4042233047946795,-1.471225880921146,-1.4905243355464042,1.5493019649186623,-1.3052058949208951
0.1,-0.2,0.1,0.048236190979495865,-0.006814834742186304,0.09999999999999998,-75,90.0,-90.0,0.07647978053241286,0.3021331706110091,-1.4209433435015597,-0.4640061177986589,1.5828675908403167,1.6083077912953834,-2.8263030376916336
0.1,-0.2,0.1,-2.7755575615628914e-17,-0.02679491924311228,0.09999999999999998,-60,90.0,-90.0,0.10705583391410631,0.32388982110902176,-1.2647286313745136,-0.921989250729896,1.454365822854016,1.407435101602103,-2.5153478987431654
0.1,-0.2,0.1,-0.041421356237309526,-0.05857864376269048,0.09999999999999998,-45,90.0,-90.0,0.11825632838309857,0.33743118752361373,-1.1941070431865248,-1.2733090409651657,1.2113869936384407,1.2960541347480257,-2.1949197901441773
0.1,-0.2,0.1,-0.07320508075688778,-0.1,0.09999999999999998,-30,90.0,-90.0,0.11421725266018035,0.31779039556147315,-1.2025406277074489,-1.5781569385211318,0.8736964369980447,1.3327496114045059,-1.8439948016894956
0.1,-0.2,0.1,-0.09318516525781367,-0.14823619097949586,0.09999999999999996,-15,90.0,-90.0,0.1139768044257906,0.20705444018783484,-1.2592921196101632,-1.8407096089721795,0.4700887747025973,1.5344816357226871,-1.589262105732079
0.1,-0.2,0.1,-0.1,-0.2,0.1,0,90.0,-90.0,0.10770080991033722,-0.03569665020411794,-1.274625991907757,-2.0331503638932813,-0.035326353385937016,1.736564090022957,-1.5759871630494913
0.1,-0.2,0.1,-0.09318516525781365,-0.25176380902050416,0.09999999999999994,15,90.0,-90.0,0.10728708742408351,-0.3693227103667031,-1.2342101767997562,-2.07810206309456,-0.6385634594628262,1.7076620055941718,-1.6725409140535898
0.1,-0.2,0.1,-0.07320508075688778,-0.30000000000000004,0.1,30,90.0,-90.0,0.10773036178647104,-0.6392315118805169,-1.2604769319148055,-1.8951142567555734,-1.1625392000088206,1.5757878763825284,-1.5835447123697937
0.1,-0.2,0.1,-0.0414213562373095,-0.3414213562373095,0.09999999999999992,45,90.0,-90.0,0.08105896045269846,-0.786104963591896,-1.395735158719899,-1.4948495766150158,-1.5720860899519624,1.5720604309908368,-1.319587891422153
0.15000000000000002,0.1,0.1,0.04999999999999999,0.27320508075688776,0.09999999999999998,-60,90.0,-90.0,0.040767706710934055,0.6404993682032367,-1.607301982902943,-0.009353708908260911,1.5753037762075963,1.6866546579923227,-3.095073935469272
0.15000000000000002,0.1,0.1,0.008578643762690491,0.24142135623730954,0.09999999999999998,-45,90.0,-90.0,0.08964764930472241,0.6544194181821921,-1.3507084179374658,-0.6559476971288976,1.5144976343406114,1.4518897569950096,-2.7015444922829137
0.15000000000000002,0.1,0.1,-0.023205080756887764,0.2,0.09999999999999998,-30,90.0,-90.0,0.11064861608294493,0.6672814912479119,-1.2334452809787586,-1.057247626918942,1.3142441993834804,1.288422033646071,-2.3845929642863366
0.15000000000000002,0.1,0.1,-0.04318516525781366,0.15176380902050415,0.09999999999999996,-15,90.0,-90.0,0.1123221412802976,0.6621431845515084,-1.1987383604543926,-1.3841641436370657,1.0018552862937706,1.2457208183362412,-2.0328389284016835
0.15000000000000002,0.1,0.1,-0.04999999999999999,0.1,0.1,0,90.0,-90.0,0.11139502207218661,0.5950142708002013,-1.2309294637254282,-1.670612462737146,0.6096478993528243,1.3721265537232405,-1.7074416780718844
0.15000000000000002,0.1,0.1,-0.04318516525781363,0.04823619097949588,0.09999999999999994,15,90.0,-90.0,0.11519944526342467,0.4113930413198935,-1.2673507888950626,-1.8925890317016067,0.1493779508422607,1.588557719059465,-1.5672404316940158
0.15000000000000002,0.1,0.1,-0.023205080756887764,0.0,0.1,30,90.0,-90.0,0.11217038738404055,0.12249602471199647,-1.2528968964667582,-1.994672983170206,-0.40373235737611285,1.6683679773320401,-1.6124128252634187
0.15000000000000002,0.1,0.1,0.008578643762690519,-0.04142135623730947,0.09999999999999992,45,90.0,-90.0,0.10861797551729346,-0.16506527211093086,-1.262111244619086,-1.8920089124600117,-0.9501970780409059,1.578457392280207,-1.580585171059943
0.15000000000000002,0.1,0.1,0.05000000000000002,-0.07320508075688775,0.09999999999999999,60,90.0,-90.0,0.08535837447968855,-0.35335976178124484,-1.3696458040617627,-1.5620267253277615,-1.4041739512119709,1.534639767001042,-1.3638127877998816
0.15000000000000002,0.1,0.1,0.09823619097949587,-0.09318516525781367,0.09999999999999999,75,90.0,-90.0,0.03030576821379351,-0.4102895040185325,-2.000256031667781,0.8401256514682367,1.6310568131376268,-1.7067095821554152,-2.7265687616496357
0.05,-0.10000000000000002,0.1,-0.0017638090205041382,0.09318516525781369,0.09999999999999998,-75,90.0,-90.0,0.0805702655153249,-2.629043271114459,1.4081043093965597,1.455341949678335,1.8132384099003798,-1.6384256020035688,1.300167106979517
0.05,-0.10000000000000002,0.1,-0.05000000000000003,0.07320508075688771,0.09999999999999998,-60,90.0,-90.0,0.10931457041918823,-2.707256102617982,1.2542273111094688,1.9157560511156395,1.4807614477592175,-1.5729642925901897,1.5985385382084714
0.05,-0.10000000000000002,0.1,-0.09142135623730953,0.04142135623730951,0.09999999999999998,-45,90.0,-90.0,0.10467866827444984,-2.9192749900550767,1.1996102407232807,2.2003752850612175,1.0222883511667549,-1.7076862521985001,1.7914947183982985
0.05,-0.10000000000000002,0.1,-0.12320508075688778,-1.3877787807814457e-17,0.09999999999999998,-30,90.0,-90.0,0.12171243183858774,0.5232969472918053,-1.185497691738516,-1.6072001809133172,1.0734772790440974,1.3980672552141238,-1.8750620536708684
0.05,-0.10000000000000002,0.1,-0.14318516525781366,-0.04823619097949587,0.09999999999999996,-15,90.0,-90.0,0.11220558108641208,0.4626175262785343,-1.2674407138738146,-1.880197008086715,0.7245253513637772,1.5744591901712328,-1.5660376835472203
0.05,-0.10000000000000002,0.1,-0.15000000000000002,-0.10000000000000002,0.1,0,90.0,-90.0,0.10117489078041556,0.2610531430962706,-1.3379262504744514,-2.1096767871281643,0.27353251131744427,1.8660450393116514,-1.4883993678137653
0.05,-0.10000000000000002,0.1,-0.14318516525781366,-0.15176380902050415,0.09999999999999994,15,90.0,-90.0,0.0790846576201033,-0.11292195909432827,-1.2651134791449012,-2.2792245224804595,-0.404870977327752,1.9430998854070434,-1.7252948143419258
0.05,-0.10000000000000002,0.1,-0.12320508075688778,-0.2,0.1,30,90.0,-90.0,0.10521258485560644,-0.4925533606281264,-1.1994701763876896,-2.197460528167255,-1.0318017702810671,1.7043116759797503,-1.7884191065635062
0.05,-0.10000000000000002,0.1,-0.0914213562373095,-0.24142135623730948,0.09999999999999992,45,90.0,-90.0,0.10899280560505528,-0.701903608459309,-1.2557562486651932,-1.9098931726603503,-1.4879106411689507,1.5720857423605836,-1.594727026383719
0.05,-0.10000000000000002,0.1,-0.05,-0.27320508075688776,0.09999999999999999,60,90.0,-90.0,0.08022849829676942,-0.7776470466277923,-1.410016767453201,-1.4504484787784457,-1.814444904560127,1.639846727596805,-1.29882988728172
0.25,-0.15000000000000002,0.1,0.14999999999999997,0.023205080756887708,0.09999999999999998,-60,90.0,-90.0,0.05378499682621012,0.30387073945499415,-1.5302438093582245,-0.19124475169290311,1.5365803959398854,1.3529564571824955,-2.9873975430312916
0.25,-0.15000000000000002,0.1,0.10857864376269047,-0.008578643762690491,0.09999999999999998,-45,90.0,-90.0,0.08762983270249829,0.30238379681095445,-1.332638351397612,-0.7255395792884534,1.3306194948732988,1.147078752641968,-2.601578147496888
0.25,-0.15000000000000002,0.1,0.07679491924311221,-0.05000000000000002,0.09999999999999998,-30,90.0,-90.0,0.09344387009235669,0.2896332684754318,-1.2587315916615396,-1.081683311316226,0.987757985262889,1.054224904372607,-2.21304040096514
0.25,-0.15000000000000002,0.1,0.05681483474218632,-0.09823619097949587,0.09999999999999996,-15,90.0,-90.0,0.0970480825425532,0.22860593634140364,-1.2597940932737923,-1.378089745791411,0.5483118847408184,1.1302639788017368,-1.8246733568798554
0.25,-0.15000000000000002,0.1,0.04999999999999999,-0.15000000000000002,0.1,0,90.0,-90.0,0.10627223622051624,0.06999469459136809,-1.2866569410981,-1.5910777749596745,0.07325595460440754,1.3084363033430846,-1.5891599864200054
0.25,-0.15000000000000002,0.1,0.05681483474218635,-0.20176380902050414,0.09999999999999994,15,90.0,-90.0,0.10311508522634173,-0.16340165584104865,-1.3097661404901288,-1.6542821550664175,-0.4305750424123533,1.408679226799559,-1.4975240968846666
0.25,-0.15000000000000002,0.1,0.07679491924311221,-0.25,0.1,30,90.0,-90.0,0.08390738313304931,-0.3969061296350556,-1.3812766321167322,-1.4981487564932876,-0.9377060532695082,1.413340878963413,-1.3593057712867458
0.25,-0.15000000000000002,0.1,0.1085786437626905,-0.29142135623730947,0.09999999999999992,45,90.0,-90.0,0.040246254001104924,2.5474742816084994,2.0695877947554306,-0.9794483398266454,-1.659859934054373,-1.401072402292895,3.6290773496445468
0.0,0.1,0.1,-0.05176380902050414,0.2931851652578137,0.09999999999999998,-75,90.0,-90.0,0.047705182989206556,0.8322548322168748,-1.593675888050244,-0.96888119094789,-1.077913327606082,-1.8707312563359524,1.0670073577663295
0.0,0.1,0.1,-0.10000000000000003,0.27320508075688776,0.09999999999999998,-60,90.0,-90.0,0.09264837237223585,0.8634112952871087,-1.35219441927383,-1.6052758163530338,-1.236769992023682,-1.6310411558439672,1.3977508373800893
0.0,0.1,0.1,-0.14142135623730953,0.24142135623730954,0.09999999999999998,-45,90.0,-90.0,0.11645114879672451,0.8041412405773056,-1.2228943751390473,-2.0312828020619005,-1.5526687779557031,-1.5680461855095214,1.6828144145246655
0.0,0.1,0.1,-0.17320508075688779,0.2,0.09999999999999998,-30,90.0,-90.0,0.09684484676870204,0.6066591176346466,-1.1799758445151656,-2.320829343504989,-1.9856157631688691,-1.721258058302083,1.8992870389560357
0.0,0.1,0.1,-0.19318516525781368,0.15176380902050415,0.09999999999999996,-15,90.0,-90.0,0.06045799520378097,0.18085852740764802,-1.2807076520296616,-2.42485179666203,-2.629567603776526,-2.0748082364803486,1.8353401491854906
0.0,0.1,0.1,-0.2,0.1,0.1,0,90.0,-90.0,0.10833988289637944,-2.3465567608616715,1.308850635512974,1.9543186077872212,-2.3421604231778224,1.6553921850888556,-1.4837015135109335
0.0,0.1,0.1,-0.19318516525781365,0.04823619097949588,0.09999999999999994,15,90.0,-90.0,0.08890779921129964,-2.5534990760916987,1.411863418585137,2.184352805028435,-2.7804538047963403,1.9992340398941342,-1.4150801075864838
0.0,0.1,0.1,-0.17320508075688779,0.0,0.1,30,90.0,-90.0,0.12060944639604039,-0.5642975767721762,-1.2014054391522757,-1.7136167426836932,2.0427008150002948,-1.4672471935453126,1.7726108271614023
0.0,0.1,0.1,-0.1414213562373095,-0.04142135623730947,0.09999999999999992,45,90.0,-90.0,0.1322877134416378,-0.5468028759715641,-1.1663697701788258,-1.4224383398687386,1.773886675885811,-1.4463273257157006,2.111914039850266
0.0,0.1,0.1,-0.1,-0.07320508075688775,0.09999999999999999,60,90.0,-90.0,0.12044252074207706,-0.50598945139585,-1.2153983372971797,-1.097749480164356,1.5829051519000836,-1.5567940301723593,2.399101546304235
0.0,0.1,0.1,-0.05176380902050415,-0.09318516525781367,0.09999999999999999,75,90.0,-90.0,0.09473607090889126,-0.4588713254436147,-1.332821067590839,-0.7076132754329165,1.48006580290333,-1.7455441720572522,2.663765168890298
0.0,0.1,0.1,-3.140184917367551e-17,-0.10000000000000006,0.1,90,90.0,-90.0,0.05276366582040782,-0.420059471313526,-1.545540471037068,-0.15540138313401905,1.5136990551297511,-1.9881352732227486,2.9990115676511255
0.3,-0.10000000000000002,0.1,0.15857864376269046,0.04142135623730951,0.09999999999999998,-45,90.0,-90.0,0.06949717173094692,-2.8257198280820592,1.432681121293752,0.4410858679282162,-1.7216257179864995,1.1246455760277543,-2.803770444732316
0.3,-0.10000000000000002,0.1,0.1267949192431122,-1.3877787807814457e-17,0.09999999999999998,-30,90.0,-90.0,0.08314940889735888,-2.8372360437064956,1.31097999348894,0.8516618721014801,-2.044252253920003,0.9738489121487055,-2.402691079307712
0.3,-0.10000000000000002,0.1,0.10681483474218631,-0.04823619097949587,0.09999999999999996,-15,90.0,-90.0,0.08560515627885949,-2.8774038973656992,1.2880164908738316,1.166737580445736,-2.496962156425617,0.9895695185271711,-1.9608162508954727
0.3,-0.10000000000000002,0.1,0.09999999999999998,-0.10000000000000002,0.1,0,90.0,-90.0,0.09646158428727904,-3.004199139516439,1.3108565807671246,1.409875010497722,-2.9913852656772963,1.1540296070194587,-1.632260216567225
0.3,-0.10000000000000002,0.1,0.10681483474218634,-0.15176380902050415,0.09999999999999994,15,90.0,-90.0,0.08381870741146501,2.6337085188568716,1.2963927513679447,0.9330827167403113,-1.0087552664696038,-0.9666718889968684,2.3031981095143435
0.3,-0.10000000000000002,0.1,0.1267949192431122,-0.2,0.1,30,90.0,-90.0,0.07579841054268605,2.619240986214796,1.3914636964671696,0.5576145219433584,-1.3589233969072703,-1.0861624311476283,2.7097510907085773
0.3,-0.10000000000000002,0.1,0.15857864376269049,-0.24142135623730948,0.09999999999999992,45,90.0,-90.0,0.02662527205334718,2.615976558661451,1.6764484093131453,-0.14855084269437843,-1.5812191173756622,-1.3104196873500122,3.1852518632505924
0.35,-0.10000000000000002,0.1,0.20857864376269045,0.04142135623730951,0.09999999999999998,-45,90.0,-90.0,0.04724401942424756,0.19524478787113642,-2.125747536955996,1.0720493092389067,1.8896609292388271,1.066443323287859,2.5408407034663365
0.35,-0.10000000000000002,0.1,0.1767949192431122,-1.3877787807814457e-17,0.09999999999999998,-30,90.0,-90.0,0.07077199462044258,0.27451818813532364,-1.3744133801132243,-0.6414623892739125,1.1722659089253953,0.8889688395822952,-2.5524695897277443
0.35,-0.10000000000000002,0.1,0.1568148347421863,-0.04823619097949587,0.09999999999999996,-15,90.0,-90.0,0.07322518469724995,0.24506941004941488,-1.3336580032630156,-0.967406869335352,0.6937253154092841,0.8606134043833493,-2.066903526118474
0.35,-0.10000000000000002,0.1,0.14999999999999997,-0.10000000000000002,0.1,0,90.0,-90.0,0.08511393520845113,0.1372825061082008,-1.3556931885889771,-1.2192002360780367,0.16316338017246076,1.0109236848692429,-1.6575597161492455
0.35,-0.10000000000000002,0.1,0.15681483474218633,-0.15176380902050415,0.09999999999999994,15,90.0,-90.0,0.08321458537018993,-0.05423592056164936,-1.3996767895921052,-1.3072661944225803,-0.3452209303046713,1.157959299317325,-1.4273214615428522
0.35,-0.10000000000000002,0.1,0.1767949192431122,-0.2,0.1,30,90.0,-90.0,0.05899282794101212,2.668638947313113,1.4790481576459102,0.3212744213700157,-1.4255084433502658,-1.012631031348341,2.8704905185332947
0.3,-0.15000000000000002,0.1,0.19999999999999996,0.023205080756887708,0.09999999999999998,-60,90.0,-90.0,0.007768787383949314,-2.8828010421757813,1.7824550964058798,-0.38339637387949244,-1.5236517278462063,1.309173691601291,2.9639691659075216
0.3,-0.15000000000000002,0.1,0.15857864376269046,-0.008578643762690491,0.09999999999999998,-45,90.0,-90.0,0.072536973865949,-2.8820186352544734,1.4096771302931943,0.5045627104922201,-1.7628185545840105,1.0789608164110183,3.5338580289478845
0.3,-0.15000000000000002,0.1,0.1267949192431122,-0.05000000000000002,0.09999999999999998,-30,90.0,-90.0,0.09383575314742494,-0.16604607412192032,-1.3514033483887684,-1.4784267659030697,-2.768394842291274,-1.2783235844664558,1.4594927226182821
0.3,-0.15000000000000002,0.1,0.10681483474218631,-0.09823619097949587,0.09999999999999996,-15,90.0,-90.0,0.09587520378099346,2.7550733136923706,1.3155062711880594,1.3975273457015653,-0.13732380006084413,-1.1465679154418016,1.6272483277794587
0.3,-0.15000000000000002,0.1,0.09999999999999998,-0.15000000000000002,0.1,0,90.0,-90.0,0.08509037509058104,2.6267843507263198,1.2920019831589897,1.1610545262525855,-0.6312491889728526,-0.9850119029101849,1.9547329173097856
0.3,-0.15000000000000002,0.1,0.10681483474218634,-0.20176380902050414,0.09999999999999994,15,90.0,-90.0,0.08223147702917852,2.5854772222828952,1.3137854839787857,0.8470334187988805,-1.089232003524422,-0.9667376852562288,2.398072912992444
0.3,-0.15000000000000002,0.1,0.1267949192431122,-0.25,0.1,30,90.0,-90.0,0.06895087950165633,2.5740435682165685,1.4337762868388486,0.4382907160070313,-1.4173508423418537,-1.1142581711853137,2.803688578922466
0.35,-0.05000000000000002,0.1,0.20857864376269045,0.09142135623730951,0.09999999999999998,-45,90.0,-90.0,0.03913575217566051,0.27293078428162826,-2.0690193909739283,0.9676470298370984,1.8207924751319615,1.118124562030085,2.6147790138175537
0.35,-0.05000000000000002,0.1,0.1767949192431122,0.04999999999999999,0.09999999999999998,-30,90.0,-90.0,0.076067092868011,0.022611057062016254,-1.432820236234681,-1.2829816460115386,-2.552238398143863,-1.2093277456107714,1.3383920453765443
0.35,-0.05000000000000002,0.1,0.1568148347421863,0.0017638090205041312,0.09999999999999996,-15,90.0,-90.0,0.08800525579972049,2.941425637405503,1.3680382057559246,1.2992659008767098,0.0689385692168311,-1.0972056354149264,1.5383702375330073
0.35,-0.05000000000000002,0.1,0.14999999999999997,-0.05000000000000002,0.1,0,90.0,-90.0,0.07928078739791267,2.788193219834692,1.335813294562512,1.1117208850554214,-0.4467269381292719,-0.9259463816225759,1.8499037837468928
0.35,-0.05000000000000002,0.1,0.15681483474218633,-0.10176380902050414,0.09999999999999994,15,90.0,-90.0,0.07236026474175655,2.730266206992358,1.3389763565623607,0.8126170468639465,-0.9689368558963961,-0.8576980664047451,2.3311937625056824
0.35,-0.05000000000000002,0.1,0.1767949192431122,-0.15000000000000002,0.1,30,90.0,-90.0,0.06510207037318999,2.7142061103508377,1.4388403556709708,0.4318285015922504,-1.362203090921231,-0.9824809698640738,2.7783060481083206
0.35,-1.3877787807814457e-17,0.1,0.20857864376269045,0.1414213562373095,0.09999999999999998,-45,90.0,-90.0,0.02461943223936805,0.38408202887069215,-1.6836540436384884,0.16537894979834566,1.592886802331574,1.1698488218783167,-3.198122485273675
0.35,-1.3877787807814457e-17,0.1,0.1767949192431122,0.09999999999999999,0.09999999999999998,-30,90.0,-90.0,0.06878094132989905,0.3787493093240628,-1.4092172781162382,-0.5189468541599398,1.3003139584294854,0.9515039044932758,-2.6970564290634336
0.35,-1.3877787807814457e-17,0.1,0.1568148347421863,0.051763809020504134,0.09999999999999996,-15,90.0,-90.0,0.07290040122274552,0.3596276073757551,-1.331818260349383,-0.8757624580963684,0.8787137479838493,0.8581950519592284,-2.239039276919364
0.35,-1.3877787807814457e-17,0.1,0.14999999999999997,-1.3877787807814457e-17,0.1,0,90.0,-90.0,0.08207818055977019,0.28591505913411397,-1.3399657436879597,-1.1606761217214019,0.3518465412869548,0.9608746895256649,-1.7785962365512122
0.35,-1.3877787807814457e-17,0.1,0.15681483474218633,-0.05176380902050414,0.09999999999999994,15,90.0,-90.0,0.0877841853166057,0.11679836792003004,-1.374373840118966,-1.3188784426591256,-0.16043320752745824,1.127084735620221,-1.5023269127513392
0.35,-1.3877787807814457e-17,0.1,0.1767949192431122,-0.10000000000000002,0.1,30,90.0,-90.0,0.0723258288900443,-0.09679879235428002,-1.448419857285725,-1.2583596010496714,-0.6671957645893175,1.2200814735890557,-1.3064523829119574
0.35,-1.3877787807814457e-17,0.1,0.20857864376269047,-0.1414213562373095,0.09999999999999992,45,90.0,-90.0,0.025005499691051442,-0.37509809682895173,-1.6815729097704275,0.16130223779485878,1.5477507447849697,-1.160126296573527,3.19715455911055
0.25,-0.2,0.1,0.14999999999999997,-0.02679491924311228,0.09999999999999998,-60,90.0,-90.0,0.059873144052556185,-2.904273364964571,1.495622368106133,0.2759655804701939,-1.6297313671329174,1.2896690244423514,-2.9314667288701335
0.25,-0.2,0.1,0.10857864376269047,-0.05857864376269048,0.09999999999999998,-45,90.0,-90.0,0.087786370150361,-2.9083376809308543,1.3226205962145028,0.7654992139197073,-1.8651129633700716,1.0977550240436436,-2.5524666718418865
0.25,-0.2,0.1,0.07679491924311221,-0.1,0.09999999999999998,-30,90.0,-90.0,0.09096816710996573,-2.9266990929433994,1.2624786043848462,1.1095889608991882,-2.238042627147895,1.0298069047268545,-2.1481305172980996
0.25,-0.2,0.1,0.05681483474218632,-0.14823619097949586,0.09999999999999996,-15,90.0,-90.0,0.09687030922155065,-3.004121790473363,1.2715769620935047,1.3975034895870246,-2.6979125641081776,1.1373836473835535,-1.766456910238671
0.25,-0.2,0.1,0.04999999999999999,-0.2,0.1,0,90.0,-90.0,0.10551663803847072,-0.025801387284158143,-1.2955011956573022,-1.5884930140161633,-0.026453316455111845,1.312826236718187,-1.5648984182569725
0.25,-0.2,0.1,0.05681483474218635,-0.25176380902050416,0.09999999999999994,15,90.0,-90.0,0.09844350069954863,-0.2616473199032806,-1.327059595556087,-1.6098943741314249,-0.5318637278228806,1.39471628068945,-1.4676077523363293
0.25,-0.2,0.1,0.07679491924311221,-0.30000000000000004,0.1,30,90.0,-90.0,0.07543986513518387,-0.4827242777903654,-1.4217170758495696,-1.3954396954805899,-1.030237764615184,1.39878976362152,-1.2936326406634449
0.3,-0.05000000000000002,0.1,0.15857864376269046,0.09142135623730951,0.09999999999999998,-45,90.0,-90.0,0.06455645741316832,0.3783944727234023,-1.4633311988232751,-0.3587123766421317,1.46393875975583,1.176297579118218,-2.868402917529396
0.3,-0.05000000000000002,0.1,0.1267949192431122,0.04999999999999999,0.09999999999999998,-30,90.0,-90.0,0.08390048203499101,0.3695064174660586,-1.3193511578824395,-0.8018377776534361,1.1727140945908416,1.0060156045596385,-2.4737261587603356
0.3,-0.05000000000000002,0.1,0.10681483474218631,0.0017638090205041312,0.09999999999999996,-15,90.0,-90.0,0.08580479464623625,0.3394998603401417,-1.2821976191513298,-1.1266570849123196,0.7447883513948437,0.9870956430489565,-2.0414564374147264
0.3,-0.05000000000000002,0.1,0.09999999999999998,-0.05000000000000002,0.1,0,90.0,-90.0,0.09566991888801521,0.23272465838441195,-1.3007667041424777,-1.3868733602018357,0.258579287867044,1.1303892749457287,-1.6836324877444637
0.3,-0.05000000000000002,0.1,0.10681483474218634,-0.10176380902050414,0.09999999999999994,15,90.0,-90.0,0.09854449307811904,0.03574218141340837,-1.3301370217708672,-1.5138875891915569,-0.23513305792516448,1.2807623884029677,-1.5015383588904807
0.3,-0.05000000000000002,0.1,0.1267949192431122,-0.15000000000000002,0.1,30,90.0,-90.0,0.08302342657079692,-0.19225460277323914,-1.3920907385641992,-1.4359977346386448,-0.7397370182709405,1.3354484940527045,-1.36133940949152
0.3,-0.05000000000000002,0.1,0.15857864376269049,-0.1914213562373095,0.09999999999999992,45,90.0,-90.0,0.0449138448802595,2.710442232044695,2.103981681705914,-1.043069528400228,-1.7491360999852337,-1.2633203471902086,-2.6044183403571224
0.15000000000000002,-0.15000000000000002,0.1,0.09823619097949587,0.043185165257813685,0.09999999999999998,-75,90.0,-90.0,0.04530280825264018,-2.8052664857590317,1.5819131571135745,0.06707802472045407,-1.564233026131923,1.6447499570695505,-3.0629358250169636
0.15000000000000002,-0.15000000000000002,0.1,0.04999999999999999,0.023205080756887708,0.09999999999999998,-60,90.0,-90.0,0.09111613292796339,-2.7920587562494044,1.3413837319227528,0.6819537938843014,-1.6467149506571717,1.414530993162914,-2.6834655700323577
0.15000000000000002,-0.15000000000000002,0.1,0.008578643762690491,-0.008578643762690491,0.09999999999999998,-45,90.0,-90.0,0.11003945462517083,-2.781725004006012,1.232007335409387,1.0751121455289327,-1.866357371584703,1.2612468794571383,-2.357884900442983
0.15000000000000002,-0.15000000000000002,0.1,-0.023205080756887764,-0.05000000000000002,0.09999999999999998,-30,90.0,-90.0,0.1103443501768633,-2.7931758179298476,1.203567240581486,1.398169307680188,-2.1944554984114486,1.234384064869656,-2.000449940544287
0.15000000000000002,-0.15000000000000002,0.1,-0.04318516525781366,-0.09823619097949587,0.09999999999999996,-15,90.0,-90.0,0.11082300932893606,-2.8737051578122523,1.2374455275319882,1.6815878193172487,-2.6011441859787827,1.3784993121212235,-1.6852220089119119
0.15000000000000002,-0.15000000000000002,0.1,-0.04999999999999999,-0.15000000000000002,0.1,0,90.0,-90.0,0.10966186733625989,-0.6559750829757611,-1.2220799581104724,-1.5921106253946422,2.458053756916785,-1.3127154508682126,1.7744780673852563
0.15000000000000002,-0.15000000000000002,0.1,-0.04318516525781363,-0.20176380902050414,0.09999999999999994,15,90.0,-90.0,0.11135118344696915,-0.7059734383305852,-1.2039867981603307,-1.2945239361005023,2.0733732876599382,-1.223923871771891,2.1237876175546133
0.15000000000000002,-0.15000000000000002,0.1,-0.023205080756887764,-0.25,0.1,30,90.0,-90.0,0.10610835253524505,-0.7066604511942006,-1.2584525191081821,-0.9553767291005341,1.7797328571344655,-1.3000224379744434,2.470169697709856
0.15000000000000002,-0.15000000000000002,0.1,0.008578643762690519,-0.29142135623730947,0.09999999999999992,45,90.0,-90.0,0.07926893033134252,-0.6529441229871243,-1.401177771712862,-1.4780504868178377,-1.4419402636481773,1.5362408733218034,-1.3104532051905893
0.15000000000000002,-0.2,0.1,0.09823619097949587,-0.006814834742186304,0.09999999999999998,-75,90.0,-90.0,0.05455838407983216,0.2849757126000478,-1.5331773325144251,-0.18429670946405036,1.5730820519053117,1.592895014947464,-2.9949451454873617
0.15000000000000002,-0.2,0.1,0.04999999999999999,-0.02679491924311228,0.09999999999999998,-60,90.0,-90.0,0.0946828564834996,0.2973577632790244,-1.3208039237016027,-0.743680006423703,1.462778133393219,1.3711362749656293,-2.6369222026963746
0.15000000000000002,-0.2,0.1,0.008578643762690491,-0.05857864376269048,0.09999999999999998,-45,90.0,-90.0,0.10986764167486675,0.3044674284602509,-1.2240494672620637,-1.1215376614023906,1.221762062062642,1.2335743540989152,-2.30727036934048
0.15000000000000002,-0.2,0.1,-0.023205080756887764,-0.1,0.09999999999999998,-30,90.0,-90.0,0.1088730557020301,0.2846316242425665,-1.2081255503008907,-1.4381594683293835,0.8711941952157807,1.2353414572252963,-1.9425180926736068
0.15000000000000002,-0.2,0.1,-0.04318516525781366,-0.14823619097949586,0.09999999999999996,-15,90.0,-90.0,0.11165618875932888,0.18508616520757687,-1.2453414388839639,-1.7084500789094479,0.4547773239254162,1.4015491374454496,-1.6522525843134068
0.15000000000000002,-0.2,0.1,-0.04999999999999999,-0.2,0.1,0,90.0,-90.0,0.11562396368609092,-0.03178230894727341,-1.2657365757340855,-1.8952091681197996,-0.031185632326543006,1.5897623314353144,-1.57237271266483
0.15000000000000002,-0.2,0.1,-0.04318516525781363,-0.25176380902050416,0.09999999999999994,15,90.0,-90.0,0.11460268323137822,-0.32284525492098887,-1.256351746302249,-1.931668502318974,-0.5844059868643101,1.6100247762911561,-1.5963147544931884
0.15000000000000002,-0.2,0.1,-0.023205080756887764,-0.30000000000000004,0.1,30,90.0,-90.0,0.09915667587103347,-0.5749976338501019,-1.3028666400122606,-1.7504064470498357,-1.0991481801367466,1.5312284631570703,-1.4911714162746044
0.15000000000000002,-0.2,0.1,0.008578643762690519,-0.3414213562373095,0.09999999999999992,45,90.0,-90.0,0.0671360608237504,-0.740701918279347,-1.4660573913996928,-0.34798911331709115,1.5809518971505416,-1.5272920480500511,2.8971524136934836
0.05,0.1,0.1,-0.05000000000000003,0.27320508075688776,0.09999999999999998,-60,90.0,-90.0,0.08026067105306041,0.7908037346776452,-1.4107054498368037,-1.4485938784901176,-1.31340194435828,-1.6453667963352225,1.2973630220181107
0.05,0.1,0.1,-0.09142135623730953,0.24142135623730954,0.09999999999999998,-45,90.0,-90.0,0.10943462798306268,0.7188102698207801,-1.2563162457249046,-1.9094978024164546,-1.6365250174130026,-1.5732519628355208,1.5941571136904402
0.05,0.1,0.1,-0.12320508075688778,0.2,0.09999999999999998,-30,90.0,-90.0,0.10576744698929133,0.5133696039621923,-1.1980972368780272,-2.1979682385368906,-2.0901842412702187,-1.6985791131610977,1.7910547742051586
0.05,0.1,0.1,-0.14318516525781366,0.15176380902050415,0.09999999999999996,-15,90.0,-90.0,0.07903602349979884,0.1375264460534877,-1.2606933677885015,-2.2813536132143266,-2.711025892976619,-1.9372956048259,1.733362829625996
0.05,0.1,0.1,-0.15000000000000002,0.1,0.1,0,90.0,-90.0,0.11226184796387384,0.7289236443614862,-1.266335458989307,-1.8774178277142595,0.7283342819138378,1.571659020228398,-1.5686712733373078
0.05,0.1,0.1,-0.14318516525781366,0.04823619097949588,0.09999999999999994,15,90.0,-90.0,0.10153984632191869,0.5294195782437066,-1.3374080217467212,-2.108169333439537,0.2789688705769269,1.862874655494696,-1.4884542361732436
0.05,0.1,0.1,-0.12320508075688778,0.0,0.1,30,90.0,-90.0,0.07897597575930018,0.15804818807662838,-1.2670543776478314,-2.278004015066074,-0.39519378058881915,1.9461193577646547,-1.7220981981611605
0.05,0.1,0.1,-0.0914213562373095,-0.04142135623730947,0.09999999999999992,45,90.0,-90.0,0.10473427159138651,-0.22281501121155725,-1.1994561376355135,-2.2001105691525202,-1.0230933236503343,1.7071164992644217,-1.7895364442446935
0.05,0.1,0.1,-0.05,-0.07320508075688775,0.09999999999999999,60,90.0,-90.0,0.10929307072068403,-0.43476494371846364,-1.254729787835052,-1.9150063443080294,-1.4819004922133083,1.5737388457682888,-1.5978346767195442
0.05,0.1,0.1,-0.0017638090205041451,-0.09318516525781367,0.09999999999999999,75,90.0,-90.0,0.08069112363063026,-0.5122129701777363,-1.4077841241722941,-1.4571462391994219,-1.8109856102826298,1.6388867691756432,-1.3028716204994102
0.05,-0.2,0.1,0.04999999999999997,5.551115123125783e-17,0.1,-90,90.0,-90.0,0.04619895314657013,0.2938845043707022,-1.5804102439832521,-0.07156042504860767,1.5950114771299042,1.8638949123071347,-3.0560769649302837
0.05,-0.2,0.1,-0.0017638090205041382,-0.006814834742186304,0.09999999999999998,-75,90.0,-90.0,0.09244238513446343,0.3204573642054448,-1.3430232508932523,-0.6771571513267123,1.596093973173496,1.6247753882200169,-2.691238809234599
0.05,-0.2,0.1,-0.05000000000000003,-0.02679491924311228,0.09999999999999998,-60,90.0,-90.0,0.11744051298342834,0.3520176567148531,-1.2219928893824217,-1.0799987981773256,1.4551062122828093,1.444127034197816,-2.4023071032692602
0.05,-0.2,0.1,-0.09142135623730953,-0.05857864376269048,0.09999999999999998,-45,90.0,-90.0,0.12480597014591312,0.3727528120039124,-1.1767155057990362,-1.4097545719431475,1.2152109864403604,1.358530992324814,-2.0871924295484603
0.05,-0.2,0.1,-0.12320508075688778,-0.1,0.09999999999999998,-30,90.0,-90.0,0.11611766858745043,0.3546133273434493,-1.2123932303487361,-1.705365657900534,0.8898868423809388,1.4287685885547299,-1.743368262060165
0.05,-0.2,0.1,-0.14318516525781366,-0.14823619097949586,0.09999999999999996,-15,90.0,-90.0,0.11260608420784692,0.23247408359425917,-1.2938801567480376,-1.959335920744273,0.49760437763023935,1.6690792630100222,-1.51858739231609
0.05,-0.2,0.1,-0.15000000000000002,-0.2,0.1,0,90.0,-90.0,0.09138311592729717,-0.04217642119295828,-1.3018895879465209,-2.163686701939644,-0.044422291552620695,1.8935871184719046,-1.5849632963502291
0.05,-0.2,0.1,-0.14318516525781366,-0.25176380902050416,0.09999999999999994,15,90.0,-90.0,0.09437209599947215,-0.43017771622293105,-1.2200674406340157,-2.216659621392186,-0.7128604658080835,1.7972639568557414,-1.7620691319980673
0.05,-0.2,0.1,-0.12320508075688778,-0.30000000000000004,0.1,30,90.0,-90.0,0.11404681645951094,-0.7179029251481138,-1.2273604698434022,-2.0225128729139352,-1.2437760767822144,1.6067000081337486,-1.6730888788161336
0.05,-0.2,0.1,-0.0914213562373095,-0.3414213562373095,0.09999999999999992,45,90.0,-90.0,0.09247229860239592,-0.8573489700785824,-1.3405912016993675,-1.6455886826799528,-1.6412501119428942,1.5810806375189121,-1.41591205032065
0.05,-0.2,0.1,-0.05,-0.37320508075688774,0.09999999999999999,60,90.0,-90.0,0.04681990830350322,-0.8837951238436502,-1.5862709346772725,-1.007527535210094,-1.8812229739438178,1.7553515277060703,-1.0528223513864394
0.25,-0.10000000000000002,0.1,0.14999999999999997,0.07320508075688771,0.09999999999999998,-60,90.0,-90.0,0.04460580483527805,0.3600514925656285,-1.5808011550948402,-0.07056584114030917,1.5569171421840688,1.407735477460749,-3.058925789231156
0.25,-0.10000000000000002,0.1,0.10857864376269047,0.04142135623730951,0.09999999999999998,-45,90.0,-90.0,0.08554699988792265,0.3606846984552954,-1.3510309161591632,-0.6670111898684654,1.376417708571499,1.189886369197444,-2.6565037242560594
0.25,-0.10000000000000002,0.1,0.07679491924311221,-1.3877787807814457e-17,0.09999999999999998,-30,90.0,-90.0,0.09484291349279392,0.3517581334736856,-1.2610491951934706,-1.0389817523553844,1.062083600770387,1.0728652958961116,-2.280057289893438
0.25,-0.10000000000000002,0.1,0.05681483474218632,-0.04823619097949587,0.09999999999999996,-15,90.0,-90.0,0.09672364660262016,0.30401365705100397,-1.251906991881856,-1.3459682359201213,0.6379562229735591,1.1177703911062173,-1.8831054548183517
0.25,-0.10000000000000002,0.1,0.04999999999999999,-0.10000000000000002,0.1,0,90.0,-90.0,0.10603723275999849,0.16372965733142272,-1.2780644167841906,-1.5813955570316092,0.16954917692468696,1.2919016506774221,-1.6175651560612758
0.25,-0.10000000000000002,0.1,0.05681483474218635,-0.15176380902050415,0.09999999999999994,15,90.0,-90.0,0.106392052912617,-0.0620577156584901,-1.29967186341633,-1.6783440575848525,-0.3268932814336654,1.416715490543606,-1.5176459233673365
0.25,-0.10000000000000002,0.1,0.07679491924311221,-0.2,0.1,30,90.0,-90.0,0.09063916259828388,-0.30460730145052645,-1.3507636228632822,-1.5761742277752275,-0.8395580740412895,1.425416229472243,-1.4111210644769097
0.25,-0.10000000000000002,0.1,0.1085786437626905,-0.24142135623730948,0.09999999999999992,45,90.0,-90.0,0.05614278148857662,2.6147527664167205,2.1755804017563434,-1.1858967407626895,-1.714106589705158,-1.355819510099984,-2.544893005438636
0.05,-0.25,0.1,-0.0017638090205041382,-0.05681483474218629,0.09999999999999998,-75,90.0,-90.0,0.09584948391103319,0.2530237283412425,-1.322097454675002,-1.6996248212015939,-1.5802093404090571,-1.5690949333458701,1.4499423776367555
0.05,-0.25,0.1,-0.05000000000000003,-0.07679491924311227,0.09999999999999998,-60,90.0,-90.0,0.11521625172261185,0.08821638258940119,-1.2238938992327215,-2.042141351975886,-2.002481058388352,-1.6228884366984675,1.6830584268039708
0.05,-0.25,0.1,-0.09142135623730953,-0.10857864376269047,0.09999999999999998,-45,90.0,-90.0,0.09422465253073602,-0.21990292849410784,-1.2322947584554065,-2.187880655291166,-2.5573223304597588,-1.804326438418129,1.7224775858301795
0.05,-0.25,0.1,-0.12320508075688778,-0.15,0.09999999999999998,-30,90.0,-90.0,0.11443488611146353,0.2595738502691498,-1.2246553968725256,-1.7385460646517914,0.7909194516025061,1.4444815362556902,-1.6967622099120927
0.05,-0.25,0.1,-0.14318516525781366,-0.19823619097949585,0.09999999999999996,-15,90.0,-90.0,0.11318241888907622,0.10643262089349789,-1.2946939437725384,-1.981403942349451,0.37231358358624794,1.6971266869937698,-1.521249350649826
0.05,-0.25,0.1,-0.15000000000000002,-0.25,0.1,0,90.0,-90.0,0.09245145387357653,-0.19558309184199343,-1.276032245841124,-2.1600507702364653,-0.20411627664627685,1.8593853562756193,-1.6288656794905874
0.05,-0.25,0.1,-0.14318516525781366,-0.30176380902050415,0.09999999999999994,15,90.0,-90.0,0.10460200952469532,-0.560529005084783,-1.215940119329917,-2.148694790453632,-0.8341310836332434,1.7217860047350093,-1.7348800951631875
0.05,-0.25,0.1,-0.12320508075688778,-0.35,0.1,30,90.0,-90.0,0.10841945789768835,-0.8071669674156723,-1.2567574847647902,-1.9078830497759114,-1.3315927937176073,1.5761844420501283,-1.5921977974164554
0.05,-0.25,0.1,-0.0914213562373095,-0.39142135623730945,0.09999999999999992,45,90.0,-90.0,0.08048467768580943,-0.9182442340067499,-1.4028041587173463,-1.4731491533260204,-1.6989118083092547,1.6047126308296742,-1.3063939465022771
0.2,-0.15000000000000002,0.1,0.09999999999999998,0.023205080756887708,0.09999999999999998,-60,90.0,-90.0,0.07518272059342285,0.33111266992120825,-1.4196810173892789,-0.46751978134135225,1.5112961247687422,1.3885417789268555,-2.819170005902739
0.2,-0.15000000000000002,0.1,0.05857864376269048,-0.008578643762690491,0.09999999999999998,-45,90.0,-90.0,0.099905164440384,0.33591577985087806,-1.275590016448687,-0.9119154214187272,1.2975127954707588,1.2084131307332704,-2.473323450121884
0.2,-0.15000000000000002,0.1,0.026794919243112225,-0.05000000000000002,0.09999999999999998,-30,90.0,-90.0,0.10303866859063365,0.323694489423035,-1.224241006941735,-1.2478520943538682,0.9658245167389168,1.147903274736444,-2.1065492686396636
0.2,-0.15000000000000002,0.1,0.006814834742186332,-0.09823619097949587,0.09999999999999996,-15,90.0,-90.0,0.10553416659962957,0.2534175044934026,-1.2402344414448019,-1.5383121654097507,0.5447842576401399,1.2557625363398324,-1.7548900471580748
0.2,-0.15000000000000002,0.1,0.0,-0.15000000000000002,0.1,0,90.0,-90.0,0.11303987197146703,0.07767122277657665,-1.2681982719998988,-1.7480973170537706,0.07905910526898072,1.4456462863031354,-1.581305441467616
0.2,-0.15000000000000002,0.1,0.00681483474218636,-0.20176380902050414,0.09999999999999994,15,90.0,-90.0,0.11171743064525627,2.9443207548304517,1.2757633290757868,1.8183046512059808,2.6813207199607247,1.5275933717628787,-1.549083809543914
0.2,-0.15000000000000002,0.1,0.026794919243112225,-0.25,0.1,30,90.0,-90.0,0.09603265991534464,2.694071624489621,1.3218963241338297,1.6806599854548148,2.166071942202656,1.4915939247014007,-1.4548359890095535
0.2,-0.15000000000000002,0.1,0.05857864376269051,-0.29142135623730947,0.09999999999999992,45,90.0,-90.0,0.06369895083991899,2.4815383175031305,1.4817928039989678,0.3100725638547239,-1.542396731372939,-1.4495958415463475,-3.364029840204645
0.2,-0.25,0.1,0.14823619097949586,-0.05681483474218629,0.09999999999999998,-75,90.0,-90.0,0.026082286031035747,-2.9476001185516756,1.9799117014138985,-0.7998431749067066,-1.544711498473087,1.508995529850515,2.75077242536365
0.2,-0.25,0.1,0.09999999999999998,-0.07679491924311227,0.09999999999999998,-60,90.0,-90.0,0.08218313378116157,0.21149671184301302,-1.378128928930888,-0.5842339132555933,1.4470090129736644,1.282582335874762,-2.7310459662708086
0.2,-0.25,0.1,0.05857864376269048,-0.10857864376269047,0.09999999999999998,-45,90.0,-90.0,0.09850889861704423,0.20918749403313824,-1.2628481139951375,-0.9848071061471064,1.1849085341779146,1.1328629036786335,-2.3768495137857
0.2,-0.25,0.1,0.026794919243112225,-0.15,0.09999999999999998,-30,90.0,-90.0,0.09907327133228855,0.18120189168963305,-1.2353819545974771,-1.3065616105291114,0.7997881469637783,1.125587902124661,-1.9881864749754092
0.2,-0.25,0.1,0.006814834742186332,-0.19823619097949585,0.09999999999999996,-15,90.0,-90.0,0.10596078526156687,0.07524919259038451,-1.2602136547842824,-1.5714952282030057,0.35336010835185167,1.2795039410292106,-1.6760559862160633
0.2,-0.25,0.1,0.0,-0.25,0.1,0,90.0,-90.0,0.11159302360947541,-0.1340171396449661,-1.2808248285471147,-1.7305590330306158,-0.1356261028021552,1.442561877620612,-1.5530777871581005
0.2,-0.25,0.1,0.00681483474218636,-0.30176380902050415,0.09999999999999994,15,90.0,-90.0,0.10248553383084995,-0.39066961305824927,-1.3033829852732464,-1.7166992936088301,-0.6569350702013412,1.474058287021009,-1.4958667978136706
0.2,-0.25,0.1,0.026794919243112225,-0.35,0.1,30,90.0,-90.0,0.07911820241090003,-0.6077985084559908,-1.4009560677282613,-1.463458958293703,-1.1470732720237173,1.453972883608627,-1.3195374986393367
0.2,-0.25,0.1,0.05857864376269051,-0.39142135623730945,0.09999999999999992,45,90.0,-90.0,0.014267385590026507,-0.73884607291686,-1.909913629397057,0.6550159963124621,1.5559230158447077,-1.527652429783784,-2.8244722051432865
0.1,-0.05,0.1,0.048236190979495865,0.14318516525781372,0.09999999999999998,-75,90.0,-90.0,0.05013448816252496,-2.6312561671072787,2.1139705552203854,-1.066496794291633,-1.6973455250751217,1.7861492538855106,2.6038497964423253
0.1,-0.05,0.1,-2.7755575615628914e-17,0.12320508075688773,0.09999999999999998,-60,90.0,-90.0,0.09322849389962563,-2.656961659570528,1.3334337165502603,1.6665692015351141,1.5317764718497153,-1.5645077332044062,1.4299967615406688
0.1,-0.05,0.1,-0.041421356237309526,0.09142135623730953,0.09999999999999998,-45,90.0,-90.0,0.11343246923943079,-2.8263083467288093,1.230967375199998,2.012175030883678,1.1032083466240339,-1.6159442829979576,1.6608099228438102
0.1,-0.05,0.1,-0.07320508075688778,0.05,0.09999999999999998,-30,90.0,-90.0,0.12070337299180121,0.5437648657210253,-1.1817627742863672,-1.4257424553080402,1.1282857210920045,1.3219079602752661,-2.0485671823413245
0.1,-0.05,0.1,-0.09318516525781367,0.0017638090205041451,0.09999999999999996,-15,90.0,-90.0,0.11423593047542956,0.5050879316395942,-1.2223612899454925,-1.7170303743882382,0.7764790000514425,1.4255649347428911,-1.7115282606840752
0.1,-0.05,0.1,-0.1,-0.05,0.1,0,90.0,-90.0,0.1137110139310253,0.3522342000611813,-1.2863622336839327,-1.9606179470056646,0.354706181141625,1.6698583718395676,-1.5336562918009269
0.1,-0.05,0.1,-0.09318516525781365,-0.10176380902050414,0.09999999999999994,15,90.0,-90.0,0.09613912747455275,0.05615742445275999,-1.2697658824427267,-2.1324835304188734,-0.2130974245251812,1.8248862526381653,-1.625838730346517
0.1,-0.05,0.1,-0.07320508075688778,-0.15000000000000002,0.1,30,90.0,-90.0,0.10759047089257441,-0.2956437472296402,-1.2209269091022157,-2.114698826189383,-0.8279404215854702,1.7037589288372987,-1.7138158367383802
0.1,-0.05,0.1,-0.0414213562373095,-0.1914213562373095,0.09999999999999992,45,90.0,-90.0,0.10623198217018238,-0.5373715439007856,-1.2677713917450344,-1.8712260215186483,-1.3228067797544591,1.571029658714188,-1.5675891384501048
0.1,-0.05,0.1,0.0,-0.22320508075688777,0.09999999999999999,60,90.0,-90.0,0.07674790907148503,2.521829817325582,1.4203130800514674,0.4649119068211153,-1.6011752557172314,-1.6611464796774307,2.8248508166203714
0.25,-0.05000000000000002,0.1,0.14999999999999997,0.12320508075688771,0.09999999999999998,-60,90.0,-90.0,0.029332976595164702,0.40425124383042266,-2.0001465510243874,0.8408970725491396,1.6192230839665638,1.4625402632050848,2.727092528900287
0.25,-0.05000000000000002,0.1,0.10857864376269047,0.09142135623730951,0.09999999999999998,-45,90.0,-90.0,0.08125965447806463,-2.9092633048311844,1.3920885708478774,1.4780652062614659,1.0350598909917452,-1.4294932682031087,1.3388259443810713
0.25,-0.05000000000000002,0.1,0.07679491924311221,0.04999999999999999,0.09999999999999998,-30,90.0,-90.0,0.10257226085586481,0.020025007000247598,-1.3091707871387424,-1.6792927895812866,-2.592093546889779,-1.4397049763502554,1.4911574966394407
0.25,-0.05000000000000002,0.1,0.05681483474218632,0.0017638090205041312,0.09999999999999996,-15,90.0,-90.0,0.1087730337497642,2.9014555677536866,1.2848633010622164,1.6519090134734045,0.021282133499287408,-1.3662669465947606,1.5671528718526953
0.25,-0.05000000000000002,0.1,0.04999999999999999,-0.05000000000000002,0.1,0,90.0,-90.0,0.10090974392933995,2.7206318423848184,1.2597275881162497,1.4645367920063315,-0.4549093143316496,-1.190893497448734,1.7493339308750535
0.25,-0.05000000000000002,0.1,0.05681483474218635,-0.10176380902050414,0.09999999999999994,15,90.0,-90.0,0.09561904483862088,2.640087016675261,1.246877965296088,1.1801520490508506,-0.9011019448859031,-1.0777541447800747,2.110060403309893
0.25,-0.05000000000000002,0.1,0.07679491924311221,-0.15000000000000002,0.1,30,90.0,-90.0,0.09293558218607749,2.621891584184596,1.299048560558901,0.8424518968991774,-1.2647323974382036,-1.132999163701899,2.5019555057196254
0.25,-0.05000000000000002,0.1,0.1085786437626905,-0.1914213562373095,0.09999999999999992,45,90.0,-90.0,0.06807056774093223,2.6204022523822497,1.4533786847449965,0.38243184821057746,-1.4993738044019125,-1.315512088533093,2.867436050241782
0.05,0.0,0.1,-0.0017638090205041382,0.1931851652578137,0.09999999999999998,-75,90.0,-90.0,0.059479043528029046,-2.5851084196685816,1.5105037859749757,0.23897575966755694,-1.5167695181073115,1.8606556878443996,-2.954670387415117
0.05,0.0,0.1,-0.05000000000000003,0.17320508075688773,0.09999999999999998,-60,90.0,-90.0,0.09898683305943087,-2.5512517562086447,1.3112735597049034,0.7685086299510152,-1.5378685411755226,1.6282079780789518,-2.6309809454936075
0.05,0.0,0.1,-0.09142135623730953,0.14142135623730953,0.09999999999999998,-45,90.0,-90.0,0.1217476135014608,-2.5151929870053737,1.2056461852691978,1.1484211799158883,-1.6833215952724871,1.459626365061727,-2.351553935311697
0.05,0.0,0.1,-0.12320508075688778,0.1,0.09999999999999998,-30,90.0,-90.0,0.1268587563399751,-2.4908660094880744,1.1719816289652534,1.4698561574141487,-1.9220624623358802,1.3842197657317308,-2.038441720733352
0.05,0.0,0.1,-0.14318516525781366,0.05176380902050415,0.09999999999999996,-15,90.0,-90.0,0.11543762496308396,-2.507987192438659,1.2229927959328963,1.7588915965238974,-2.2394656368134225,1.4714436214248048,-1.6951815747010306
0.05,0.0,0.1,-0.15000000000000002,0.0,0.1,0,90.0,-90.0,0.11027587516436634,-2.6357924603525604,1.3189943984362111,2.0112252709144034,-2.627427367381502,1.73477827116131,-1.4780537505182407
0.05,0.0,0.1,-0.14318516525781366,-0.05176380902050413,0.09999999999999994,15,90.0,-90.0,0.11583134482144833,2.4934239977699115,1.2228962829946493,1.7594574283478293,-0.9160411161604484,-1.4737687086615239,1.6961096934254896
0.05,0.0,0.1,-0.12320508075688778,-0.1,0.1,30,90.0,-90.0,0.12738086709416446,2.478899066455873,1.1712154562932418,1.4707010305268688,-1.2302994056366758,-1.3898555755101083,2.038519803319782
0.05,0.0,0.1,-0.0914213562373095,-0.14142135623730948,0.09999999999999992,45,90.0,-90.0,0.12194908489671352,2.5048243329453124,1.2043704933298622,1.1506558902427388,-1.465231434481349,-1.4645680987497065,2.3508502367102593
0.05,0.0,0.1,-0.05,-0.17320508075688776,0.09999999999999999,60,90.0,-90.0,0.09898618934463349,2.541418578259046,1.3120998466671077,0.7678997621608978,-1.6072441704876435,-1.6371115404248209,2.6314377053114426
0.05,0.0,0.1,-0.0017638090205041451,-0.19318516525781368,0.09999999999999999,75,90.0,-90.0,0.059628872807421844,2.5764535286138663,1.51006729591709,0.23980914129659978,-1.6270350156388926,-1.8680878736813291,2.952997961662539
0.0,0.15000000000000002,0.1,-0.05176380902050414,0.34318516525781373,0.09999999999999998,-75,90.0,-90.0,0.010608690459896335,0.8041999715591245,-1.8817483903772636,0.5889818268966243,1.4059136851600702,2.090017859900791,2.819870999496741
0.0,0.15000000000000002,0.1,-0.10000000000000003,0.32320508075688775,0.09999999999999998,-60,90.0,-90.0,0.0802654327504514,0.8003750191999993,-1.4050055962554424,-0.5094761879202415,1.6654844360972334,1.8308607433389148,-2.785823848919018
0.0,0.15000000000000002,0.1,-0.14142135623730953,0.2914213562373096,0.09999999999999998,-45,90.0,-90.0,0.11119198390305766,0.845279575239257,-1.25579736113099,-0.9470477524529222,1.6061287052171593,1.6184128490778777,-2.507954991665817
0.0,0.15000000000000002,0.1,-0.17320508075688779,0.25,0.09999999999999998,-30,90.0,-90.0,0.1294331232646781,0.8889537177528761,-1.178284871106984,-1.2952438048820087,1.445598999116571,1.473322177273328,-2.2320222743839073
0.0,0.15000000000000002,0.1,-0.19318516525781368,0.20176380902050417,0.09999999999999996,-15,90.0,-90.0,0.12707391817572658,0.9182988347288459,-1.1768305706089919,-1.5996900127481124,1.202292318583591,1.434952326521093,-1.9108980660167605
0.0,0.15000000000000002,0.1,-0.2,0.15000000000000002,0.1,0,90.0,-90.0,0.11176569041984293,0.8940018802873458,-1.265656338901203,-1.8728969989188324,0.8947733983410029,1.569847653325379,-1.5740690475839347
0.0,0.15000000000000002,0.1,-0.19318516525781365,0.0982361909794959,0.09999999999999994,15,90.0,-90.0,0.10401820429703876,0.7380002936455758,-1.3854478757848365,-2.1097055098171262,0.5025029152387183,1.8830841367149158,-1.4025252233078234
0.0,0.15000000000000002,0.1,-0.17320508075688779,0.05000000000000002,0.1,30,90.0,-90.0,0.06404683259171559,0.3901419318527301,-1.3503865187975213,-2.341339880141902,-0.15557202630104058,2.114745728574982,-1.6522191821834344
0.0,0.15000000000000002,0.1,-0.1414213562373095,0.008578643762690547,0.09999999999999992,45,90.0,-90.0,0.08470609704749091,-0.09780160885566372,-1.1966485819417891,-2.363090652770503,-0.9275409945259672,1.8307449019187378,-1.90183902603442
0.0,0.15000000000000002,0.1,-0.1,-0.023205080756887736,0.09999999999999999,60,90.0,-90.0,0.11689258372329407,-0.36762829949516274,-1.2018902374698244,-2.124751012609967,-1.4183470185143605,1.5992740445522076,-1.7534824057354514
0.0,0.15000000000000002,0.1,-0.05176380902050415,-0.04318516525781366,0.09999999999999999,75,90.0,-90.0,0.10052925154911531,-0.4744639641551545,-1.306855373379693,-1.74375887840865,-1.7819073508555672,1.589523850219248,-1.4809670937129757
0.0,0.15000000000000002,0.1,-3.140184917367551e-17,-0.050000000000000044,0.1,90,90.0,-90.0,0.06344178858709913,-0.3545503904379713,-1.4895873238948452,-0.29057284207817047,1.4930395701817398,-1.916848057733294,2.917798790728053
0.2,0.0,0.1,0.09999999999999998,0.17320508075688773,0.09999999999999998,-60,90.0,-90.0,0.04801614202296332,0.5004770512560666,-1.5662095660850985,-0.10489681305527884,1.5682735659816014,1.5484359903818745,3.241180370057995
0.2,0.0,0.1,0.05857864376269048,0.14142135623730953,0.09999999999999998,-45,90.0,-90.0,0.09081487952127848,0.5089294826065427,-1.3371762415081583,-0.6993541545787945,1.4429261694110012,1.3240832535312297,3.6225031953161686
0.2,0.0,0.1,0.026794919243112225,0.1,0.09999999999999998,-30,90.0,-90.0,0.10932334306097169,-3.0227968592699823,1.2744698186334091,1.835686863181965,0.6433264843735079,-1.545666183493089,1.552662512071971
0.2,0.0,0.1,0.006814834742186332,0.05176380902050415,0.09999999999999996,-15,90.0,-90.0,0.11533004353250018,2.984916778269575,1.2683448609339,1.8321772950815032,0.1059553725623878,-1.5294772359987874,1.5660147651202816
0.2,0.0,0.1,0.0,0.0,0.1,0,90.0,-90.0,0.10993745568377215,2.7658225454758294,1.2504675409440384,1.6630366230916056,-0.385659190688541,-1.3583963106978705,1.6553136766132692
0.2,0.0,0.1,0.00681483474218636,-0.05176380902050413,0.09999999999999994,15,90.0,-90.0,0.10484057160007271,2.6573704825709092,1.2188593695636916,1.397247126579202,-0.8195494569853787,-1.1929376147971704,1.9461986537386669
0.2,0.0,0.1,0.026794919243112225,-0.1,0.1,30,90.0,-90.0,0.10529399079059437,2.6305146997600133,1.237311152119648,1.0823754769035574,-1.1849799273161687,-1.1873457757984265,2.316004859537415
0.2,0.0,0.1,0.05857864376269051,-0.14142135623730948,0.09999999999999992,45,90.0,-90.0,0.090825100553992,2.6329606791102576,1.3367717463405433,0.6995790279330432,-1.4440038540304654,-1.3232960835819445,2.6604817980263493
0.2,0.0,0.1,0.1,-0.17320508075688776,0.09999999999999999,60,90.0,-90.0,0.048267537286420276,2.641157122328181,1.5648177340256424,0.1081170191361095,-1.5682953185756658,-1.5469335320639375,3.0386272842581827
0.1,0.1,0.1,-2.7755575615628914e-17,0.27320508075688776,0.09999999999999998,-60,90.0,-90.0,0.06397969032540451,-2.4770865088285414,1.485732484116066,0.2986599691563622,-1.5397516750209692,1.7084975454937488,-2.925130461557197
0.1,0.1,0.1,-0.041421356237309526,0.24142135623730954,0.09999999999999998,-45,90.0,-90.0,0.10112145807375351,-2.452079569104225,1.297464391379739,0.8126592507419144,-1.6208814785814871,1.4884017818171635,-2.5995461943007587
0.1,0.1,0.1,-0.07320508075688778,0.2,0.09999999999999998,-30,90.0,-90.0,0.11893836034400668,-2.431629800427264,1.2033017096540264,1.183806359969819,-1.8198535962265405,1.3422244037646476,-2.296281610542473
0.1,0.1,0.1,-0.09318516525781367,0.15176380902050415,0.09999999999999996,-15,90.0,-90.0,0.11784537532300726,-2.431417184453119,1.1888839943316747,1.5000268567636892,-2.121831303767502,1.322131191933165,-1.9518534504891647
0.1,0.1,0.1,-0.1,0.1,0.1,0,90.0,-90.0,0.11311038092080737,-2.4994544984234808,1.2411446371597976,1.78191967484026,-2.49592165096873,1.4756659467599524,-1.6412294099083786
0.1,0.1,0.1,-0.09318516525781365,0.04823619097949588,0.09999999999999994,15,90.0,-90.0,0.1106057957826964,-2.6955563449832702,1.2886856767583958,2.0090703040182376,-2.9545813982415114,1.7252020276454463,-1.5420028138147805
0.1,0.1,0.1,-0.07320508075688778,0.0,0.1,30,90.0,-90.0,0.11814661102557025,-0.46245766566857577,-1.1868759172351873,-1.4849605884827515,2.1035473244952305,-1.317936729130167,1.971107604849458
0.1,0.1,0.1,-0.0414213562373095,-0.04142135623730947,0.09999999999999992,45,90.0,-90.0,0.11475294657496424,2.93408547447846,1.2246053391777145,2.0519272919246925,2.144269267334672,1.643578384733988,-1.6836184537444063
0.1,0.1,0.1,0.0,-0.07320508075688775,0.09999999999999999,60,90.0,-90.0,0.09891924727310672,2.7366267631528265,1.3047389344950657,1.7506506162468904,1.6880176982709252,1.5598085432287792,-1.4860651842417647
0.1,0.1,0.1,0.04823619097949586,-0.09318516525781367,0.09999999999999999,75,90.0,-90.0,0.06131058043997511,-0.41489770313626756,-1.5000015308477201,-0.26432279806801084,1.540711720432411,-1.7215831275332176,2.945305882825112
0.2,0.15000000000000002,0.1,0.05857864376269048,0.2914213562373096,0.09999999999999998,-45,90.0,-90.0,0.06376351804817267,0.659829432943985,-1.4810163666409153,-0.31103111708598546,1.5433788863032962,1.4484374131248519,-2.917835915762575
0.2,0.15000000000000002,0.1,0.026794919243112225,0.25,0.09999999999999998,-30,90.0,-90.0,0.09596877979762666,0.6659460279621968,-1.3028277789111038,-0.8114205562262188,1.3652968668058887,1.2463195376078064,-2.5637373760656237
0.2,0.15000000000000002,0.1,0.006814834742186332,0.20176380902050417,0.09999999999999996,-15,90.0,-90.0,0.10328957361590554,0.6602195035413005,-1.2292248818241367,-1.1661600497842561,1.0628251135241642,1.1471315608088837,-2.2057508156710233
0.2,0.15000000000000002,0.1,0.0,0.15000000000000002,0.1,0,90.0,-90.0,0.10389694801789179,0.6113766595529339,-1.2320127679922244,-1.4672444704997791,0.6606437582773443,1.2119061364660306,-1.836553965107223
0.2,0.15000000000000002,0.1,0.00681483474218636,0.0982361909794959,0.09999999999999994,15,90.0,-90.0,0.1114742966843116,0.463665910032175,-1.2632730545349615,-1.7050398277206296,0.20392508344689514,1.40043016734072,-1.6054457450230086
0.2,0.15000000000000002,0.1,0.026794919243112225,0.05000000000000002,0.1,30,90.0,-90.0,0.11369080659847691,0.22083644293278284,-1.2740694305077285,-1.8169945767906797,-0.30214128521119377,1.5231794481903311,-1.5549960758042927
0.2,0.15000000000000002,0.1,0.05857864376269051,0.008578643762690547,0.09999999999999992,45,90.0,-90.0,0.10114940842108736,-0.042771265556294784,-1.301643910689683,-1.7396353312980228,-0.8302591529963833,1.5033658839683794,-1.4965112867206352
0.2,0.15000000000000002,0.1,0.1,-0.023205080756887736,0.09999999999999999,60,90.0,-90.0,0.07517852877323623,-0.3223274261220061,-1.419632229693085,-0.4678804092006146,1.6334003285854553,-1.379648288482319,2.8188336817443345
0.15000000000000002,0.0,0.1,0.04999999999999999,0.17320508075688773,0.09999999999999998,-60,90.0,-90.0,0.07046614703083501,0.5319890563234522,-1.450625912024683,-0.3875689839953689,1.572725704666159,1.5786108905983032,3.4089802734872867
0.15000000000000002,0.0,0.1,0.008578643762690491,0.14142135623730953,0.09999999999999998,-45,90.0,-90.0,0.10295963485386503,0.5488379236100964,-1.281016599750267,-0.8690162978198969,1.4402859177758234,1.3728801090495053,3.732874048815435
0.15000000000000002,0.0,0.1,-0.023205080756887764,0.1,0.09999999999999998,-30,90.0,-90.0,0.11413371237456985,-3.0084513023873516,1.2438108022522136,1.9957901530592375,0.6580280843121107,-1.6474392649025777,1.630946960571006
0.15000000000000002,0.0,0.1,-0.04318516525781366,0.05176380902050415,0.09999999999999996,-15,90.0,-90.0,0.11257195863644384,2.9651951868086366,1.2670192672545557,1.9739383469489291,0.08638510475681514,-1.670573267126352,1.5785733928626926
0.15000000000000002,0.0,0.1,-0.04999999999999999,0.0,0.1,0,90.0,-90.0,0.11359273069247115,2.724705330607749,1.2531726354653017,1.7950914270600813,-0.4192862965854457,-1.485220441594338,1.6087340300846893
0.15000000000000002,0.0,0.1,-0.04318516525781363,-0.05176380902050413,0.09999999999999994,15,90.0,-90.0,0.11155680624827168,2.6091399297284132,1.2065008582869714,1.5333368599258437,-0.8355101999969172,-1.292511501282053,1.8645468363755124
0.15000000000000002,0.0,0.1,-0.023205080756887764,-0.1,0.1,30,90.0,-90.0,0.11381577064308693,-0.5469564564250357,-1.206001513138681,-1.2239231068721679,1.9627032926300851,-1.2525702937980883,2.2185364055309096
0.15000000000000002,0.0,0.1,0.008578643762690519,-0.14142135623730948,0.09999999999999992,45,90.0,-90.0,0.10282752503490113,-0.53959435405269,-1.2818469798622938,-0.8685900724154548,1.7084097787165895,-1.3653157898651853,2.5483567701572216
0.15000000000000002,0.0,0.1,0.05000000000000002,-0.17320508075688776,0.09999999999999999,60,90.0,-90.0,0.07026443545665444,-0.5229923473833028,-1.4514638630893604,-0.3854127384185701,1.5709799313144732,-1.5711483633806163,2.8764404661470437
0.1,-0.05000000000000002,0.1,0.048236190979495865,0.1431851652578137,0.09999999999999998,-75,90.0,-90.0,0.05043546340276635,0.5204379796226556,-2.115854801830713,1.0701247132812903,1.4396311347368542,1.7942896845108767,2.601692093770656
0.1,-0.05000000000000002,0.1,-2.7755575615628914e-17,0.12320508075688771,0.09999999999999998,-60,90.0,-90.0,0.09338681316863945,0.499858418543465,-1.333680923316414,-1.665542347597,-1.5933413672457661,-1.5667732482296577,1.42780272177068
0.1,-0.05000000000000002,0.1,-0.041421356237309526,0.09142135623730951,0.09999999999999998,-45,90.0,-90.0,0.11426752075621693,0.33352632983511815,-1.2311242271518712,-2.011935364075185,-2.0199449199827972,-1.6151385518370505,1.6619782439320046
0.1,-0.05000000000000002,0.1,-0.07320508075688778,0.04999999999999999,0.09999999999999998,-30,90.0,-90.0,0.09752892293032714,0.031349413795869176,-1.2340716859442193,-2.156045954284098,-2.5720817927086475,-1.7806653494923068,1.703693466190183
0.1,-0.05000000000000002,0.1,-0.09318516525781367,0.0017638090205041312,0.09999999999999996,-15,90.0,-90.0,0.11424756737979837,0.5051527626324256,-1.2220780272752947,-1.7163262696360233,0.7778558339668823,1.4250461071454448,-1.7132745291637566
0.1,-0.05000000000000002,0.1,-0.1,-0.05000000000000002,0.1,0,90.0,-90.0,0.11367354512963682,0.3516974067438477,-1.2860493389387753,-1.9615490308591192,0.3526256918359649,1.669995909370983,-1.5337300868122725
0.1,-0.05000000000000002,0.1,-0.09318516525781365,-0.10176380902050414,0.09999999999999994,15,90.0,-90.0,0.09620960710203448,0.05753971240683984,-1.2700200192710673,-2.131804017579917,-0.21018810907690344,1.8246364725639872,-1.62370155856359
0.1,-0.05000000000000002,0.1,-0.07320508075688778,-0.15000000000000002,0.1,30,90.0,-90.0,0.1076040599824074,-0.2958312809521727,-1.2206233066453018,-2.1147996500593047,-0.8281402679537295,1.7025433731076849,-1.7136241580458589
0.1,-0.05000000000000002,0.1,-0.0414213562373095,-0.1914213562373095,0.09999999999999992,45,90.0,-90.0,0.1062647627531444,-0.5367166581423012,-1.267168709335587,-1.8720273237423153,-1.3214345683956887,1.5701014992987041,-1.5676439139152516
0.1,-0.05000000000000002,0.1,0.0,-0.22320508075688777,0.09999999999999999,60,90.0,-90.0,0.07656430881988584,-0.6107132353215972,-1.4213237251384159,-0.46302808278756136,1.543223776095806,-1.654398959008512,2.8264253037722407
0.2,-0.05000000000000002,0.1,0.09999999999999998,0.12320508075688771,0.09999999999999998,-60,90.0,-90.0,0.060442494993694765,0.4456402552159264,-1.499845953881877,-0.26484606152298173,1.555345784893992,1.4934697682491085,3.3351937190144345
0.2,-0.05000000000000002,0.1,0.05857864376269048,0.09142135623730951,0.09999999999999998,-45,90.0,-90.0,0.09550180849854024,0.4535627212659889,-1.3098234187188624,-0.7850991337416584,1.3992300300046163,1.2846124115359847,3.690793215937646
0.2,-0.05000000000000002,0.1,0.026794919243112225,0.04999999999999999,0.09999999999999998,-30,90.0,-90.0,0.10542569503735122,0.4523382759532888,-1.2281504770252034,-1.1483773515814992,1.115876359484197,1.1721719422321148,-2.2424180095526065
0.2,-0.05000000000000002,0.1,0.006814834742186332,0.0017638090205041312,0.09999999999999996,-15,90.0,-90.0,0.10496209297270712,0.4133248951208451,-1.224145248091329,-1.4555479634648352,0.7295249368357529,1.2144419631776175,-1.8731140457805295
0.2,-0.05000000000000002,0.1,0.0,-0.05000000000000002,0.1,0,90.0,-90.0,0.11143309563090463,0.28147303750748615,-1.2575195441787188,-1.70504096948603,0.28638140651279337,1.398607385295292,-1.6215714000429788
0.2,-0.05000000000000002,0.1,0.00681483474218636,-0.10176380902050414,0.09999999999999994,15,90.0,-90.0,0.11538076042058154,0.04469747876722844,-1.268969315034205,-1.844067608616352,-0.21660000844378344,1.5429429532136723,-1.5648391559704347
0.2,-0.05000000000000002,0.1,0.026794919243112225,-0.15000000000000002,0.1,30,90.0,-90.0,0.10600182717178663,-0.22810791542213524,-1.2833209408029385,-1.8040816101032366,-0.7514152634963671,1.5318360462643177,-1.5343324434257533
0.2,-0.05000000000000002,0.1,0.05857864376269051,-0.1914213562373095,0.09999999999999992,45,90.0,-90.0,0.08324561050683553,-0.44164168431714973,-1.3793169655453916,-1.5287490673347797,-1.2363187603001817,1.492252745474224,-1.3495153886943527
0.2,-0.05000000000000002,0.1,0.1,-0.22320508075688777,0.09999999999999999,60,90.0,-90.0,0.02806621822927627,-0.5458108875227743,-1.6731280116878875,0.142375163833079,1.570963717644301,-1.5933201713885858,3.180707980886838
0.35,-0.15000000000000002,0.1,0.20857864376269045,-0.008578643762690491,0.09999999999999998,-45,90.0,-90.0,0.05242334143360515,0.11527025004731536,-2.1643409264187037,1.1382714037537103,1.959068883906875,1.0109161593942935,2.484087811954589
0.35,-0.15000000000000002,0.1,0.1767949192431122,-0.05000000000000002,0.09999999999999998,-30,90.0,-90.0,0.06928451235701667,-2.931156552069209,1.3697596669053898,0.6759340813110788,-2.041091653532711,0.849822558879588,-2.486554682455962
0.35,-0.15000000000000002,0.1,0.1568148347421863,-0.09823619097949587,0.09999999999999996,-15,90.0,-90.0,0.07281914189921565,-2.968276485978666,1.3442842839186884,0.990948282486973,-2.5490646584128225,0.8572313640227054,-1.9857709826533785
0.35,-0.15000000000000002,0.1,0.14999999999999997,-0.15000000000000002,0.1,0,90.0,-90.0,0.07203028914278767,-0.4631085373622647,-1.343521938913939,-0.9672501587576463,2.504189516078892,-0.8491369523300811,2.025119725704004
0.35,-0.15000000000000002,0.1,0.15681483474218633,-0.20176380902050414,0.09999999999999994,15,90.0,-90.0,0.06907315985582581,-0.4952415400993216,-1.3755795966853428,-0.6464688297195006,2.002998531236576,-0.8570281195618235,2.5267941052965246
0.35,-0.15000000000000002,0.1,0.1767949192431122,-0.25,0.1,30,90.0,-90.0,0.04929748267801157,-0.5074892786090367,-1.5390953945564205,-0.1720160208858138,1.6551067947283467,-1.0378857850995904,2.9786692085968585
0.15000000000000002,-0.05,0.1,0.04999999999999999,0.12320508075688773,0.09999999999999998,-60,90.0,-90.0,0.07872873975175146,-2.6995666375406087,1.4052445366837267,1.4688398980103938,1.492878739169336,-1.550028607461661,1.30475486840485
0.15000000000000002,-0.05,0.1,0.008578643762690491,0.09142135623730953,0.09999999999999998,-45,90.0,-90.0,0.10570012027971983,-2.8625446870041587,1.2719226672323476,1.853464497130732,1.0648713732932265,-1.5621883971764905,1.555634938201935
0.15000000000000002,-0.05,0.1,-0.023205080756887764,0.05,0.09999999999999998,-30,90.0,-90.0,0.11341127423745025,-2.656487759058903,1.200462948616625,1.2920303129613329,-2.03458336151234,1.242685629377327,-2.1410341809566495
0.15000000000000002,-0.05,0.1,-0.04318516525781366,0.0017638090205041451,0.09999999999999996,-15,90.0,-90.0,0.11069018377736824,-2.6980277462038895,1.2169548054074766,1.5926093167818665,-2.4080073170545915,1.3193313892016902,-1.790208160267067
0.15000000000000002,-0.05,0.1,-0.04999999999999999,-0.05,0.1,0,90.0,-90.0,0.11385658659479152,-2.8438904485353693,1.2612595059619356,1.8403569002275828,-2.8429047565244,1.5320254918067755,-1.5819146075598496
0.15000000000000002,-0.05,0.1,-0.04318516525781363,-0.10176380902050414,0.09999999999999994,15,90.0,-90.0,0.11124830009365043,0.04946918804664075,-1.2605453968690612,-1.9928064525075253,-0.21397041386863885,1.6790315501575863,-1.594540351067981
0.15000000000000002,-0.05,0.1,-0.023205080756887764,-0.15000000000000002,0.1,30,90.0,-90.0,0.11328513093392442,-0.2566112996781175,-1.2467947777097268,-1.9648131382388478,-0.7807111752032617,1.620176391127722,-1.6209343992736436
0.15000000000000002,-0.05,0.1,0.008578643762690519,-0.1914213562373095,0.09999999999999992,45,90.0,-90.0,0.09602846390080406,-0.48365689584860655,-1.3158504447278663,-1.7135001648624635,-1.2703670548197992,1.5364581603254157,-1.4638163634520767
0.15000000000000002,-0.05,0.1,0.05000000000000002,-0.22320508075688777,0.09999999999999999,60,90.0,-90.0,0.0587466162403714,2.542443848921922,2.176826588335416,-1.1921133368281533,-1.528441970650394,-1.6340700702139763,-2.5544231015477328
0.15000000000000002,-0.05000000000000002,0.1,0.04999999999999999,0.12320508075688771,0.09999999999999998,-60,90.0,-90.0,0.07944107553757497,0.47603927465647744,-1.4036843739396043,-0.5090984189353904,1.5546693085374803,1.525155257124055,3.4831245928314334
0.15000000000000002,-0.05000000000000002,0.1,0.008578643762690491,0.09142135623730951,0.09999999999999998,-45,90.0,-90.0,0.10677692672274758,-2.659495365267054,1.2587619589332122,0.9500825137266387,-1.7543467167025255,1.32832896782533,-2.4822087650265034
0.15000000000000002,-0.05000000000000002,0.1,-0.023205080756887764,0.04999999999999999,0.09999999999999998,-30,90.0,-90.0,0.11339272433850263,-2.6562272878597804,1.2003354123841186,1.2927110602280227,-2.035472672089349,1.2424919014707,-2.1413431467811757
0.15000000000000002,-0.05000000000000002,0.1,-0.04318516525781366,0.0017638090205041312,0.09999999999999996,-15,90.0,-90.0,0.1106707861385434,-2.697966061675808,1.216833423054367,1.5930900550579692,-2.4086031116978535,1.3192861454403666,-1.7898692413575703
0.15000000000000002,-0.05000000000000002,0.1,-0.04999999999999999,-0.05000000000000002,0.1,0,90.0,-90.0,0.11393035185651743,-2.8440155546093755,1.2620248391948397,1.8397208902413775,-2.8429881790110465,1.5336047765509793,-1.5823416957368852
0.15000000000000002,-0.05000000000000002,0.1,-0.04318516525781363,-0.10176380902050414,0.09999999999999994,15,90.0,-90.0,0.11127581592264854,0.05006378637534186,-1.2610479823968632,-1.991993145840106,-0.21260562394601215,1.6796921069210895,-1.5939742569788538
0.15000000000000002,-0.05000000000000002,0.1,-0.023205080756887764,-0.15000000000000002,0.1,30,90.0,-90.0,0.11326554637072812,-0.25732337712392644,-1.2465211363520008,-1.9649084826852727,-0.7823918397052743,1.6194130045842885,-1.620884746716327
0.15000000000000002,-0.05000000000000002,0.1,0.008578643762690519,-0.1914213562373095,0.09999999999999992,45,90.0,-90.0,0.09600746703840493,-0.48332685766990185,-1.3163316602919402,-1.713080935547487,-1.2696487645320533,1.537109344486772,-1.46270171620002
0.15000000000000002,-0.05000000000000002,0.1,0.05000000000000002,-0.22320508075688777,0.09999999999999999,60,90.0,-90.0,0.05861553944134949,-0.5885283611110246,-2.1767386813548404,1.191695710372999,1.6075699643431267,-1.6247115293184182,3.727809606719635
0.1,0.0,0.1,0.048236190979495865,0.1931851652578137,0.09999999999999998,-75,90.0,-90.0,0.030309862561037782,0.5733729449049959,-1.9962777006550014,0.8290162555666002,1.4444378110113818,1.8556061243070168,2.7200683673336545
0.1,0.0,0.1,-2.7755575615628914e-17,0.17320508075688773,0.09999999999999998,-60,90.0,-90.0,0.08630218507981897,0.5648556365761167,-1.3723111001016803,-0.5943864486471847,1.5864770255957308,1.6096656924410975,3.5370417787679083
0.1,0.0,0.1,-0.041421356237309526,0.14142135623730953,0.09999999999999998,-45,90.0,-90.0,0.11135942401123179,0.4489992113339382,-1.2445323573585791,-1.9524121326002961,-1.9064506512189978,-1.5881135237573645,1.6224829555189886
