fryumbla/Robot-Manipulability/jupyter/indyrobot_manip_2021-04-16_21-43-59.csv
TCP x,TCP y,TCP z,eef x,eef y,eef z,Cr(rzyz),Pitch(rzyz),Roll(rzyz),Manipulability,joint0,joint1,joint2,joint3,joint4,joint5
-0.1,0,0.2,-0.10000000000000005,0.23000000000000007,0.2,-90,90.0,-90.0,0.09324786483240978,0.8761673273787454,-1.2483770849688463,-1.430712665488818,-0.7489455251236614,-1.9213114779526481,1.2615857312344068
-0.1,0,0.2,-0.15952838037357978,0.22216294004648574,0.19999999999999998,-75,90.0,-90.0,0.1164911101589264,0.9886592498622152,-1.096114247498548,-1.8713168825537108,-0.8511599205680472,-1.686909984331158,1.4410479113451042
-0.1,0,0.2,-0.21500000000000002,0.19918584287042088,0.19999999999999998,-60,90.0,-90.0,0.12786492889977508,1.0728883639576388,-0.9814627995967639,-2.2711898576152563,-1.0246771683613312,-1.513580631041463,1.6654880339160947
-0.1,0,0.2,-0.26263455967290594,0.16263455967290594,0.19999999999999998,-45,90.0,-90.0,0.0855432073301302,1.080639770159143,-0.9106524708960848,-2.6308763340555776,-1.296806178951744,-1.4568102644280077,1.9542107056205318
-0.1,0,0.2,-0.29918584287042094,0.115,0.19999999999999998,-30,90.0,-90.0,0.04837015342013195,0.884221950901945,-0.9350316957151776,-2.9345743065916183,-1.6926061723619286,-1.6784392322203918,2.2914745916778565
-0.1,0,0.2,-0.3221629400464857,0.05952838037357977,0.19999999999999996,-15,90.0,-90.0,0.06308228142530196,-2.0885017420736824,1.1890439856943185,2.2501604943229934,-1.8165567041408741,1.6446296835424665,-1.281563658934303
-0.1,0,0.2,-0.3221629400464857,-0.05952838037357975,0.19999999999999993,15,90.0,-90.0,0.06866740646578377,2.028961128170335,1.1161005364893863,2.204005245155967,-1.3782798527297306,-1.6050370369308324,1.3965478781822274
-0.1,0,0.2,-0.29918584287042094,-0.115,0.2,30,90.0,-90.0,0.10615995452159421,2.1127480769773497,0.91830560436466,1.9242411731104454,-1.5523589826619244,-1.5658295316367723,1.8688169841429658
-0.1,0,0.2,-0.26263455967290594,-0.1626345596729059,0.19999999999999993,45,90.0,-90.0,0.1379285392424505,2.2088994908779185,0.9093617974636032,1.6274045099736731,-1.6921015371226218,-1.6531610839740443,2.170405727333491
-0.1,0,0.2,-0.21500000000000002,-0.1991858428704209,0.19999999999999998,60,90.0,-90.0,0.1305330652371495,2.30309244692298,0.9803879614972049,1.311043098526162,-1.782227132094533,-1.8047680857396027,2.396104934016818
-0.1,0,0.2,-0.15952838037357978,-0.22216294004648574,0.2,75,90.0,-90.0,0.10909502644682537,2.3941964051152778,1.094730050964588,0.9650610571556623,-1.8135486959447107,-1.9946397349773801,2.5998085764305476
-0.1,0,0.2,-0.10000000000000005,-0.23000000000000007,0.2,90,90.0,-90.0,0.08083036564348105,2.4757921951847996,1.2459248819505517,0.5673537078255446,-1.7567642634847092,-2.2130893989800637,2.8366048030139073
-0.1,0.05,0.2,-0.10000000000000005,0.2800000000000001,0.2,-90,90.0,-90.0,0.08162184699144152,-2.230128706090351,1.3165695610149568,1.2561169080130739,2.3976252184494524,-2.0098666193963663,1.1979436795867213
-0.1,0.05,0.2,-0.15952838037357978,0.2721629400464857,0.19999999999999998,-75,90.0,-90.0,0.10935995301545731,-2.114888786620085,1.1452284957174024,1.7229550090678143,2.3163766275998556,-1.7582948062893735,1.3718523195796428
-0.1,0.05,0.2,-0.21500000000000002,0.2491858428704209,0.19999999999999998,-60,90.0,-90.0,0.12640169281737604,-2.0228579231235417,1.0169422266138217,2.134984423484031,2.16544748837485,-1.5643431463848234,1.5795581834392696
-0.1,0.05,0.2,-0.26263455967290594,0.21263455967290595,0.19999999999999998,-45,90.0,-90.0,0.10019134050330829,-1.9896826785114365,0.9271815524010069,2.51024075630771,1.92339869058875,-1.4652282855015022,1.8476878810602384
-0.1,0.05,0.2,-0.29918584287042094,0.165,0.19999999999999998,-30,90.0,-90.0,0.06005374166336328,-2.1132818668407714,0.9072482963756082,2.8352981768910195,1.5554431739118781,-1.5809691944114304,2.1715411308571215
-0.1,0.05,0.2,-0.3221629400464857,0.10952838037357977,0.19999999999999996,-15,90.0,-90.0,0.07490674946431834,-2.016608665909708,1.0560950010974113,2.1568530027260913,-1.7538434976696473,1.5828527854785335,-1.499973146642544
-0.1,0.05,0.2,-0.3221629400464857,-0.009528380373579746,0.19999999999999993,15,90.0,-90.0,0.05840012357270499,-1.0032591203446468,-1.2713058883360093,-2.291214311880461,1.850862227146613,-1.6931107441948916,1.166547059454773
-0.1,0.05,0.2,-0.29918584287042094,-0.065,0.2,30,90.0,-90.0,0.0929107446947987,-0.9513272330494742,-0.9538459441427779,-2.022025775166096,1.6646525586065444,-1.5548481498843676,1.7356724450833507
-0.1,0.05,0.2,-0.26263455967290594,-0.1126345596729059,0.19999999999999993,45,90.0,-90.0,0.1298564756662094,-0.8596783566778669,-0.8998680926683325,-1.729664373546718,1.5049992199814644,-1.606711719075221,2.08067843289987
-0.1,0.05,0.2,-0.21500000000000002,-0.14918584287042091,0.19999999999999998,60,90.0,-90.0,0.13607187087088474,-0.7668658737868829,-0.9496692455378223,-1.4214348948515287,1.3934365835274565,-1.7391442100955234,2.3271631983380816
-0.1,0.05,0.2,-0.15952838037357978,-0.17216294004648575,0.2,75,90.0,-90.0,0.1172416790846281,-0.6760406038266595,-1.0511815417051138,-1.0871980310020306,1.3375283306589014,-1.9172220797428248,2.5331366556204573
-0.1,0.05,0.2,-0.10000000000000005,-0.18000000000000005,0.2,90,90.0,-90.0,0.09128967763132922,-0.5912626352914092,-1.1895827610898033,-0.7102189803102259,1.3565139896478235,-2.126894517193184,2.751926739463082
-0.05,0.1,0.2,-0.05000000000000004,0.33000000000000007,0.2,-90,90.0,-90.0,0.038273508142215126,0.8185787653649198,-1.9334280775828228,0.01973232279943478,-1.2260049249570102,-2.3293024709351164,0.4821757911684621
-0.05,0.1,0.2,-0.10952838037357976,0.3221629400464857,0.19999999999999998,-75,90.0,-90.0,0.08988595690701842,1.0014762681699174,-1.2544181336822242,-1.4411783244752603,-0.8810071105938277,-1.8655751712992226,1.2314521487196082
-0.05,0.1,0.2,-0.16500000000000004,0.2991858428704209,0.19999999999999998,-60,90.0,-90.0,0.11588486668445326,1.0808970791213288,-1.0863270458188856,-1.913364332449316,-1.0173109768120243,-1.6452975519395807,1.4508786248308905
-0.05,0.1,0.2,-0.21263455967290595,0.26263455967290594,0.19999999999999998,-45,90.0,-90.0,0.12149770033045346,1.1004329335875176,-0.9642813696290854,-2.32105487961349,-1.2581284301045994,-1.5257437935745555,1.707791464050126
-0.05,0.1,0.2,-0.24918584287042095,0.21500000000000002,0.19999999999999998,-30,90.0,-90.0,0.07841498696252991,0.9792963883159022,-0.9015107585116329,-2.6617814808276017,-1.6320617514583555,-1.5978045207615503,1.9913391448544617
-0.05,0.1,0.2,-0.2721629400464857,0.15952838037357978,0.19999999999999996,-15,90.0,-90.0,0.035570568647495825,0.5030818819760992,-1.018531028882931,-2.9158347858381775,-2.2024817363120577,-2.1098745183673895,2.1822372069090425
-0.05,0.1,0.2,-0.28,0.1,0.2,0,90.0,-90.0,0.06351289353858411,1.0835795116914821,-1.2264444292096253,-2.285716492384869,1.1122712598117772,1.7403106929973917,-1.240205461644577
-0.05,0.1,0.2,-0.2721629400464857,0.040471619626420256,0.19999999999999993,15,90.0,-90.0,0.062269607887325044,-0.7567751594411393,-1.2696418131875473,-2.311623325197261,2.0783484001615973,-1.7962617466656154,1.190224728267589
-0.05,0.1,0.2,-0.24918584287042095,-0.015,0.2,30,90.0,-90.0,0.09005509292459686,-0.7846911150505314,-0.9655829491318634,-2.0361295619995534,1.831393889702352,-1.5353695209210163,1.705368467973373
-0.05,0.1,0.2,-0.2126345596729059,-0.0626345596729059,0.19999999999999993,45,90.0,-90.0,0.12700205023438024,-0.724642406906725,-0.8997267373538386,-1.732476874932522,1.6232920663524022,-1.5407076227048926,2.0789629871625
-0.05,0.1,0.2,-0.165,-0.0991858428704209,0.19999999999999998,60,90.0,-90.0,0.13631204580507655,-0.6524193067888712,-0.949481825644687,-1.4115961215277981,1.4785030486597472,-1.6619911127447338,2.3461456741037083
-0.05,0.1,0.2,-0.10952838037357977,-0.12216294004648573,0.2,75,90.0,-90.0,0.11697634099966991,-0.5779753419967211,-1.0569883985391386,-1.0606708231650543,1.4022207018861297,-1.8388410075866368,2.5708916805739355
-0.05,0.1,0.2,-0.05000000000000004,-0.13000000000000006,0.2,90,90.0,-90.0,0.08895785026553009,-0.5075255703362412,-1.2105101489158359,-0.6522518563324542,1.4129681749606908,-2.05434981462858,2.8098038568926715
-0.05,-0.05,0.2,-0.05000000000000004,0.18000000000000005,0.2,-90,90.0,-90.0,0.08441026512195467,0.5488322633611454,-1.2347708754355027,-0.5903406391713579,1.7242115326040994,2.0992254252446507,-2.8448060170501805
-0.05,-0.05,0.2,-0.10952838037357976,0.17216294004648575,0.19999999999999998,-75,90.0,-90.0,0.1134963942177326,0.6196909928764278,-1.0756889255991373,-1.0081797597574587,1.7527942034969841,1.8805383281489831,-2.600310665787024
-0.05,-0.05,0.2,-0.16500000000000004,0.14918584287042086,0.19999999999999998,-60,90.0,-90.0,0.13428624955788115,0.6968753006533169,-0.9622944298928935,-1.3655779358071847,1.689095267871629,1.6963893945622763,-2.3767820499968138
-0.05,-0.05,0.2,-0.21263455967290595,0.11263455967290593,0.19999999999999998,-45,90.0,-90.0,0.13187380696168424,0.772543670348187,-0.9026924420520483,-1.688781542427025,1.5592776616596555,1.5648126066453052,-2.120727925123549
-0.05,-0.05,0.2,-0.24918584287042095,0.065,0.19999999999999998,-30,90.0,-90.0,0.09536569541633318,0.840208779351025,-0.9430178633263083,-1.993945177792551,1.3681727705643756,1.5284379882316539,-1.7704111616941276
-0.05,-0.05,0.2,-0.2721629400464857,0.009528380373579767,0.19999999999999996,-15,90.0,-90.0,0.0640139299984896,0.8473576585693421,-1.2132229462041044,-2.2758846112307176,1.1337533917971543,1.72351735473338,-1.2562293890059926
-0.05,-0.05,0.2,-0.28,-0.05,0.2,0,90.0,-90.0,0.06089712390779111,-1.0039224416835084,-1.3015964931692714,-2.3276113313905435,2.0836751529250765,-1.8246173783006643,1.1494813707517655
-0.05,-0.05,0.2,-0.2721629400464857,-0.10952838037357976,0.19999999999999993,15,90.0,-90.0,0.08789371179905632,-1.041205098681686,-0.9755954634631044,-2.0543012938031304,1.8361806704302273,-1.5422032979178288,1.6790088021241256
-0.05,-0.05,0.2,-0.24918584287042095,-0.165,0.2,30,90.0,-90.0,0.12485234715368884,-0.9813889506980958,-0.899244577067137,-1.753557411094175,1.6284660790002994,-1.539223959829645,2.057750248415681
-0.05,-0.05,0.2,-0.2126345596729059,-0.2126345596729059,0.19999999999999993,45,90.0,-90.0,0.1372092452466526,-0.9086819318449151,-0.943632845010805,-1.4356087622348308,1.4819992494262133,-1.6551102812958642,2.328578414507175
-0.05,-0.05,0.2,-0.165,-0.2491858428704209,0.19999999999999998,60,90.0,-90.0,0.11853671317046349,-0.8331351670278281,-1.0488940346564049,-1.0860440829623057,1.4019153906782986,-1.8318190211365004,2.5546596021789942
-0.05,-0.05,0.2,-0.10952838037357977,-0.2721629400464857,0.2,75,90.0,-90.0,0.09117674911900797,-0.7611246249541789,-1.1980222568961094,-0.6841734780884077,1.4059494630221334,-2.0445696500482624,2.791204497357174
-0.05,-0.05,0.2,-0.05000000000000004,-0.2800000000000001,0.2,90,90.0,-90.0,0.05109700795699497,-0.7098747027003912,-1.4178800005297107,-0.154866640446102,1.569974057792597,-2.2814577832612843,3.1388367145680367
0.0,0.0,0.2,-3.611212654972683e-17,0.23000000000000007,0.2,-90,90.0,-90.0,0.05784699402167293,0.740507227387628,-1.4258802068343654,-1.0396861700350195,-0.9506827940292943,-2.0065380068993965,1.0363255479017337
0.0,0.0,0.2,-0.05952838037357976,0.22216294004648574,0.19999999999999998,-75,90.0,-90.0,0.09877043163150388,0.8231160861578147,-1.1883467324397405,-1.633261757219874,-1.0322205850215327,-1.7387350965422594,1.29652100030525
0.0,0.0,0.2,-0.11500000000000003,0.19918584287042088,0.19999999999999998,-60,90.0,-90.0,0.1220895911448969,0.8483456378354726,-1.0303508874143785,-2.090455417833324,-1.2460110485297977,-1.5765212791171637,1.5513265366854165
0.0,0.0,0.2,-0.16263455967290594,0.16263455967290594,0.19999999999999998,-45,90.0,-90.0,0.10093833043272536,0.7604701378130164,-0.9287694974015012,-2.4628300445990075,-1.5941207791065142,-1.5762585739662385,1.8204988225206662
0.0,0.0,0.2,-0.19918584287042093,0.115,0.19999999999999998,-30,90.0,-90.0,0.0581570794264,0.42600268438636446,-0.9390345769391623,-2.7332846006025324,-2.123212374310176,-1.8690052761445906,2.0158906585244205
0.0,0.0,0.2,-0.22216294004648574,0.05952838037357977,0.19999999999999996,-15,90.0,-90.0,0.0401777545596108,-0.3854863841652591,-1.3804915935213418,-2.6281957280030737,2.9510440099228408,-2.42822681876375,1.426788235331601
0.0,0.0,0.2,-0.23,0.0,0.2,0,90.0,-90.0,0.06698643764866778,-0.752644661963782,-1.273219032798253,-2.35522685119071,2.3264037730150298,-1.9196422711076315,1.2227060636405205
0.0,0.0,0.2,-0.2221629400464857,-0.05952838037357975,0.19999999999999993,15,90.0,-90.0,0.0847215303744191,-0.8696980938866457,-0.9951603508832675,-2.083260491759821,2.008833599382561,-1.5429907141586674,1.627047220169381
0.0,0.0,0.2,-0.19918584287042093,-0.115,0.2,30,90.0,-90.0,0.11887726277895556,-0.8457831748884963,-0.902728289502517,-1.7758205648229657,1.7519485662316108,-1.4801960510877539,2.0255431048032917
0.0,0.0,0.2,-0.1626345596729059,-0.1626345596729059,0.19999999999999993,45,90.0,-90.0,0.13698084951035772,-0.7918254088417689,-0.9389256903895483,-1.4515532462687462,1.5667183996184668,-1.574416067639826,2.3209537648192873
0.0,0.0,0.2,-0.115,-0.1991858428704209,0.19999999999999998,60,90.0,-90.0,0.11959526875341797,-0.7300529894448614,-1.0436704075106864,-1.0936533568083415,1.4580096276750851,-1.7445670176379033,2.5643642143053365
0.0,0.0,0.2,-0.05952838037357977,-0.22216294004648574,0.2,75,90.0,-90.0,0.09145909175056778,-0.6692100302130314,-1.1998375237834453,-0.6753184826558216,1.4415250094450751,-1.9579620600635683,2.8112156093899947
0.0,0.0,0.2,-3.6112126549726834e-17,-0.23000000000000007,0.2,90,90.0,-90.0,0.047020813014427024,-0.627798805251464,-1.4452747842187321,-0.09271382533908534,1.595100320109434,-2.1975280549260425,3.182213370300513
-0.05,0.15000000000000002,0.2,-0.10952838037357976,0.37216294004648576,0.19999999999999998,-75,90.0,-90.0,0.0714354544445645,0.8581759136226398,-1.3083189095234244,-0.4110953127668258,1.6703877845745787,2.1607339982850804,3.319479933302305
-0.05,0.15000000000000002,0.2,-0.16500000000000004,0.34918584287042087,0.19999999999999998,-60,90.0,-90.0,0.10472693809257602,0.9207106486209196,-1.124553382521379,-0.8731405067950834,1.743479899463872,1.930791783093748,3.599484201843069
-0.05,0.15000000000000002,0.2,-0.21263455967290595,0.312634559672906,0.19999999999999998,-45,90.0,-90.0,0.12537287278267858,-1.9969101785903298,1.0016061998435035,2.1853595560567607,1.929856458113606,-1.554327750899416,1.6128585695035875
-0.05,0.15000000000000002,0.2,-0.24918584287042095,0.265,0.19999999999999998,-30,90.0,-90.0,0.09216371952092349,-2.0788395122405747,0.9141456062136899,2.549188901653999,1.5864340742143512,-1.566199603122399,1.8916622941453638
-0.05,0.15000000000000002,0.2,-0.2721629400464857,0.2095283803735798,0.19999999999999996,-15,90.0,-90.0,0.049527609898377074,-2.43336386911975,0.9509436101084927,2.830198717217441,1.0673009427615183,-1.9155462512301575,2.1209679857925496
-0.05,0.15000000000000002,0.2,-0.28,0.15000000000000002,0.2,0,90.0,-90.0,0.07240485650730603,1.1616782468008278,-1.0914701402409193,-2.193798543337356,1.1658132232942464,1.6270141996362946,-1.4381527554167186
-0.05,0.15000000000000002,0.2,-0.2721629400464857,0.09047161962642028,0.19999999999999993,15,90.0,-90.0,0.06127711314098372,0.9784624775787226,-1.4839457187423895,-2.4241585839823907,0.8811572263951861,2.121097285549016,-1.005480012057405
-0.05,0.15000000000000002,0.2,-0.24918584287042095,0.03500000000000002,0.2,30,90.0,-90.0,0.020583250906832495,0.5608010965933912,-1.5416550023570936,-2.7499450667418888,0.09001490860429139,2.7184327624692917,-1.4882311289220422
-0.05,0.15000000000000002,0.2,-0.2126345596729059,-0.012634559672905887,0.19999999999999993,45,90.0,-90.0,0.11716985404342616,-0.6503934637285336,-0.9024242200853995,-1.812413145408576,1.693325144901616,-1.5146094771909768,1.9934433741867799
-0.05,0.15000000000000002,0.2,-0.165,-0.04918584287042088,0.19999999999999998,60,90.0,-90.0,0.13868197824231995,-0.5833655231622201,-0.9294885358031673,-1.4957227641627864,1.5245441744759087,-1.6100046893438824,2.285648373310886
-0.05,0.15000000000000002,0.2,-0.10952838037357977,-0.07216294004648571,0.2,75,90.0,-90.0,0.12281744100412795,-0.5121450523411352,-1.0252692181898633,-1.152215587562324,1.4260756349730805,-1.7746804360491661,2.519875524512436
-0.05,0.15000000000000002,0.2,-0.05000000000000004,-0.08000000000000004,0.2,90,90.0,-90.0,0.09666430401440915,-0.44141925798337905,-1.168589058879926,-0.7573735679767076,1.406796941616378,-1.9832260257544652,2.7513501001139304
0.0,0.10000000000000002,0.2,-0.05952838037357976,0.32216294004648577,0.19999999999999998,-75,90.0,-90.0,0.07863029154866642,-2.252565670835618,2.13281488957246,-1.3280226929305468,-2.036604066712662,2.007218441281724,2.269414837520047
0.0,0.10000000000000002,0.2,-0.11500000000000003,0.2991858428704209,0.19999999999999998,-60,90.0,-90.0,0.10753382879595458,-2.3282418941436918,1.1111708479039444,0.9055258284797392,-1.4434366428124088,1.830681061113302,-2.6784546561395945
0.0,0.10000000000000002,0.2,-0.16263455967290594,0.26263455967290594,0.19999999999999998,-45,90.0,-90.0,0.13049856485869088,-2.2680125995413127,0.9816432452448843,1.2868853323690863,-1.512821813507579,1.6386050952508575,-2.4419597342291266
0.0,0.10000000000000002,0.2,-0.19918584287042093,0.21500000000000002,0.19999999999999998,-30,90.0,-90.0,0.13308809911563202,-2.2110460473630713,0.9098084383477845,1.6252733970369937,-1.6673214333327784,1.5043516190585229,-2.173483123529365
0.0,0.10000000000000002,0.2,-0.22216294004648574,0.1595283803735798,0.19999999999999996,-15,90.0,-90.0,0.09974516259017055,-2.1706303032349266,0.9308676284274596,1.9400288492336972,-1.8963858010530799,1.4815811985064635,-1.8260325631389163
0.0,0.10000000000000002,0.2,-0.23,0.10000000000000002,0.2,0,90.0,-90.0,0.0725962690763165,-2.2036440510709925,1.1255236437165017,2.237010696873852,-2.1917835843687072,1.700871513714319,-1.3920685782724778
0.0,0.10000000000000002,0.2,-0.2221629400464857,0.04047161962642027,0.19999999999999993,15,90.0,-90.0,0.06192780759366419,-2.4629579431711464,1.371158963950828,2.483701006749519,-2.6118980607592452,2.2119366227180275,-1.2332431939488442
0.0,0.10000000000000002,0.2,-0.19918584287042093,-0.014999999999999986,0.2,30,90.0,-90.0,0.038131545495650926,0.06259325470596942,-1.0692719804924475,-2.7769241862819896,-0.5766875658110432,2.1895318477831447,-1.9313320715204618
0.0,0.10000000000000002,0.2,-0.1626345596729059,-0.06263455967290589,0.19999999999999993,45,90.0,-90.0,0.08209647088186818,-0.49544347767234487,-0.9151254706456101,-2.5846440333417138,-1.2977147453679092,1.672280213232862,-1.916117807074935
0.0,0.10000000000000002,0.2,-0.115,-0.09918584287042088,0.19999999999999998,60,90.0,-90.0,0.12177193713572036,-0.6814091728731989,-0.9807349497244414,-2.2536403598124433,-1.727041665270984,1.5555410631351128,-1.662834141189219
0.0,0.10000000000000002,0.2,-0.05952838037357977,-0.12216294004648572,0.2,75,90.0,-90.0,0.10928266787383857,-0.7044268011134495,-1.1186823224798168,-1.8292808209415274,-2.006584653062355,1.6534388480051425,-1.39466740417746
0.0,0.10000000000000002,0.2,-3.6112126549726834e-17,-0.13000000000000006,0.2,90,90.0,-90.0,0.07731445339365807,-0.6482111233267356,-1.3165029907939148,-1.3059910090894074,-2.1528853250788202,1.8748320931747908,-1.1430215147990002
0.0,-0.1,0.2,-3.611212654972683e-17,0.13000000000000006,0.2,-90,90.0,-90.0,0.08420355449562048,-2.5486058148467112,2.1706766208740396,-1.4063359660645247,-2.024999906044357,1.9678061485612284,2.242416429577837
0.0,-0.1,0.2,-0.05952838037357976,0.12216294004648573,0.19999999999999998,-75,90.0,-90.0,0.11128970645717023,0.5247682400665593,-1.090132283390286,-0.9615914079407253,1.6953000554138624,1.8029642265014847,-2.645038851965151
0.0,-0.1,0.2,-0.11500000000000003,0.09918584287042087,0.19999999999999998,-60,90.0,-90.0,0.13287903733600762,0.585755723261479,-0.9677377143166431,-1.3376632827537354,1.6120303133924248,1.6164093772601325,-2.4054871815536907
0.0,-0.1,0.2,-0.16263455967290594,0.06263455967290593,0.19999999999999998,-45,90.0,-90.0,0.12926060220604796,0.6414448945983062,-0.9054149654699805,-1.671860626781268,1.4482652046631854,1.4939529801312605,-2.129909686376025
0.0,-0.1,0.2,-0.19918584287042093,0.015,0.19999999999999998,-30,90.0,-90.0,0.09473695821468428,0.6785816149229392,-0.9474736204055592,-1.9863363729649866,1.2084379914715155,1.4964061477852106,-1.7656910825440488
0.0,-0.1,0.2,-0.22216294004648574,-0.040471619626420235,0.19999999999999996,-15,90.0,-90.0,0.07042180125214122,0.6229473663373578,-1.1676339814331849,-2.2757885654911205,0.907224778262523,1.7592962829447456,-1.3339679968601192
0.0,-0.1,0.2,-0.23,-0.1,0.2,0,90.0,-90.0,0.056629129713720965,0.3324383300829311,-1.377824805648868,-2.517436519304742,0.4435024755203678,2.274979972643442,-1.272947037690974
0.0,-0.1,0.2,-0.2221629400464857,-0.15952838037357975,0.19999999999999993,15,90.0,-90.0,0.047078194288448116,-0.3759444429571998,-1.0035796744797747,-2.753445506884929,-0.7381373018166986,2.0534336318186805,-1.9697002842544897
0.0,-0.1,0.2,-0.19918584287042093,-0.21500000000000002,0.2,30,90.0,-90.0,0.08978895205410713,-0.838772063998294,-0.9189054183950931,-2.528932807541924,-1.3712229762160115,1.6327048877786083,-1.8700473199209795
0.0,-0.1,0.2,-0.1626345596729059,-0.26263455967290594,0.19999999999999993,45,90.0,-90.0,0.12325636953248585,-0.9908143013102372,-1.0028128188322853,-2.1806266472953437,-1.7759045853835715,1.5627053976429024,-1.611205812339262
0.0,-0.1,0.2,-0.115,-0.29918584287042094,0.19999999999999998,60,90.0,-90.0,0.10429695674244711,-0.9984091153553751,-1.1503752943965004,-1.7411402719429427,-2.03307798774457,1.6837205020440005,-1.3469569838442812
0.0,-0.1,0.2,-0.05952838037357977,-0.3221629400464857,0.2,75,90.0,-90.0,0.0683720019927629,-0.9342652841352126,-1.3662183090023634,-1.186151235141425,-2.155369806606751,1.9232629552971634,-1.0884815364407898
-0.05,-0.1,0.2,-0.05000000000000004,0.13000000000000006,0.2,-90,90.0,-90.0,0.09297158090318895,-2.6671736369166545,1.188336668329657,0.7069296073299406,-1.4075818207625372,2.0183047637349616,-2.7787833248563523
-0.05,-0.1,0.2,-0.10952838037357976,0.12216294004648573,0.19999999999999998,-75,90.0,-90.0,0.11997131846703644,-2.596325446135063,1.0410467992340289,1.1070287195595232,-1.412670567501794,1.808236937223019,-2.544540856208133
-0.05,-0.1,0.2,-0.16500000000000004,0.09918584287042087,0.19999999999999998,-60,90.0,-90.0,0.13782660546086692,-2.5229133102302224,0.938683562724857,1.4556779418691903,-1.5006384295878914,1.634898184505625,-2.314962059405169
-0.05,-0.1,0.2,-0.21263455967290595,0.06263455967290593,0.19999999999999998,-45,90.0,-90.0,0.12201943507248889,-2.452787917589045,0.8999395722994856,1.774303490667644,-1.657154673066795,1.5266026639485204,-2.0368637470166475
-0.05,-0.1,0.2,-0.24918584287042095,0.015,0.19999999999999998,-30,90.0,-90.0,0.08526193189189331,-2.4003334834512398,0.9874855835024012,2.0757116673158054,-1.874877090931802,1.5463418006702259,-1.6457218160946185
-0.05,-0.1,0.2,-0.2721629400464857,-0.040471619626420235,0.19999999999999996,-15,90.0,-90.0,0.06116345894847134,-2.4631943911695555,1.3241985103962433,2.344385525156407,-2.1336515827335707,1.8712992989674393,-1.1309457776692287
-0.05,-0.1,0.2,-0.28,-0.1,0.2,0,90.0,-90.0,0.05082153705775932,-2.8238555424061147,1.6079015261384075,2.5573655025403954,-2.5762984179383004,2.5170642907018674,-1.0954011065607203
-0.05,-0.1,0.2,-0.2721629400464857,-0.15952838037357975,0.19999999999999993,15,90.0,-90.0,0.04333733392143208,2.4977015672524865,0.9725424878354326,2.8734668694646204,2.108659865018521,1.9816040931998153,-2.1599610175109176
-0.05,-0.1,0.2,-0.24918584287042095,-0.21500000000000002,0.2,30,90.0,-90.0,0.08548347541457016,2.1025672808076243,0.9056980932328896,2.6071786308036335,1.5779264202641956,1.572695596600985,-1.9414843716173549
-0.05,-0.1,0.2,-0.2126345596729059,-0.26263455967290594,0.19999999999999993,45,90.0,-90.0,0.12596108197031475,2.007567526844482,0.9817477011122288,2.2556208905736423,1.224551841074571,1.5377735581227368,-1.6615377865143732
-0.05,-0.1,0.2,-0.165,-0.29918584287042094,0.19999999999999998,60,90.0,-90.0,0.11192057956122435,2.036878603182481,1.1124842871923883,1.8361121680797412,0.9978879419215854,1.6756677359386862,-1.4096963778919247
-0.05,-0.1,0.2,-0.10952838037357977,-0.3221629400464857,0.2,75,90.0,-90.0,0.08343237744415964,2.1206924808217646,1.2922794797889559,1.3470045515937406,0.8779248811374899,1.9090887409690418,-1.1905739746770503
-0.05,-0.1,0.2,-0.05000000000000004,-0.33000000000000007,0.2,90,90.0,-90.0,0.015827226437036993,2.24775680847502,1.6479660207892322,0.5371825764627616,0.948869293384285,2.260110810323574,-0.8444849470253973
-0.05,0.05,0.2,-0.05000000000000004,0.2800000000000001,0.2,-90,90.0,-90.0,0.06009755478773298,-2.4682476790371672,1.3677244998908322,0.26952594677344455,-1.5168625300876757,2.24143830603296,-3.0568492446551603
-0.05,0.05,0.2,-0.10952838037357976,0.2721629400464857,0.19999999999999998,-75,90.0,-90.0,0.09656881602312546,-2.410209296598547,1.1677326603312923,0.7607270926376456,-1.3944021933069657,2.007868570103491,-2.7435722925057666
-0.05,0.05,0.2,-0.16500000000000004,0.2491858428704209,0.19999999999999998,-60,90.0,-90.0,0.12237120976888081,-2.336298483002764,1.0279037847188828,1.1484424385537524,-1.4077892646587769,1.8025746159906813,-2.516478380205632
-0.05,0.05,0.2,-0.21263455967290595,0.21263455967290595,0.19999999999999998,-45,90.0,-90.0,0.13879485896798288,-2.2601780200965806,0.9310972635553384,1.4909502497740237,-1.4985819650152308,1.6337855644884929,-2.2883334242044384
-0.05,0.05,0.2,-0.24918584287042095,0.165,0.19999999999999998,-30,90.0,-90.0,0.11889853528213923,-2.187286472528529,0.9007060979945674,1.8053027068683047,-1.6544724349304891,1.5308381973420475,-2.004251403832462
-0.05,0.05,0.2,-0.2721629400464857,0.10952838037357977,0.19999999999999996,-15,90.0,-90.0,0.08189191188762857,-2.131633140251707,1.0096447329303082,2.1046839525498235,-1.8706867195346455,1.5636227405159904,-1.596236420292808
-0.05,0.05,0.2,-0.28,0.05,0.2,0,90.0,-90.0,0.059162828556619855,-2.2078331567235003,1.3804475928970614,2.363250512712257,-2.118136833614886,1.9131974161484886,-1.0668360546095188
-0.05,0.05,0.2,-0.2721629400464857,-0.009528380373579746,0.19999999999999993,15,90.0,-90.0,0.06711069803008163,2.237626920532503,1.1530162053914106,2.238533885850233,-1.1763719468567058,-1.6676943057944207,1.3395620208174934
-0.05,0.05,0.2,-0.24918584287042095,-0.065,0.2,30,90.0,-90.0,0.10096507643337982,2.2656792347027115,0.9267322466698581,1.9501016044026047,-1.405127348879871,-1.5253372273705421,1.8315512822113083
-0.05,0.05,0.2,-0.2126345596729059,-0.1126345596729059,0.19999999999999993,45,90.0,-90.0,0.13577076585123218,2.3370032451979634,0.9060172830847043,1.642740086250231,-1.5874864946400784,-1.581787169479901,2.1645064775584277
-0.05,0.05,0.2,-0.165,-0.14918584287042091,0.19999999999999998,60,90.0,-90.0,0.1318476881252992,2.4135287246809933,0.9753491344894779,1.316458350358882,-1.7065172159013755,-1.722947117814599,2.4102144425258683
-0.05,0.05,0.2,-0.10952838037357977,-0.17216294004648575,0.2,75,90.0,-90.0,0.1098320224540418,2.4906329727020853,1.0955763491138089,0.9533104024645854,-1.7572199697947695,-1.9133012492404502,2.632002309392649
-0.05,0.05,0.2,-0.05000000000000004,-0.18000000000000005,0.2,90,90.0,-90.0,0.07933457427691457,2.5599786191973033,1.2629881314260385,0.5218860451156739,-1.7089848450954621,-2.137522549598526,2.8869739587226304
-0.05,0.0,0.2,-0.05000000000000004,0.23000000000000007,0.2,-90,90.0,-90.0,0.07378053357459877,0.6144023651565199,-1.293230802224563,-0.4477326917481932,1.6897481711462279,2.174569034460007,-2.9335228405203546
-0.05,0.0,0.2,-0.10952838037357976,0.22216294004648574,0.19999999999999998,-75,90.0,-90.0,0.10568165611631823,0.6811006627323702,-1.118132495561347,-0.8923780047941027,1.7595878965497689,1.9483129516673605,-2.6646838617478004
-0.05,0.0,0.2,-0.16500000000000004,0.19918584287042088,0.19999999999999998,-60,90.0,-90.0,0.1290331231649147,0.7583530064926631,-0.9911666896121412,-1.2638622376598543,1.7201571469693862,1.7516563450361027,-2.443738487564738
-0.05,0.0,0.2,-0.21263455967290595,0.16263455967290594,0.19999999999999998,-45,90.0,-90.0,0.13837352003176293,0.8357305907727531,-0.912250085112015,-1.5945309440934514,1.6120093238406195,1.6005171913546368,-2.204224484728017
-0.05,0.0,0.2,-0.24918584287042095,0.115,0.19999999999999998,-30,90.0,-90.0,0.10696310805600535,0.9094413367204269,-0.9154082533762034,-1.9035762649850467,1.4395195901437654,1.528073421721896,-1.88964861149081
-0.05,0.0,0.2,-0.2721629400464857,0.05952838037357977,0.19999999999999996,-15,90.0,-90.0,0.07133886398667103,0.951735313837559,-1.0975449487949054,-2.196380279734917,1.2171535750321847,1.6232283582472364,-1.4280684661790055
-0.05,0.0,0.2,-0.28,0.0,0.2,0,90.0,-90.0,0.05902383487861936,0.7776847443241667,-1.5319429854001232,-2.4208017249325637,0.9607227509320985,2.11249589767233,-0.9340531402931339
-0.05,0.0,0.2,-0.2721629400464857,-0.05952838037357975,0.19999999999999993,15,90.0,-90.0,0.07624893531286688,2.1488397006089133,1.049768681904048,2.15200170738377,-1.2542785617023489,-1.5888041422179435,1.5138933232655563
-0.05,0.0,0.2,-0.24918584287042095,-0.115,0.2,30,90.0,-90.0,0.1129507360629562,2.201383300685834,0.9063091374884789,1.8559600517307837,-1.4703690918352936,-1.5312428815792287,1.9480340773288403
-0.05,0.0,0.2,-0.2126345596729059,-0.1626345596729059,0.19999999999999993,45,90.0,-90.0,0.13931886242092673,2.276423850602027,0.9206773728109686,1.5439637511070214,-1.6330358728560939,-1.6199993932749048,2.245560563932064
-0.05,0.0,0.2,-0.165,-0.1991858428704209,0.19999999999999998,60,90.0,-90.0,0.12586517455190419,2.3539274866007167,1.0088603565024294,1.2080009143157684,-1.7311489390937453,-1.7807327966993047,2.477897529937282
-0.05,0.0,0.2,-0.10952838037357977,-0.22216294004648574,0.2,75,90.0,-90.0,0.10133958486146918,2.430062588936052,1.142196988943619,0.8288862027070619,-1.7563153134602951,-1.9818386875995015,2.7016738641672005
-0.05,0.0,0.2,-0.05000000000000004,-0.23000000000000007,0.2,90,90.0,-90.0,0.06745052731231096,2.493725160667468,1.3278365076768115,0.36383727607943783,-1.6622428094463073,-2.2122615457119514,2.989709972066366
0.05,0.10000000000000002,0.2,-0.00952838037357976,0.32216294004648577,0.19999999999999998,-75,90.0,-90.0,0.059958824867074385,0.8293998756756791,-2.028959756745835,1.127596178190817,1.192856186636146,2.005692645424151,2.387923120486259
0.05,0.10000000000000002,0.2,-0.06500000000000003,0.2991858428704209,0.19999999999999998,-60,90.0,-90.0,0.10002182292384834,0.9012631928086934,-1.1667549098631733,-1.70486054021786,-1.2056622291544261,-1.6682716579875772,1.3192728000324678
0.05,0.10000000000000002,0.2,-0.11263455967290593,0.26263455967290594,0.19999999999999998,-45,90.0,-90.0,0.12144215034240095,0.8614172091108367,-1.0122994079234553,-2.148443933791775,-1.4939242522455565,-1.569232086332747,1.5890958119499072
0.05,0.10000000000000002,0.2,-0.14918584287042091,0.21500000000000002,0.19999999999999998,-30,90.0,-90.0,0.09108031122917684,0.6628171617576072,-0.9334082140203428,-2.4744047468706176,-1.9421215534164216,-1.6685316066260207,1.818141155006442
0.05,0.10000000000000002,0.2,-0.17216294004648575,0.1595283803735798,0.19999999999999996,-15,90.0,-90.0,0.05551459596972553,0.17722142614928882,-1.0268655693434292,-2.624791754420342,-2.6470064245681884,-2.028094146410582,1.8052019934652337
0.05,0.10000000000000002,0.2,-0.18,0.10000000000000002,0.2,0,90.0,-90.0,0.08086277640075082,0.8500487440769668,-1.0526361714978112,-2.169802638473808,0.8513869818658149,1.6234763397186345,-1.5092671506183373
0.05,0.10000000000000002,0.2,-0.1721629400464857,0.04047161962642027,0.19999999999999993,15,90.0,-90.0,0.07076246040371381,0.6081679469046737,-1.2060534602478155,-2.428880146647457,0.3879427761412795,2.032353370066668,-1.3910286395252345
0.05,0.10000000000000002,0.2,-0.14918584287042091,-0.014999999999999986,0.2,30,90.0,-90.0,0.05610250076178356,0.07384381109827429,-1.0242628736813835,-2.623814211759346,-0.5054740279718585,2.023338205754597,-1.8079906818165077
0.05,0.10000000000000002,0.2,-0.1126345596729059,-0.06263455967290589,0.19999999999999993,45,90.0,-90.0,0.09243672221599676,-0.4037114682428414,-0.9364138415111162,-2.460969618251419,-1.2012970245194452,1.6651681248460288,-1.8096681018603968
0.05,0.10000000000000002,0.2,-0.065,-0.09918584287042088,0.19999999999999998,60,90.0,-90.0,0.12014408219159803,-0.5994664091982947,-1.0182548904150313,-2.128997568595272,-1.6475735942224154,1.5699594541081008,-1.5759827398239172
0.05,0.10000000000000002,0.2,-0.009528380373579767,-0.12216294004648572,0.2,75,90.0,-90.0,0.09831328265939038,-0.6383338392857401,-1.1772405870466358,-1.6781352095493467,-1.934192123975656,1.6743900190014465,-1.304580185937972
0.05,0.10000000000000002,0.2,0.04999999999999997,-0.13000000000000006,0.2,90,90.0,-90.0,0.055027299060344245,-0.5907960849639444,-1.430467075518955,-1.0527235527186316,-2.0580771015427812,1.9182027121164564,-0.9986635545044827
0.0,0.05,0.2,-3.611212654972683e-17,0.2800000000000001,0.2,-90,90.0,-90.0,0.034930063214824884,-2.4750040029204694,1.5107593076294592,-0.0522758058682648,-1.6587176358496711,2.233135467274347,-3.2833268176686685
0.0,0.05,0.2,-0.05952838037357976,0.2721629400464857,0.19999999999999998,-75,90.0,-90.0,0.08608984686921076,-2.442746549492912,1.2296233547984627,0.6008124269051024,-1.450427842048543,1.992206383922988,-2.856346285994709
0.0,0.05,0.2,-0.11500000000000003,0.2491858428704209,0.19999999999999998,-60,90.0,-90.0,0.115991198489502,-2.382701701761559,1.0638766211604633,1.0356385283279852,-1.4511453526116207,1.772752474820282,-2.5997722217187644
0.0,0.05,0.2,-0.16263455967290594,0.21263455967290595,0.19999999999999998,-45,90.0,-90.0,0.13540923295266885,-2.3213343415145857,0.9522624897077948,1.3983719549515352,-1.546618116077266,1.5963778060049558,-2.361770556083783
0.0,0.05,0.2,-0.19918584287042093,0.165,0.19999999999999998,-30,90.0,-90.0,0.12410192082418743,-2.2659040178939076,0.9022429548219377,1.7275537009497097,-1.7208370154028,1.4860388988455324,-2.07577193093981
0.0,0.05,0.2,-0.22216294004648574,0.10952838037357977,0.19999999999999996,-15,90.0,-90.0,0.08938049692837001,-2.2345241500631485,0.9689787449838032,2.0372886723215506,-1.968547295445204,1.517469350233553,-1.6954872927859779
0.0,0.05,0.2,-0.23,0.05,0.2,0,90.0,-90.0,0.06803718570210612,-2.318323365246536,1.2251164583438834,2.319282781021836,-2.2769456235404677,1.8403062516541375,-1.2673215888215132
0.0,0.05,0.2,-0.2221629400464857,-0.009528380373579746,0.19999999999999993,15,90.0,-90.0,0.048689393807844664,-2.6494503466579213,1.3980093634277535,2.5723090439256335,-2.807107556378371,2.3706094877336246,-1.3270115512924268
0.0,0.05,0.2,-0.19918584287042093,-0.065,0.2,30,90.0,-90.0,0.051896276515320965,2.843634529312404,0.9631937888387632,2.758518864570098,2.2312299588284814,1.9531665960300044,-2.017856000011653
0.0,0.05,0.2,-0.1626345596729059,-0.1126345596729059,0.19999999999999993,45,90.0,-90.0,0.0947059433070342,2.4508928350680064,0.9211721170180741,2.5075673388492032,1.6608320869346407,1.5979723038856486,-1.8576062438474008
0.0,0.05,0.2,-0.115,-0.14918584287042091,0.19999999999999998,60,90.0,-90.0,0.12398609198900161,2.3369250007322244,1.012483040910766,2.148012850019987,1.2890346081729773,1.564754042783475,-1.58796166267015
0.0,0.05,0.2,-0.05952838037357977,-0.17216294004648575,0.2,75,90.0,-90.0,0.1027309384264791,2.3504881122897436,1.1630808203299863,1.7029157982510346,1.057576182893564,1.7088929130837796,-1.3310473028511831
0.0,0.05,0.2,-3.6112126549726834e-17,-0.18000000000000005,0.2,90,90.0,-90.0,0.06561637671659817,2.4256073777438782,1.3834455337724454,1.1398083796539586,0.9529646769225251,1.9610074529887622,-1.0785955437934691
-0.1,0.1,0.2,-0.10000000000000005,0.33000000000000007,0.2,-90,90.0,-90.0,0.060644019970763324,0.838842437952286,-2.0739609750282906,0.2952132890300084,-1.3432889050092802,-2.3863865279728165,0.3064539082822092
-0.1,0.1,0.2,-0.15952838037357978,0.3221629400464857,0.19999999999999998,-75,90.0,-90.0,0.09417677830674419,0.8343531279557501,-1.1751103304398038,-0.7471649945781433,1.7900590822791569,2.1036682889022065,-2.729498357668539
-0.1,0.1,0.2,-0.21500000000000002,0.2991858428704209,0.19999999999999998,-60,90.0,-90.0,0.11952495523779356,0.9200165701805,-1.0401792413547404,-1.1210562316171497,1.799254587574439,1.897678414486781,-2.513127938342474
-0.1,0.1,0.2,-0.26263455967290594,0.26263455967290594,0.19999999999999998,-45,90.0,-90.0,0.13737039403272414,1.010548727969978,-0.9418039960162234,-1.4541391433072426,1.7382314447176352,1.722862102967069,-2.304074133794939
-0.1,0.1,0.2,-0.29918584287042094,0.21500000000000002,0.19999999999999998,-30,90.0,-90.0,0.12612451136818173,1.1034073913700237,-0.899179662426439,-1.7629706367737663,1.620758908312845,1.5961198434055284,-2.049087989705359
-0.1,0.1,0.2,-0.3221629400464857,0.15952838037357978,0.19999999999999996,-15,90.0,-90.0,0.08846939069207777,1.1942942095613394,-0.9735540436368221,-2.0547320747554645,1.4562541106613387,1.5587398580243255,-1.683319867655339
-0.1,0.1,0.2,-0.33,0.1,0.2,0,90.0,-90.0,0.05572327119852036,1.230272944066113,-1.3381274204801572,-2.3182880259501495,1.271643388041254,1.735039923944244,-1.0802784513719292
-0.1,0.1,0.2,-0.29918584287042094,-0.015,0.2,30,90.0,-90.0,0.08080412292483193,2.2465016886459512,1.0148329580796402,2.112084814956051,-1.4193278585759357,-1.5694552920120668,1.585469535082817
-0.1,0.1,0.2,-0.26263455967290594,-0.0626345596729059,0.19999999999999993,45,90.0,-90.0,0.11889644438773839,2.334609481350248,0.9014112384321354,1.8236227965935505,-1.590948465333006,-1.5790507035652674,1.98750131778406
-0.1,0.1,0.2,-0.21500000000000002,-0.0991858428704209,0.19999999999999998,60,90.0,-90.0,0.13919722320440248,2.4272861501084955,0.9275138353689965,1.519947794767199,-1.7179723697402216,-1.69147192067194,2.255570507542334
-0.1,0.1,0.2,-0.15952838037357978,-0.12216294004648573,0.2,75,90.0,-90.0,0.12393618599934215,2.5188718157404177,1.0159921256620104,1.1927630164430647,-1.7923934400226833,-1.8574430905302932,2.4714849442368676
-0.1,0.1,0.2,-0.10000000000000005,-0.13000000000000006,0.2,90,90.0,-90.0,0.09998379318986092,2.6056478230530997,1.1446518864322295,0.828863592418299,-1.7980808366855952,-2.059480456326788,2.68231682317534
-0.05,0.10000000000000002,0.2,-0.05000000000000004,0.33000000000000007,0.2,-90,90.0,-90.0,0.03815006892439357,0.8185933068657559,-1.9324749069563292,0.018482185227957887,-1.2246367662243374,-2.329681561738684,0.4833963467682598
-0.05,0.10000000000000002,0.2,-0.10952838037357976,0.32216294004648577,0.19999999999999998,-75,90.0,-90.0,0.08535418350906708,0.799168522688759,-1.2301353098318366,-0.6021035496297039,1.7239640731536643,2.0876404120833043,-2.8385043518127224
-0.05,0.10000000000000002,0.2,-0.16500000000000004,0.2991858428704209,0.19999999999999998,-60,90.0,-90.0,0.11431702946288623,0.8697708937364034,-1.0717482973459396,-1.0196761694178957,1.748027408620252,1.8693364677635997,-2.5933323468979057
-0.05,0.10000000000000002,0.2,-0.21263455967290595,0.26263455967290594,0.19999999999999998,-45,90.0,-90.0,0.13480165496566018,0.9455749326295965,-0.9581823866622535,-1.37676431718489,1.6822646089614408,1.6851113339992438,-2.3701385482804467
-0.05,0.10000000000000002,0.2,-0.24918584287042095,0.21500000000000002,0.19999999999999998,-30,90.0,-90.0,0.13071646805416667,1.0203599848839364,-0.9017892298557211,-1.6991523743261536,1.5478871556434892,1.5579661677770782,-2.1103803793322022
-0.05,0.10000000000000002,0.2,-0.2721629400464857,0.1595283803735798,0.19999999999999996,-15,90.0,-90.0,0.09394199276299113,1.085365168167367,-0.9479985045096663,-2.0046383773141634,1.351578623173998,1.5282503032758983,-1.7557412591020878
-0.05,0.10000000000000002,0.2,-0.28,0.10000000000000002,0.2,0,90.0,-90.0,0.06351163170909414,1.0835669608151577,-1.227149450886283,-2.2859276612302355,1.1122279199380616,1.7415004454985066,-1.2387378377982516
-0.05,0.10000000000000002,0.2,-0.2721629400464857,0.04047161962642027,0.19999999999999993,15,90.0,-90.0,0.06175024945078468,2.3610138164677106,1.2735286741890852,2.3114862040223567,-1.085439012373725,-1.7882729373089308,1.182370775783162
-0.05,0.10000000000000002,0.2,-0.24918584287042095,-0.014999999999999986,0.2,30,90.0,-90.0,0.08999608829218067,2.34031651346163,0.9637479319281821,2.0366375153300718,-1.3271583077798006,-1.5358160330146096,1.7072503532911445
-0.05,0.10000000000000002,0.2,-0.2126345596729059,-0.06263455967290589,0.19999999999999993,45,90.0,-90.0,0.127127449747591,2.4031483158477625,0.8995529904298587,1.7334248177675462,-1.529198623717987,-1.5471766098828417,2.0780638394529527
-0.05,0.10000000000000002,0.2,-0.165,-0.09918584287042088,0.19999999999999998,60,90.0,-90.0,0.13630253016227614,2.477437027869598,0.9495360907232396,1.4120614191056948,-1.6705729708185444,-1.6690273581436317,2.345239395836394
-0.05,0.10000000000000002,0.2,-0.10952838037357977,-0.12216294004648572,0.2,75,90.0,-90.0,0.11688924311623315,2.553265855314522,1.0579899654713167,1.0594887230334806,-1.744020798141806,-1.8482025536451894,2.5702458214980934
-0.05,0.10000000000000002,0.2,-0.05000000000000004,-0.13000000000000006,0.2,90,90.0,-90.0,0.08892194617655157,2.6251201584538655,1.2105441290385905,0.6513643326045899,-1.7329715958874903,-2.0623541163389123,2.8092386414104276
-0.1,0.15000000000000002,0.2,-0.10000000000000005,0.3800000000000001,0.2,-90,90.0,-90.0,0.03686631251372458,0.9190805249693165,-1.9304684662405982,0.024421683636896504,-1.1634872063070367,-2.41940493611504,0.5219627265385292
-0.1,0.15000000000000002,0.2,-0.15952838037357978,0.37216294004648576,0.19999999999999998,-75,90.0,-90.0,0.08185159557915908,0.8919930596003283,-1.2433710276595793,-0.571780302680936,1.7461961579868066,2.1786140479597225,-2.8408483226629215
-0.1,0.15000000000000002,0.2,-0.21500000000000002,0.34918584287042087,0.19999999999999998,-60,90.0,-90.0,0.11047524924275323,0.970230703706673,-1.089038878426741,-0.976967900744758,1.7944288834207291,1.9596770285254876,-2.6015232141700517
-0.1,0.15000000000000002,0.2,-0.26263455967290594,0.312634559672906,0.19999999999999998,-45,90.0,-90.0,0.1317543377767404,1.0567367036519273,-0.9753768433497098,-1.3260576786668183,1.754619970064689,1.7727739470814532,-2.391998495775943
-0.1,0.15000000000000002,0.2,-0.29918584287042094,0.265,0.19999999999999998,-30,90.0,-90.0,0.13664485893433337,1.1459539321161933,-0.9068072983443106,-1.6465681526546494,1.6519796242211824,1.6253457106620353,-2.1558870223054454
-0.1,0.15000000000000002,0.2,-0.3221629400464857,0.2095283803735798,0.19999999999999996,-15,90.0,-90.0,0.10271413348297989,1.2335087701742948,-0.924579282083087,-1.946072332576235,1.4975470113595626,1.5508254050951555,-1.8404686835483923
-0.1,0.15000000000000002,0.2,-0.33,0.15000000000000002,0.2,0,90.0,-90.0,0.06625466619399592,1.297869643015241,-1.1484363982547823,-2.227916005795426,1.3051240738900873,1.6326706967786344,-1.343552577750281
-0.1,0.15000000000000002,0.2,-0.29918584287042094,0.03500000000000002,0.2,30,90.0,-90.0,0.07048428917944723,-0.7843204465682728,-1.0994608793984653,-2.194263129675935,1.8314309713800452,-1.60949478270796,1.4238880944495553
-0.1,0.15000000000000002,0.2,-0.26263455967290594,-0.012634559672905887,0.19999999999999993,45,90.0,-90.0,0.10760678956841901,-0.7175811428398913,-0.9150043521836296,-1.9079297320362165,1.6356395856760804,-1.550453289458939,1.8881639512724389
-0.1,0.15000000000000002,0.2,-0.21500000000000002,-0.04918584287042088,0.19999999999999998,60,90.0,-90.0,0.13869109520484305,-0.6315685303714963,-0.9120078675293094,-1.6059896840601018,1.4825534772446405,-1.6341805991593945,2.1907427069762404
-0.1,0.15000000000000002,0.2,-0.15952838037357978,-0.07216294004648571,0.2,75,90.0,-90.0,0.12961786986481902,-0.5448301996863887,-0.986955017907849,-1.2846707476609283,1.3857095208917698,-1.7859300049738385,2.4198242816916373
-0.1,0.15000000000000002,0.2,-0.10000000000000005,-0.08000000000000004,0.2,90,90.0,-90.0,0.10728411264700595,-0.459580976126482,-1.1061034721231844,-0.9293481458895663,1.3517321924060481,-1.978334243409059,2.6304371630743253
0.0,-0.15000000000000002,0.2,-3.611212654972683e-17,0.08000000000000004,0.2,-90,90.0,-90.0,0.08951510859636781,0.5601746925729203,-1.2407332656664865,-1.5010644649628897,-1.0458751740818033,-1.7791846847766566,1.2277052674160458
0.0,-0.15000000000000002,0.2,-0.05952838037357976,0.07216294004648571,0.19999999999999998,-75,90.0,-90.0,0.11683162219393305,0.5883339733051093,-1.0645384510833251,-1.9872182651086132,-1.2444675862640022,-1.5988227615843187,1.485632476061302
0.0,-0.15000000000000002,0.2,-0.11500000000000003,0.049185842870420854,0.19999999999999998,-60,90.0,-90.0,0.10992765260744869,0.5099039454074714,-0.9477986658117288,-2.3762714321387937,-1.5834282558028445,-1.5723842350014812,1.7531663660571841
0.0,-0.15000000000000002,0.2,-0.16263455967290594,0.012634559672905915,0.19999999999999998,-45,90.0,-90.0,0.06737364858127766,0.21318844509054938,-0.9295012238721463,-2.6568236300636237,-2.0982372394613846,-1.8051503829304756,1.9511692886216052
0.0,-0.15000000000000002,0.2,-0.19918584287042093,-0.03500000000000002,0.19999999999999998,-30,90.0,-90.0,0.08766517934035127,0.5858947663839381,-0.9808267886202443,-2.0550404689869204,1.1110771699043986,1.523962080782314,-1.6663484411131673
0.0,-0.15000000000000002,0.2,-0.22216294004648574,-0.09047161962642025,0.19999999999999996,-15,90.0,-90.0,0.06987054793686008,0.4736632328294811,-1.2199241845966884,-2.332942483559172,0.7792625449051479,1.8707330627474124,-1.2860287518295563
0.0,-0.15000000000000002,0.2,-0.23,-0.15000000000000002,0.2,0,90.0,-90.0,0.04553937280053108,0.11944630281100284,-1.306196019489524,-2.596052998480114,0.16536730902144672,2.3249135906629657,-1.4567231903773958
0.0,-0.15000000000000002,0.2,-0.2221629400464857,-0.20952838037357976,0.19999999999999993,15,90.0,-90.0,0.06142895191950299,-0.6032253687305982,-0.9472608538844257,-2.681963061109594,-0.9251707362106261,1.8792345494262501,-1.9533751622563733
0.0,-0.15000000000000002,0.2,-0.19918584287042093,-0.265,0.2,30,90.0,-90.0,0.10339199415272864,-0.9518362296297694,-0.9380022811000044,-2.419797170560053,-1.4764742132729118,1.5905404798211493,-1.7866289576887502
0.0,-0.15000000000000002,0.2,-0.1626345596729059,-0.31263455967290593,0.19999999999999993,45,90.0,-90.0,0.1189779825837663,-1.0585052965105353,-1.046513196388593,-2.042588665363363,-1.8440936804493928,1.5850711264082875,-1.5209928546409757
0.0,-0.15000000000000002,0.2,-0.115,-0.3491858428704209,0.19999999999999998,60,90.0,-90.0,0.09368900264982342,-1.044632181043937,-1.214911149673921,-1.5696072794444993,-2.0649841120216843,1.7451288909693978,-1.2573930244964315
0.0,-0.15000000000000002,0.2,-0.05952838037357977,-0.37216294004648576,0.2,75,90.0,-90.0,0.04540366004941299,-0.9661922312547168,-1.488508677698108,-0.9070525255170144,-2.1300753537752404,2.0256907998801554,-0.9570475407657255
0.0,0.1,0.2,-0.05952838037357976,0.3221629400464857,0.19999999999999998,-75,90.0,-90.0,0.07664859303858704,0.9257778447258274,-1.3198852146178277,-1.2953509207486786,-0.9763309035854765,-1.8843279412963723,1.1407970018530271
0.0,0.1,0.2,-0.11500000000000003,0.2991858428704209,0.19999999999999998,-60,90.0,-90.0,0.1088766408451626,0.9862271345251723,-1.121622421739997,-1.819164576214943,-1.1152070737697783,-1.6594321044428744,1.391240592845049
0.0,0.1,0.2,-0.16263455967290594,0.26263455967290594,0.19999999999999998,-45,90.0,-90.0,0.1237281709128089,0.9716369960500281,-0.9842627601530274,-2.2436850556798533,-1.384431960852874,-1.5556053380989505,1.6547435873491996
0.0,0.1,0.2,-0.19918584287042093,0.21500000000000002,0.19999999999999998,-30,90.0,-90.0,0.08383173368024162,0.8003242467973919,-0.9137646006536142,-2.5776381669765827,-1.8029762312325182,-1.6543659387699712,1.9103994507690323
0.0,0.1,0.2,-0.22216294004648574,0.15952838037357978,0.19999999999999996,-15,90.0,-90.0,0.04059586884662008,0.2750272428356801,-1.0403639421664082,-2.7774305245581914,-2.4896802167054037,-2.1377444245155233,1.9595127836826536
0.0,0.1,0.2,-0.23,0.1,0.2,0,90.0,-90.0,0.07218598204571754,0.9586007591503326,-1.1284600501126836,-2.2371881822754154,0.9696981421445307,1.6995110584607978,-1.385758509948722
0.0,0.1,0.2,-0.2221629400464857,0.040471619626420256,0.19999999999999993,15,90.0,-90.0,0.06186499868467439,0.7058290944697769,-1.3822936883503034,-2.4776564455157777,0.5640813903516888,2.2063258005258204,-1.2110533294154302
0.0,0.1,0.2,-0.19918584287042093,-0.015,0.2,30,90.0,-90.0,0.03820590184997945,0.06206133705099524,-1.068586351134702,-2.776699750524714,-0.5774466249852503,2.18839502812419,-1.9327170609385171
0.0,0.1,0.2,-0.1626345596729059,-0.0626345596729059,0.19999999999999993,45,90.0,-90.0,0.0820784732092246,-0.4950136077049833,-0.914386920863758,-2.584778140481049,-1.2968013115374162,1.6710704772586258,-1.913937389030323
0.0,0.1,0.2,-0.115,-0.0991858428704209,0.19999999999999998,60,90.0,-90.0,0.12179317177872531,-0.6815247850680728,-0.9806909095292824,-2.2532033186230986,-1.7274936401587904,1.5554472544514082,-1.660999417771188
0.0,0.1,0.2,-0.05952838037357977,-0.12216294004648573,0.2,75,90.0,-90.0,0.10932226298753742,-0.7041347502884071,-1.1185287963520743,-1.8302907308516303,-2.0051369975207227,1.6530215946748077,-1.3971128936987212
0.0,0.1,0.2,-3.6112126549726834e-17,-0.13000000000000006,0.2,90,90.0,-90.0,0.07733397657133526,-0.6480902155270605,-1.316598540489254,-1.3065793357424766,-2.1518880697175584,1.874479674846157,-1.142918264091584
-0.05,0.2,0.2,-0.10952838037357976,0.42216294004648575,0.19999999999999998,-75,90.0,-90.0,0.05288064662696417,0.920900300072178,-1.4117841621119327,-0.16783317993378805,1.5783395723040288,2.2290157005461744,3.1522523583279143
-0.05,0.2,0.2,-0.16500000000000004,0.3991858428704209,0.19999999999999998,-60,90.0,-90.0,0.09340941347527978,0.9702788253448225,-1.1884319091241557,-0.7067891364354169,1.7213568607420293,1.9931353108321606,3.4973074081712445
-0.05,0.2,0.2,-0.21263455967290595,0.3626345596729059,0.19999999999999998,-45,90.0,-90.0,0.1206499042259027,1.037631255583801,-1.037715634836352,-1.1141337353708882,1.7113930801720123,1.7805798968742208,3.736731771430354
-0.05,0.2,0.2,-0.24918584287042095,0.315,0.19999999999999998,-30,90.0,-90.0,0.10680849383562772,-1.9941688397494035,0.9370697499983324,2.4266875022857044,1.6679188831262073,-1.5491821296894488,1.7917333646467692
-0.05,0.2,0.2,-0.2721629400464857,0.2595283803735798,0.19999999999999996,-15,90.0,-90.0,0.06399964039179756,-2.2509531767193125,0.9168268274675114,2.7300104210659493,1.199312479617206,-1.7689977793583838,2.0377134898873495
-0.05,0.2,0.2,-0.28,0.2,0.2,0,90.0,-90.0,0.08356138090558748,1.213566410490273,-0.998876451120886,-2.0912252191430247,1.2136031817002233,1.5519528676955514,-1.619256752183438
-0.05,0.2,0.2,-0.2721629400464857,0.14047161962642027,0.19999999999999993,15,90.0,-90.0,0.06310888598302028,1.1225659192566413,-1.3236314015515813,-2.355755276147501,0.935482177751373,1.9110619906353232,-1.1448891071849423
-0.05,0.2,0.2,-0.24918584287042095,0.085,0.2,30,90.0,-90.0,0.0449609540340208,0.7662587088208611,-1.528455903253104,-2.5909984367150454,0.4183376633025293,2.5059077282881335,-1.226211214500132
-0.05,0.2,0.2,-0.2126345596729059,0.0373654403270941,0.19999999999999993,45,90.0,-90.0,0.05135576656156591,2.973905609327686,0.947978942933194,2.8020713858595645,2.097610892393297,1.9078369085041347,-2.0883069894098916
-0.05,0.2,0.2,-0.165,0.0008141571295791072,0.19999999999999998,60,90.0,-90.0,0.0939682409382801,2.6210735985635227,0.9171030034456362,2.5314418588141776,1.5734269128678244,1.5726197224312775,-1.8770146788755415
-0.05,0.2,0.2,-0.10952838037357977,-0.022162940046485724,0.2,75,90.0,-90.0,0.12538088141959172,2.5339727129741365,1.0074529816610878,2.167025068754563,1.2242150438962993,1.559942236130563,-1.600823702207272
-0.05,0.2,0.2,-0.05000000000000004,-0.030000000000000054,0.2,90,90.0,-90.0,0.10551242880487043,2.5639372200268453,1.1505886283992162,1.7312479623813013,1.008516987487767,1.7113745156560727,-1.3517732892222678
0.0,0.05000000000000002,0.2,-3.611212654972683e-17,0.2800000000000001,0.2,-90,90.0,-90.0,0.03530242537331504,0.6753005296175885,-1.509944795288992,0.05002601934337428,1.4823344536119973,2.241521938464562,2.9993782085568528
0.0,0.05000000000000002,0.2,-0.05952838037357976,0.2721629400464858,0.19999999999999998,-75,90.0,-90.0,0.08614754741000512,0.708450359802976,-1.2301324194078331,-0.6004066547689509,1.6923269887243277,2.0012196918923704,3.426975980474907
0.0,0.05000000000000002,0.2,-0.11500000000000003,0.2491858428704209,0.19999999999999998,-60,90.0,-90.0,0.1159538881613165,0.7687676697731418,-1.0640901891297012,-1.0350916615250758,1.6961382849331432,1.7809312811246636,3.6823306748727407
0.0,0.05000000000000002,0.2,-0.16263455967290594,0.21263455967290595,0.19999999999999998,-45,90.0,-90.0,0.11267232784741706,-2.2862916555757677,0.9526390096529911,2.3609665698712794,1.6399990113608316,-1.5597839412265448,1.7419574589650235
0.0,0.05000000000000002,0.2,-0.19918584287042093,0.16500000000000004,0.19999999999999998,-30,90.0,-90.0,0.07015775724263403,-2.536824212756369,0.9182420513809013,2.6647893120103263,1.1672002168170972,-1.7547603660594615,1.975511465876462
0.0,0.05000000000000002,0.2,-0.22216294004648574,0.10952838037357979,0.19999999999999996,-15,90.0,-90.0,0.08945049624320853,-2.2343200358496285,0.9695960473831794,2.0368710577176516,-1.9683380036639557,1.5181059826245036,-1.695194394326143
0.0,0.05000000000000002,0.2,-0.23,0.05000000000000002,0.2,0,90.0,-90.0,0.06806810269680275,-2.318757508098863,1.2254536158278373,2.3191317325170773,-2.2768562036687783,1.8408128543641558,-1.267060385378299
0.0,0.05000000000000002,0.2,-0.2221629400464857,-0.009528380373579733,0.19999999999999993,15,90.0,-90.0,0.04871411927940728,-2.649229340191287,1.3982361175757876,2.572229921692784,-2.8062453557405975,2.370471712795543,-1.3252339853091724
0.0,0.05000000000000002,0.2,-0.19918584287042093,-0.06499999999999999,0.2,30,90.0,-90.0,0.10856215038833683,-0.7791290839378023,-0.9120687163191187,-1.8648361694169062,1.8208510893790633,-1.4755827444377785,1.9243365261201568
0.0,0.05000000000000002,0.2,-0.1626345596729059,-0.11263455967290589,0.19999999999999993,45,90.0,-90.0,0.13719799875996697,-0.7304536923834118,-0.9201374756292889,-1.546712611403669,1.6134192306784945,-1.5362886135966833,2.2455445607453757
0.0,0.05000000000000002,0.2,-0.115,-0.1491858428704209,0.19999999999999998,60,90.0,-90.0,0.12595087836548005,-0.6709322323034271,-1.0087262736158462,-1.200992469617444,1.4829219469450683,-1.689431119790219,2.4970127780081866
0.0,0.05000000000000002,0.2,-0.05952838037357977,-0.17216294004648572,0.2,75,90.0,-90.0,0.100628420530456,-0.6091853013128374,-1.1492967116461625,-0.8050781461168165,1.4364607759464167,-1.891133999891984,2.736281038584838
0.0,0.05000000000000002,0.2,-3.6112126549726834e-17,-0.18000000000000005,0.2,90,90.0,-90.0,0.06301946117176796,-0.5581633078123438,-1.3576306815113213,-0.2936517372967825,1.5214369938552175,-2.1267691883803668,3.0468773517821046
0.05,0.05,0.2,-0.00952838037357976,0.2721629400464857,0.19999999999999998,-75,90.0,-90.0,0.07258437289088293,0.678809449684057,-1.307369346889049,-0.410821132840763,1.6362678167583318,1.9826620805989594,-2.9795417440322844
0.05,0.05,0.2,-0.06500000000000003,0.2491858428704209,0.19999999999999998,-60,90.0,-90.0,0.10790379224577942,0.7254309677909471,-1.1096108990217513,-0.9068641478967377,1.657731967099108,1.7522822536523475,-2.687208653816833
0.05,0.05,0.2,-0.11263455967290593,0.21263455967290595,0.19999999999999998,-45,90.0,-90.0,0.13028968259183724,0.7744932021064445,-0.9786887820506938,-1.2970228416037095,1.5634614412170769,1.562080999543732,-2.4357946216330983
0.05,0.05,0.2,-0.14918584287042091,0.165,0.19999999999999998,-30,90.0,-90.0,0.1276855691242955,0.8163197125652867,-0.9111750242681061,-1.6378395028442438,1.3787980891398304,1.4423128540168453,-2.1500989889717603
0.05,0.05,0.2,-0.17216294004648575,0.10952838037357977,0.19999999999999996,-15,90.0,-90.0,0.09644598897965596,0.8327809502553922,-0.9451160752377515,-1.95722386561045,1.1058850991583273,1.4628577167262544,-1.7837795356323765
0.05,0.05,0.2,-0.18,0.05,0.2,0,90.0,-90.0,0.07690066852308715,0.7451113029665752,-1.1135893458580701,-2.251354157858849,0.7585119058240306,1.7332551660738842,-1.418301835430707
0.05,0.05,0.2,-0.1721629400464857,-0.009528380373579746,0.19999999999999993,15,90.0,-90.0,0.06073309940794372,0.43791052267878144,-1.2117787833545743,-2.5047790498872295,0.20976993324319526,2.1349624557015314,-1.4567554936459717
0.05,0.05,0.2,-0.14918584287042091,-0.065,0.2,30,90.0,-90.0,0.0632468749040359,-0.1659746639751356,-0.970776563825701,-2.619503960006952,-0.7401330931412808,1.9113642149908032,-1.866692977038883
0.05,0.05,0.2,-0.1126345596729059,-0.1126345596729059,0.19999999999999993,45,90.0,-90.0,0.10264726656300616,-0.5575862337185955,-0.9455464553549253,-2.3943223158392106,-1.3476929535162596,1.6146570012758041,-1.7640937464910924
0.05,0.05,0.2,-0.065,-0.14918584287042091,0.19999999999999998,60,90.0,-90.0,0.11713507834278832,-0.6994593483760271,-1.0512857726240386,-2.0298983051633184,-1.7461480189187246,1.5815645097786144,-1.5109154358873937
0.05,0.05,0.2,-0.009528380373579767,-0.17216294004648575,0.2,75,90.0,-90.0,0.09057307163490702,-0.7092284768054751,-1.2263691182133658,-1.5481751269850401,-1.9924166579372564,1.7261554565594959,-1.2367082574354935
0.05,0.05,0.2,0.04999999999999997,-0.18000000000000005,0.2,90,90.0,-90.0,0.035536411584607915,-0.6409664358086765,-1.5354358120843357,-0.8153710956938909,-2.0539634221499314,2.009557296759032,-0.8905860876694563
0.1,0.05,0.2,0.04047161962642024,0.2721629400464857,0.19999999999999998,-75,90.0,-90.0,0.05355896813246158,0.6538274936257779,-1.413713331575106,-0.1643023646154022,1.57285183213762,1.9626922485418643,3.149283775124055
0.1,0.05,0.2,-0.015000000000000027,0.2491858428704209,0.19999999999999998,-60,90.0,-90.0,0.09790315159014303,0.6845612879468744,-1.164890520933127,-0.7601503712831986,1.626896325544248,1.7226608840302726,3.4997786088364733
0.1,0.05,0.2,-0.06263455967290593,0.21263455967290595,0.19999999999999998,-45,90.0,-90.0,0.12344324200152663,-2.430331506749521,1.0134452146838029,1.1826351790679444,-1.6144514509283672,1.5104489218552442,-2.5139950801306363
0.1,0.05,0.2,-0.09918584287042093,0.165,0.19999999999999998,-30,90.0,-90.0,0.1267860378999681,-2.4032768517442147,0.929424798099816,1.5373589444364975,-1.8153479979857992,1.3796409016721953,-2.221060570003973
0.1,0.05,0.2,-0.12216294004648573,0.10952838037357977,0.19999999999999996,-15,90.0,-90.0,0.1015500786850859,-2.4041577220807486,0.9352130710868745,1.8626054590549714,-2.1149926260488594,1.3883127263174753,-1.8636095314365493
0.1,0.05,0.2,-0.13,0.05,0.2,0,90.0,-90.0,0.08619242131982932,-2.5043039123615367,1.0406376932629027,2.1647085823985823,-2.5029449779385646,1.6211259576119585,-1.5336145978457911
0.1,0.05,0.2,-0.1221629400464857,-0.009528380373579746,0.19999999999999993,15,90.0,-90.0,0.09344214996203903,-0.6170475153899123,-0.9656849922108268,-1.9822300640708006,2.252484025030629,-1.447088514585517,1.7211901171844841
0.1,0.05,0.2,-0.09918584287042093,-0.065,0.2,30,90.0,-90.0,0.1179372344094869,-0.6435696002892536,-0.9190688786869632,-1.6636317061921035,1.9184162399906393,-1.3606113573490592,2.0917873269032268
0.1,0.05,0.2,-0.0626345596729059,-0.1126345596729059,0.19999999999999993,45,90.0,-90.0,0.12875720984129263,-0.6232087676655805,-0.9724733611221259,-1.323411205472363,1.6786179648257955,-1.4488275121134582,2.4099394714122937
0.1,0.05,0.2,-0.015,-0.14918584287042091,0.19999999999999998,60,90.0,-90.0,0.10937778895734973,-0.5893156286165758,-1.0979926672010163,-0.9345035527481619,1.5409374516603376,-1.6285302058956808,2.679301408567167
0.1,0.05,0.2,0.040471619626420235,-0.17216294004648575,0.2,75,90.0,-90.0,0.07412498417426786,-0.5536824710942527,-1.298253084301465,-0.4316519838086276,1.5223724621228099,-1.8584741146169512,2.976258366396982
0.1,0.0,0.2,0.04047161962642024,0.22216294004648574,0.19999999999999998,-75,90.0,-90.0,0.06846202857137432,0.5928246442170749,-1.330739512407513,-0.355500821176088,1.6103352964735824,1.8990327579240258,-3.0188511052756732
0.1,0.0,0.2,-0.015000000000000027,0.19918584287042088,0.19999999999999998,-60,90.0,-90.0,0.1059075313659265,0.6284049549375323,-1.1192187230870312,-0.8793699707283398,1.6139543753954277,1.6670412167642987,-2.7118469074208065
0.1,0.0,0.2,-0.06263455967290593,0.16263455967290594,0.19999999999999998,-45,90.0,-90.0,0.12769913464405422,0.6644903026244253,-0.9840280026090135,-1.280401127519,1.4930812292358304,1.4771239852848335,-2.4452665094150134
0.1,0.0,0.2,-0.09918584287042093,0.115,0.19999999999999998,-30,90.0,-90.0,0.1218929278017522,0.6894949431956046,-0.9204083307656858,-1.6244341867908367,1.269913915982605,1.3731780048654987,-2.1366897078699103
0.1,0.0,0.2,-0.12216294004648573,0.05952838037357977,0.19999999999999996,-15,90.0,-90.0,0.09585567650929817,0.6757858198946363,-0.9537520756110797,-1.9461919288137877,0.9508458762850722,1.4286237396185526,-1.766554346564017
0.1,0.0,0.2,-0.13,0.0,0.2,0,90.0,-90.0,0.08463670334197601,0.5372526148519394,-1.073023579875462,-2.2336475024106353,0.5438127874982264,1.7115216268221065,-1.484804114822619
0.1,0.0,0.2,-0.1221629400464857,-0.05952838037357975,0.19999999999999993,15,90.0,-90.0,0.0722442369054483,0.18792809357470416,-1.0731500728511236,-2.4520696633124794,-0.0786286126664552,1.9540523248843995,-1.6000623522345425
0.1,0.0,0.2,-0.09918584287042093,-0.115,0.2,30,90.0,-90.0,0.08501668906729289,-0.302518661105446,-0.9582498376269456,-2.446082006535667,-0.8431529362063771,1.7469715512940187,-1.7653873562781672
0.1,0.0,0.2,-0.0626345596729059,-0.1626345596729059,0.19999999999999993,45,90.0,-90.0,0.11659373777074052,-0.599175602488405,-0.999327972284571,-2.1898613968955396,-1.3842503887040947,1.5787139651985258,-1.6175536393159686
0.1,0.0,0.2,-0.015,-0.1991858428704209,0.19999999999999998,60,90.0,-90.0,0.1020647773522955,-0.7107064776242025,-1.1425424440745877,-1.7768440366146545,-1.7542370421642701,1.6114293345258426,-1.3521069561927856
0.1,0.0,0.2,0.040471619626420235,-0.22216294004648574,0.2,75,90.0,-90.0,0.06249585281114243,-0.7070208096811043,-1.3804995895024332,-1.1834011857040752,-1.9497592540561768,1.8084583045374958,-1.0393997766955947
0.05,0.05000000000000002,0.2,-0.00952838037357976,0.2721629400464858,0.19999999999999998,-75,90.0,-90.0,0.07243616583597472,-2.471832207322735,1.3075982058550553,0.41028329026623606,-1.5066309549998875,1.9748864442894534,3.301216823506143
0.05,0.05000000000000002,0.2,-0.06500000000000003,0.2491858428704209,0.19999999999999998,-60,90.0,-90.0,0.10779394277902865,-2.426350612147617,1.1095397413602934,0.9059467457499306,-1.4868313664650175,1.744015356150232,3.593278873313983
0.05,0.05000000000000002,0.2,-0.11263455967290593,0.21263455967290595,0.19999999999999998,-45,90.0,-90.0,0.11882514101548604,0.7648195113905202,-0.9792305104576313,-2.259846426871042,-1.5914173761674169,-1.5732837920198262,1.6675764554275774
0.05,0.05000000000000002,0.2,-0.14918584287042091,0.16500000000000004,0.19999999999999998,-30,90.0,-90.0,0.07931664128565716,0.5045722609912767,-0.9331402136703221,-2.5495124118495514,-2.0863990601202578,-1.7447949447737368,1.8652591607187496
0.05,0.05000000000000002,0.2,-0.17216294004648575,0.10952838037357979,0.19999999999999996,-15,90.0,-90.0,0.050583716697395135,-0.07410649462455535,-1.1100215694010611,-2.611239627109566,-2.917413388971657,-2.1392904489803635,1.6932237019622387
0.05,0.05000000000000002,0.2,-0.18,0.05000000000000002,0.2,0,90.0,-90.0,0.07691735375632112,0.7447828969299095,-1.1147942487272198,-2.252024671117044,0.7571808092522642,1.7352114129544953,-1.4171194665226854
0.05,0.05000000000000002,0.2,-0.1721629400464857,-0.009528380373579733,0.19999999999999993,15,90.0,-90.0,0.06057524070442206,0.43697387837105733,-1.2115545679428075,-2.505967337269376,0.207416978991351,2.1363925636680814,-1.458225210092197
0.05,0.05000000000000002,0.2,-0.14918584287042091,-0.06499999999999999,0.2,30,90.0,-90.0,0.06328002777255919,-0.1668988809967942,-0.9706948914897734,-2.6194173758106754,-0.7418064020340627,1.9113972709166545,-1.8681208699388514
0.05,0.05000000000000002,0.2,-0.1126345596729059,-0.11263455967290589,0.19999999999999993,45,90.0,-90.0,0.1026430735381762,-0.557671452622233,-0.9454222687293321,-2.394503586356707,-1.3480210581252996,1.6147697774400909,-1.765146937761007
0.05,0.05000000000000002,0.2,-0.065,-0.1491858428704209,0.19999999999999998,60,90.0,-90.0,0.1171452642581649,-0.6993740485429918,-1.0508564542087722,-2.030518205704714,-1.7455813391363149,1.5810005213612734,-1.5105850680740398
0.05,0.05000000000000002,0.2,-0.009528380373579767,-0.17216294004648572,0.2,75,90.0,-90.0,0.0905557043019885,-0.7091723623424709,-1.226436681501693,-1.5478310392064416,-1.9929878611115626,1.726136837907732,-1.236751429603781
0.05,0.05000000000000002,0.2,0.04999999999999997,-0.18000000000000005,0.2,90,90.0,-90.0,0.03538627011156227,-0.6408391091943856,-1.5361043750534789,-0.813521099036913,-2.054189609059644,2.010212007008521,-0.8884444181595221
0.0,-0.2,0.2,-3.611212654972683e-17,0.030000000000000054,0.2,-90,90.0,-90.0,0.0930982687277261,-2.81332925236994,1.192125179631705,0.6931854208146981,-1.465388298169424,1.883019908250682,-2.8104829856865345
0.0,-0.2,0.2,-0.05952838037357976,0.022162940046485724,0.19999999999999998,-75,90.0,-90.0,0.1211803544688214,-2.760136343130072,1.0341198811001784,1.1190041577148362,-1.5047907665235432,1.6698476144886811,-2.5559062261871737
0.0,-0.2,0.2,-0.11500000000000003,-0.000814157129579135,0.19999999999999998,-60,90.0,-90.0,0.13572479820251682,-2.7099874563806083,0.933703936954956,1.4764545381244683,-1.6379543887826273,1.5093121194000543,-2.299251667335728
0.0,-0.2,0.2,-0.16263455967290594,-0.037365440327094074,0.19999999999999998,-45,90.0,-90.0,0.11291396989089146,-2.6711843586885418,0.9101105113014234,1.8030519935732974,-1.8591431762604955,1.4421688695117139,-1.9803112497868791
0.0,-0.2,0.2,-0.19918584287042093,-0.085,0.19999999999999998,-30,90.0,-90.0,0.08318037386089898,-2.6810660430519415,1.016120560467781,2.1128319121543693,-2.156632684201522,1.5630078298827275,-1.581931791170992
0.0,-0.2,0.2,-0.22216294004648574,-0.14047161962642024,0.19999999999999996,-15,90.0,-90.0,0.0715826154032196,-2.8598686206270933,1.2311259925048563,2.38305366580873,-2.5446392593432297,1.9703308447337617,-1.312079276768664
0.0,-0.2,0.2,-0.23,-0.2,0.2,0,90.0,-90.0,0.04260233870053592,-0.141228638771904,-1.1620064391861602,-2.6542961560584635,-0.180872967393944,2.2375033987877866,-1.6835982295872811
0.0,-0.2,0.2,-0.2221629400464857,-0.2595283803735798,0.19999999999999993,15,90.0,-90.0,0.0752752316256483,-0.7725111090814989,-0.9283163900795717,-2.5919130929789267,-1.0651471209027255,1.7603059508021428,-1.8997955579516244
0.0,-0.2,0.2,-0.19918584287042093,-0.315,0.2,30,90.0,-90.0,0.11601313721582905,-1.0405893086838183,-0.9679418577942904,-2.297296102977117,-1.564453291310169,1.5705901937285656,-1.6944102210047045
0.0,-0.2,0.2,-0.1626345596729059,-0.3626345596729059,0.19999999999999993,45,90.0,-90.0,0.11122179044559899,-1.1113902246384189,-1.0981955299690487,-1.8913551498300707,-1.8927883903410205,1.6187468320474498,-1.4256715672257465
0.0,-0.2,0.2,-0.115,-0.3991858428704209,0.19999999999999998,60,90.0,-90.0,0.07998321333046779,-1.0813825773766867,-1.2940603357124423,-1.3715888589965315,-2.0768914680404027,1.8148379816187412,-1.1579116145076331
0.05,-0.10000000000000002,0.2,0.04999999999999997,0.13000000000000006,0.2,-90,90.0,-90.0,0.06037470196876917,-2.6941254027074333,1.3746919090035599,0.2530925729312442,-1.5428207518436825,2.0168227643973418,-3.07749386884549
0.05,-0.10000000000000002,0.2,-0.00952838037357976,0.12216294004648572,0.19999999999999998,-75,90.0,-90.0,0.10076405385962746,-2.653735559563392,1.149445813390908,0.8012768269376034,-1.4865375999658759,1.7797944503628744,-2.7530883489751203
0.05,-0.10000000000000002,0.2,-0.06500000000000003,0.09918584287042086,0.19999999999999998,-60,90.0,-90.0,0.12590039285029683,-2.6074708057825497,1.0043514542026568,1.2094450457673251,-1.5638441728139163,1.5793296850234197,-2.497837157429726
0.05,-0.10000000000000002,0.2,-0.11263455967290593,0.06263455967290592,0.19999999999999998,-45,90.0,-90.0,0.13137950068779566,-2.5673327268066446,0.9211348996498929,1.5597523468307337,-1.7378478559262807,1.4411292877888047,-2.2198936051722837
0.05,-0.10000000000000002,0.2,-0.14918584287042091,0.014999999999999986,0.19999999999999998,-30,90.0,-90.0,0.10252993152039361,-2.5479406421326165,0.9269399507409212,1.8839407586947188,-2.003390372077852,1.4268068244142933,-1.869053529852827
0.05,-0.10000000000000002,0.2,-0.17216294004648575,-0.04047161962642025,0.19999999999999996,-15,90.0,-90.0,0.08077298598507396,-2.612489929037353,1.0638096489378404,2.1879445126422405,-2.348379930701363,1.648796390523859,-1.4932876214279824
0.05,-0.10000000000000002,0.2,-0.18,-0.10000000000000002,0.2,0,90.0,-90.0,0.07005931681349858,-2.878421177290868,1.1888986618631792,2.44658965606647,-2.843811811266766,2.046130903827232,-1.4318353097319445
0.05,-0.10000000000000002,0.2,-0.1721629400464857,-0.15952838037357978,0.19999999999999993,15,90.0,-90.0,0.059647633030387184,-0.2606896981703387,-1.0028450896718588,-2.611653064061976,-0.5750394252954543,1.976067176117986,-1.822042905011258
0.05,-0.10000000000000002,0.2,-0.14918584287042091,-0.21500000000000002,0.2,30,90.0,-90.0,0.0965003614740089,-0.7060116567928291,-0.9413164638301805,-2.4295609632873694,-1.2389832301085002,1.6475052483583799,-1.7881581084356302
0.05,-0.10000000000000002,0.2,-0.1126345596729059,-0.26263455967290594,0.19999999999999993,45,90.0,-90.0,0.11893069320196928,-0.8845520290340942,-1.031187538704941,-2.088754994058344,-1.6692423961584648,1.5721305110974586,-1.5485273733833889
0.05,-0.10000000000000002,0.2,-0.065,-0.29918584287042094,0.19999999999999998,60,90.0,-90.0,0.0948046459174241,-0.9157422192390159,-1.1989700923681663,-1.6228989342547973,-1.9454164899792294,1.6923136552388378,-1.273673717721221
0.05,-0.10000000000000002,0.2,-0.009528380373579767,-0.32216294004648577,0.2,75,90.0,-90.0,0.04673655586107123,-0.8624497851994019,-1.4749024574828478,-0.9529701685375249,-2.049105712585323,1.9506545434243114,-0.9505859323908079
0.0,0.2,0.2,-0.05952838037357976,0.42216294004648575,0.19999999999999998,-75,90.0,-90.0,0.025334372029572855,-2.2058018007394042,1.8568067318112138,0.14427880484904254,1.8915457435128553,-2.1734658685492807,0.531584633931133
0.0,0.2,0.2,-0.11500000000000003,0.3991858428704209,0.19999999999999998,-60,90.0,-90.0,0.08749089128717594,1.0765083753014726,-1.2511521699627661,-1.4759996884811455,-1.056174159152689,-1.7829807096797614,1.2118381016108253
0.0,0.2,0.2,-0.16263455967290594,0.3626345596729059,0.19999999999999998,-45,90.0,-90.0,0.11566119214122221,1.1028920471078332,-1.0713696818834266,-1.968088518047052,-1.2540347601809585,-1.6024832633917363,1.4730116017664248
0.0,0.2,0.2,-0.19918584287042093,0.315,0.19999999999999998,-30,90.0,-90.0,0.11121767982575004,1.0228517225193918,-0.951747081592282,-2.3597576627907535,-1.5940757912667032,-1.573881275521835,1.7406788510601066
0.0,0.2,0.2,-0.22216294004648574,0.2595283803735798,0.19999999999999996,-15,90.0,-90.0,0.0690856676286877,0.7283478063886114,-0.9307592565206777,-2.6384313378512223,-2.1084060966019353,-1.7996325619085047,1.9353664075485744
0.0,0.2,0.2,-0.23,0.2,0.2,0,90.0,-90.0,0.08885565433848165,1.0999231935117693,-0.9742151510733191,-2.0421553693132544,1.1024934462986093,1.51320396293369,-1.682071745290422
0.0,0.2,0.2,-0.2221629400464857,0.14047161962642027,0.19999999999999993,15,90.0,-90.0,0.07115106411356831,0.9896241577355844,-1.2001501535792465,-2.322342842132066,0.7651720465892304,1.8510704252243022,-1.3109061639360027
0.0,0.2,0.2,-0.19918584287042093,0.085,0.2,30,90.0,-90.0,0.0478209506123422,0.6396372345879519,-1.2796580085602458,-2.5840832254663173,0.15489073062196987,2.286315874016224,-1.4678078680444049
0.0,0.2,0.2,-0.1626345596729059,0.0373654403270941,0.19999999999999993,45,90.0,-90.0,0.06248469641420057,-0.059849195906404425,-0.9496041990880614,-2.666535415167204,-0.9036683339175793,1.8792333378636046,-1.937638905589982
0.0,0.2,0.2,-0.115,0.0008141571295791072,0.19999999999999998,60,90.0,-90.0,0.10416444773280752,-0.4105854104859357,-0.9415322655973044,-2.408013105507166,-1.4602748489702304,1.5950307238748318,-1.7768666546122545
0.0,0.2,0.2,-0.05952838037357977,-0.022162940046485724,0.2,75,90.0,-90.0,0.11825126821991955,-0.5204966959161392,-1.0497961480565277,-2.0324769009590082,-1.8284688534554887,1.5852654580732113,-1.512440345978578
0.0,0.2,0.2,-3.6112126549726834e-17,-0.030000000000000054,0.2,90,90.0,-90.0,0.09240748828426526,-0.5099982217026457,-1.221409063797827,-1.555139545291355,-2.052267372064826,1.7455534039575664,-1.2481761393927921
0.05,-0.15000000000000002,0.2,0.04999999999999997,0.08000000000000004,0.2,-90,90.0,-90.0,0.0700908358984069,-2.7592899111642377,1.3207757108021612,0.37847322047277016,-1.5184736575412454,1.949658508240947,3.280037451956535
0.05,-0.15000000000000002,0.2,-0.00952838037357976,0.07216294004648571,0.19999999999999998,-75,90.0,-90.0,0.10658207758130939,-2.7176116058814737,1.1164594059904491,0.887643517765233,-1.5026845287419637,1.719116797582662,3.5802374008890636
0.05,-0.15000000000000002,0.2,-0.06500000000000003,0.049185842870420854,0.19999999999999998,-60,90.0,-90.0,0.12919358173867163,0.47821762109495025,-0.9824213245819867,-1.2837625144344704,1.5413858966333651,1.5356719379765698,-2.445174520447046
0.05,-0.15000000000000002,0.2,-0.11263455967290593,0.012634559672905915,0.19999999999999998,-45,90.0,-90.0,0.12618647082604814,0.5139877451898891,-0.9140444386208457,-1.6277520044773581,1.3450616886585003,1.4181343632768806,-2.1527194711277167
0.05,-0.15000000000000002,0.2,-0.14918584287042091,-0.03500000000000002,0.19999999999999998,-30,90.0,-90.0,0.09659136263495478,0.520677398093977,-0.9447166012925201,-1.947785077877383,1.0584086902235923,1.4462063279937203,-1.7867877785753217
0.05,-0.15000000000000002,0.2,-0.17216294004648575,-0.09047161962642025,0.19999999999999996,-15,90.0,-90.0,0.07968134492359005,0.41792665162620446,-1.0962192489190425,-2.241904594849767,0.6898327528145659,1.7223561164318208,-1.4454355453728742
0.05,-0.15000000000000002,0.2,-0.18,-0.15000000000000002,0.2,0,90.0,-90.0,0.06441068813773598,0.09869250754003989,-1.154288277193869,-2.4896261223665963,0.11341510729878047,2.0694054293054873,-1.5169122345654473
0.05,-0.15000000000000002,0.2,-0.1721629400464857,-0.20952838037357976,0.19999999999999993,15,90.0,-90.0,0.07054688524473574,-0.4639457348207003,-0.9631688538016299,-2.56114241589537,-0.762061625264803,1.8536736217418286,-1.8312894616241844
0.05,-0.15000000000000002,0.2,-0.14918584287042091,-0.265,0.2,30,90.0,-90.0,0.10830281368888207,-0.82295056595336,-0.9605210270300738,-2.3302503585461847,-1.3486218130064316,1.6032086478687655,-1.7153529456140073
0.05,-0.15000000000000002,0.2,-0.1126345596729059,-0.31263455967290593,0.19999999999999993,45,90.0,-90.0,0.11293196799575307,-0.9572037035737047,-1.0775457106548665,-1.9541995636784804,-1.7406798194300415,1.5896908452807597,-1.462905704825671
0.05,-0.15000000000000002,0.2,-0.065,-0.3491858428704209,0.19999999999999998,60,90.0,-90.0,0.08291189779529046,-0.9648362766127746,-1.2686729719422052,-1.4457480491711059,-1.9761614661979683,1.7481226128641632,-1.1810375957344283
0.05,0.1,0.2,-0.00952838037357976,0.3221629400464857,0.19999999999999998,-75,90.0,-90.0,0.05703964571308447,0.7393911719646911,-1.39400723001042,-0.20919727742785585,1.5875568367574275,2.048961971591677,3.177944064254416
0.05,0.1,0.2,-0.06500000000000003,0.2991858428704209,0.19999999999999998,-60,90.0,-90.0,0.09879358310628225,0.7794914776129198,-1.1609534444031684,-0.7720028367741483,1.6627565232096786,1.8106502367753323,3.5150290516539795
0.05,0.1,0.2,-0.11263455967290593,0.26263455967290594,0.19999999999999998,-45,90.0,-90.0,0.1247948869556931,-2.324218263314383,1.0113752183502647,1.1870906792494271,-1.5513841772624217,1.5959855305802464,-2.5134473884483493
0.05,0.1,0.2,-0.14918584287042091,0.21500000000000002,0.19999999999999998,-30,90.0,-90.0,0.132721963788246,-2.2819687149409718,0.9240876432972285,1.5392035810693434,-1.7173581108948823,1.4531540195962085,-2.2400385390728452
0.05,0.1,0.2,-0.17216294004648575,0.15952838037357978,0.19999999999999996,-15,90.0,-90.0,0.10486122963196147,-2.2590452208727987,0.9226078926063161,1.8629609403738052,-1.9729102382267418,1.4263268646135907,-1.8969710653966159
0.05,0.1,0.2,-0.18,0.1,0.2,0,90.0,-90.0,0.0812036212607291,-2.3106976188937933,1.0516638103213465,2.1694081850738116,-2.308568003852041,1.6238988274572885,-1.511643992113243
0.05,0.1,0.2,-0.1721629400464857,0.040471619626420256,0.19999999999999993,15,90.0,-90.0,0.0716234205446839,-2.558343168309597,1.1984667115127998,2.430567896892625,-2.7800691119435044,2.0320743286685574,-1.4041329975839487
0.05,0.1,0.2,-0.14918584287042091,-0.015,0.2,30,90.0,-90.0,0.056188401726059836,0.07356812503733481,-1.0235327554062092,-2.6236822984834665,-0.5054238455368325,2.0213505699063057,-1.808471175632145
0.05,0.1,0.2,-0.1126345596729059,-0.0626345596729059,0.19999999999999993,45,90.0,-90.0,0.0924283835891542,-0.40377039325445346,-0.9366388962622929,-2.461034086380077,-1.2013932163160193,1.6660809038128825,-1.809693825222687
0.05,0.1,0.2,-0.065,-0.0991858428704209,0.19999999999999998,60,90.0,-90.0,0.1201398268928492,-0.5990989357026337,-1.0181972201843474,-2.1294817473698306,-1.646676606995069,1.5698015500682019,-1.5761723075767995
0.05,0.1,0.2,-0.009528380373579767,-0.12216294004648573,0.2,75,90.0,-90.0,0.09830392227007363,-0.6382123940727851,-1.177213033426586,-1.6780523537540084,-1.9338679040471556,1.6744193681954906,-1.3037586237162908
0.05,0.1,0.2,0.04999999999999997,-0.13000000000000006,0.2,90,90.0,-90.0,0.05509127221458193,-0.5909376953572618,-1.4300319093883025,-1.0535062320251085,-2.05836660795,1.9175008848297064,-0.9991696313046613
0.1,-0.2,0.2,0.09999999999999996,0.030000000000000054,0.2,-90,90.0,-90.0,0.056495686935121595,0.39583022957407077,-1.4084387919627217,-1.123517023519218,-1.2418563977295853,-1.793399381570719,0.9976847724341676
0.1,-0.2,0.2,0.04047161962642024,0.022162940046485724,0.19999999999999998,-75,90.0,-90.0,0.09928709092133328,0.387779493246203,-1.1553672848647876,-1.745348523192867,-1.4478598584018905,-1.6009788302306804,1.3315077424723372
0.1,-0.2,0.2,-0.015000000000000027,-0.000814157129579135,0.19999999999999998,-60,90.0,-90.0,0.11654002145449217,0.2598445851029399,-1.011426356305625,-2.1508732380557336,-1.834253007403707,-1.5753529763860838,1.5903689554406122
0.1,-0.2,0.2,-0.06263455967290593,-0.037365440327094074,0.19999999999999998,-45,90.0,-90.0,0.08970183527561457,-0.04368478697679467,-0.9723604451012321,-2.3802800428710156,-2.3880650501950242,-1.725407939886524,1.71558449216144
0.1,-0.2,0.2,-0.09918584287042093,-0.085,0.19999999999999998,-30,90.0,-90.0,0.09862570148344506,-2.7816164010195723,0.9473768939351666,1.8789036310877463,-2.232734068983503,1.3719252983927488,-1.817563627073019
0.1,-0.2,0.2,-0.12216294004648573,-0.14047161962642024,0.19999999999999996,-15,90.0,-90.0,0.09007821275409907,-2.921804291073539,1.0373379202728008,2.169662871273989,-2.6582610951733017,1.6279985536543764,-1.540965532818907
0.1,-0.2,0.2,-0.13,-0.2,0.2,0,90.0,-90.0,0.08329332098182331,-0.08920793841074917,-1.044101705037566,-2.3741671791234276,-0.09301419970404572,1.8472896000040706,-1.59565972681231
0.1,-0.2,0.2,-0.1221629400464857,-0.2595283803735798,0.19999999999999993,15,90.0,-90.0,0.09209471012759171,-0.5266410308995394,-0.9720037067849853,-2.3651575447893904,-0.7972256556354754,1.709184783371658,-1.710125794460907
0.1,-0.2,0.2,-0.09918584287042093,-0.315,0.2,30,90.0,-90.0,0.11562234932156581,-0.8145574292886917,-1.0228533161941433,-2.1149217106929465,-1.3374758424565845,1.569557483170119,-1.567147946276027
0.1,-0.2,0.2,-0.0626345596729059,-0.3626345596729059,0.19999999999999993,45,90.0,-90.0,0.09575361953945365,-0.9317028092391134,-1.1759498724176896,-1.6915787024168658,-1.711020985458864,1.6091333101940082,-1.2985133553671941
0.1,-0.2,0.2,-0.015,-0.3991858428704209,0.19999999999999998,60,90.0,-90.0,0.04824345597297819,-0.9323622214018449,-1.454483497345986,-1.0188766987388944,-1.8984506609061524,1.8207915208422902,-0.9441274039883366
0.0,-0.05,0.2,-3.611212654972683e-17,0.18000000000000005,0.2,-90,90.0,-90.0,0.07215251606692878,0.6889446124955999,-1.3465622736680987,-1.2297167401141287,-0.9636653336334723,-1.9182188721624747,1.1147493448857224
0.0,-0.05,0.2,-0.05952838037357976,0.17216294004648575,0.19999999999999998,-75,90.0,-90.0,0.10625020190086708,0.7565278445760948,-1.139941457190534,-1.7678983661909706,-1.0866023882682252,-1.6813414321000195,1.3638934934361622
0.0,-0.05,0.2,-0.11500000000000003,0.14918584287042086,0.19999999999999998,-60,90.0,-90.0,0.12468036664265116,0.7558343016202298,-0.996149516752405,-2.201863419181104,-1.3379832876886588,-1.5571161948151664,1.6253337121026412
0.0,-0.05,0.2,-0.16263455967290594,0.11263455967290593,0.19999999999999998,-45,90.0,-90.0,0.08852610310653912,0.6114524584178956,-0.9153575440716101,-2.5488645721099954,-1.7369197115730013,-1.6252354157118754,1.8883042985382001
0.0,-0.05,0.2,-0.19918584287042093,0.065,0.19999999999999998,-30,90.0,-90.0,0.04570240652011558,0.15252388480645185,-0.9981597816921907,-2.7747207540538703,-2.358592111763986,-2.0487845188513387,2.0001963001116714
0.0,-0.05,0.2,-0.22216294004648574,0.009528380373579767,0.19999999999999996,-15,90.0,-90.0,0.07426723276046174,-2.4145209642529,1.0956842326185625,2.2070701379184734,-2.1460865634193063,1.658658656027241,-1.4349041586628495
0.0,-0.05,0.2,-0.23,-0.05,0.2,0,90.0,-90.0,0.0645272447311611,-2.6440664913701797,1.3669791541722098,2.4555251733847743,-2.5312274996171564,2.156279659423864,-1.2018721933109768
0.0,-0.05,0.2,-0.2221629400464857,-0.10952838037357976,0.19999999999999993,15,90.0,-90.0,0.033024587880440416,3.035084615736492,1.1142375479432596,2.7853541289333346,2.652825403644936,2.2663566300408697,-1.8990676861950806
0.0,-0.05,0.2,-0.19918584287042093,-0.165,0.2,30,90.0,-90.0,0.07710607747702425,2.41834322487956,0.9127139739862024,2.623830183518876,1.8719852679408862,1.6939401417397366,-1.9466101116473187
0.0,-0.05,0.2,-0.1626345596729059,-0.2126345596729059,0.19999999999999993,45,90.0,-90.0,0.11970686579888994,2.213413010572649,0.9668667334823124,2.3037866815925883,1.4282529445404033,1.5519244191101607,-1.6984893792886
0.0,-0.05,0.2,-0.115,-0.2491858428704209,0.19999999999999998,60,90.0,-90.0,0.11287807543732047,2.1846198633730594,1.0960350540521537,1.8931430025629934,1.141655438674571,1.6347383290216502,-1.4313025519577431
0.0,-0.05,0.2,-0.05952838037357977,-0.2721629400464857,0.2,75,90.0,-90.0,0.08342365337740366,2.238046227858413,1.2812823102576165,1.3912842463125177,0.9835957271133965,1.8441867275551944,-1.1852534241727606
0.0,-0.05,0.2,-3.6112126549726834e-17,-0.2800000000000001,0.2,90,90.0,-90.0,0.01428853768058618,2.387930459556876,1.7712341355555965,-0.5923050538980915,-1.2258006173870482,-2.255995974515909,-2.62507450415191
0.0,0.15000000000000002,0.2,-0.05952838037357976,0.37216294004648576,0.19999999999999998,-75,90.0,-90.0,0.05697405722143653,0.873298976160134,-2.0367048626540463,0.2129275416933878,-1.397681794933987,-2.16116686245494,0.30458843496294374
0.0,0.15000000000000002,0.2,-0.11500000000000003,0.34918584287042087,0.19999999999999998,-60,90.0,-90.0,0.09733242281794263,0.8744884535322233,-1.1680245473813058,-0.7550635854659158,1.697152365068158,1.8988296083445926,-2.7673258821881834
0.0,0.15000000000000002,0.2,-0.16263455967290594,0.312634559672906,0.19999999999999998,-45,90.0,-90.0,0.12383176928495314,0.9339340041029275,-1.020164390974732,-1.163596315663704,1.6565052291470481,1.6919023645222715,-2.5228535418714406
0.0,0.15000000000000002,0.2,-0.19918584287042093,0.265,0.19999999999999998,-30,90.0,-90.0,0.13703526453050152,0.9913914694000514,-0.9255132697419352,-1.515931473451815,1.5277835134946345,1.5337097962701105,-2.26942657198885
0.0,0.15000000000000002,0.2,-0.22216294004648574,0.2095283803735798,0.19999999999999996,-15,90.0,-90.0,0.11104390065491943,1.038707492211222,-0.9106205774748486,-1.8381616928435127,1.3190754277418215,1.468823913189409,-1.9497584415668516
0.0,0.15000000000000002,0.2,-0.23,0.15000000000000002,0.2,0,90.0,-90.0,0.07961699702627135,1.0404172005180359,-1.0393454838637917,-2.1440863835576223,1.0403769218114594,1.5919578430398469,-1.5340056548539625
0.0,0.15000000000000002,0.2,-0.2221629400464857,0.09047161962642028,0.19999999999999993,15,90.0,-90.0,0.06758443858770438,0.8632382388378863,-1.3034668511269245,-2.402427610993461,0.6821663246714816,2.027944608062083,-1.2268958118722477
0.0,0.15000000000000002,0.2,-0.19918584287042093,0.03500000000000002,0.2,30,90.0,-90.0,0.03386382324132018,0.4063489850106407,-1.2215457939470427,-2.7049017968846463,-0.16381148409629376,2.3479740064985184,-1.6863944679484253
0.0,0.15000000000000002,0.2,-0.1626345596729059,-0.012634559672905887,0.19999999999999993,45,90.0,-90.0,0.07159994816210072,-0.2942988802005502,-0.9228331469870579,-2.6388079146311534,-1.1167631996792131,1.7644646506583817,-1.9451833376550598
0.0,0.15000000000000002,0.2,-0.115,-0.04918584287042088,0.19999999999999998,60,90.0,-90.0,0.11375588667745001,-0.5571122273568783,-0.9571766944039739,-2.3393751276147046,-1.6046605703077632,1.565215675682533,-1.7257726009144403
0.0,0.15000000000000002,0.2,-0.05952838037357977,-0.07216294004648571,0.2,75,90.0,-90.0,0.1145261800568208,-0.6189334012196357,-1.0801843277287522,-1.9405170089231127,-1.9246829535745649,1.611988480900258,-1.456966093016316
0.0,0.15000000000000002,0.2,-3.6112126549726834e-17,-0.08000000000000004,0.2,90,90.0,-90.0,0.0859365428674417,-0.5831610413313842,-1.2638998156892476,-1.4418814820779944,-2.109763146893199,1.8054293168756654,-1.1997852819387982
0.05,0.15000000000000002,0.2,-0.00952838037357976,0.37216294004648576,0.19999999999999998,-75,90.0,-90.0,0.03145032403475982,0.8877523762800152,-1.554798215377607,-0.7762039254892763,-1.1099833366635268,-2.00921008440909,0.8650067535122792
0.05,0.15000000000000002,0.2,-0.06500000000000003,0.34918584287042087,0.19999999999999998,-60,90.0,-90.0,0.08939745617129646,0.954549700436774,-1.2308441835306136,-1.5386154918315045,-1.1653563557772384,-1.7225303626737964,1.2295523301155986
0.05,0.15000000000000002,0.2,-0.11263455967290593,0.312634559672906,0.19999999999999998,-45,90.0,-90.0,0.11677611006325388,0.9400387056289305,-1.0538208467193915,-2.0220244323898213,-1.4154993978394905,-1.5807864572947865,1.5054114815387045
0.05,0.15000000000000002,0.2,-0.14918584287042091,0.265,0.19999999999999998,-30,90.0,-90.0,0.10337699275820221,0.791154367090894,-0.9487325212552784,-2.3818301884750905,-1.8217372982580167,-1.6173805672401373,1.7542217637278958
0.05,0.15000000000000002,0.2,-0.17216294004648575,0.2095283803735798,0.19999999999999996,-15,90.0,-90.0,0.06544562620066341,0.400653022322854,-0.9740474221973929,-2.590474726990031,-2.4328165937002924,-1.9007207271667723,1.8403867600998824
0.05,0.15000000000000002,0.2,-0.18,0.15000000000000002,0.2,0,90.0,-90.0,0.06666819130772852,2.9454575237074696,1.180335549018026,2.4683630515944555,-0.22409535927508964,-2.067156921642161,1.4623023017467083
0.05,0.15000000000000002,0.2,-0.1721629400464857,0.09047161962642028,0.19999999999999993,15,90.0,-90.0,0.07977105475248776,2.6558314316883367,1.0814733706069255,2.2156750460305026,-0.7545476294624407,-1.684186861244678,1.4644683062411317
0.05,0.15000000000000002,0.2,-0.14918584287042091,0.03500000000000002,0.2,30,90.0,-90.0,0.09958687572976224,2.5757251167293984,0.9357432511675757,1.9168951852094591,-1.1064872764979214,-1.4390053880009774,1.828766669422254
0.05,0.15000000000000002,0.2,-0.1126345596729059,-0.012634559672905887,0.19999999999999993,45,90.0,-90.0,0.12933107461666954,2.590535365010622,0.9170842738146122,1.5948990743559293,-1.3801411295257753,-1.434177984457755,2.188199141335556
0.05,0.15000000000000002,0.2,-0.065,-0.04918584287042088,0.19999999999999998,60,90.0,-90.0,0.12774485544398217,2.629835695287162,0.9927133800784819,1.2478625373647494,-1.564200545910802,-1.5611089720056843,2.4727584321043015
0.05,0.15000000000000002,0.2,-0.009528380373579767,-0.07216294004648571,0.2,75,90.0,-90.0,0.10390306840451759,2.6758104807963465,1.1319101900739408,0.8468516749949713,-1.6522038563076389,-1.7573080869244413,2.7251219821588797
0.05,0.15000000000000002,0.2,0.04999999999999997,-0.08000000000000004,0.2,90,90.0,-90.0,0.06573210002690859,2.717947956228167,1.3458376906354208,0.3202914439633237,-1.6142186120379665,-1.991617181285368,3.0359021188255157
-0.1,-0.05,0.2,-0.10000000000000005,0.18000000000000005,0.2,-90,90.0,-90.0,0.10178132757254425,0.8210985713934453,-1.1944857863907212,-1.5806866361290404,-0.7831989432032733,-1.8367339254662909,1.314776508723894
-0.1,-0.05,0.2,-0.15952838037357978,0.17216294004648575,0.19999999999999998,-75,90.0,-90.0,0.12205880828560949,0.9249697383550499,-1.0541716096690799,-2.0075570394276654,-0.909178180240371,-1.6203534870581398,1.506874527718819
-0.1,-0.05,0.2,-0.21500000000000002,0.14918584287042086,0.19999999999999998,-60,90.0,-90.0,0.1150453651442957,0.9877804038662414,-0.950989604719125,-2.396652166018174,-1.1159002079475897,-1.478616464841098,1.7547433787191498
-0.1,-0.05,0.2,-0.26263455967290594,0.11263455967290593,0.19999999999999998,-45,90.0,-90.0,0.07218205655838347,0.9396032737076488,-0.9019627484403778,-2.7389219533243034,-1.4345081231309313,-1.4966081790601657,2.064521298604005
-0.1,-0.05,0.2,-0.29918584287042094,0.065,0.19999999999999998,-30,90.0,-90.0,0.08659848931290919,-2.225250942190877,0.9806671610060665,2.0686648166645574,-1.7009265505242508,1.5582141112002095,-1.6614520646895368
-0.1,-0.05,0.2,-0.3221629400464857,0.009528380373579767,0.19999999999999996,-15,90.0,-90.0,0.05474949880583195,-2.201873589277069,1.3667789952995397,2.3294407937101127,-1.8894567539320817,1.7620270443143544,-1.0463914316777985
-0.1,-0.05,0.2,-0.3221629400464857,-0.10952838037357976,0.19999999999999993,15,90.0,-90.0,0.0814936735311375,-1.1530832776544857,-1.0088649715420546,-2.1069296329849743,1.7265336224545105,-1.5660086890232476,1.595792485982935
-0.1,-0.05,0.2,-0.29918584287042094,-0.165,0.2,30,90.0,-90.0,0.11959683261585081,-1.0661388631015618,-0.9010270568823374,-1.8180679899077208,1.5530779970080568,-1.5783902126039404,1.992941922876871
-0.1,-0.05,0.2,-0.26263455967290594,-0.2126345596729059,0.19999999999999993,45,90.0,-90.0,0.13916375770187975,-0.9737872153892841,-0.9283681226113479,-1.514673237635868,1.4247888018236121,-1.691169271855524,2.2599517310544326
-0.1,-0.05,0.2,-0.21500000000000002,-0.2491858428704209,0.19999999999999998,60,90.0,-90.0,0.12364232504673446,-0.8830738891177315,-1.017804789290809,-1.1880632429133635,1.3514126950708891,-1.8591096419465514,2.475129620776901
-0.1,-0.05,0.2,-0.15952838037357978,-0.2721629400464857,0.2,75,90.0,-90.0,0.0996438212266315,-0.7961769129085217,-1.145236072722892,-0.8259563387225048,1.343107982020086,-2.0586831424448913,2.6834439003192423
-0.1,-0.05,0.2,-0.10000000000000005,-0.2800000000000001,0.2,90,90.0,-90.0,0.06805266112575564,-0.723687172916716,-1.315271602991359,-0.39547410535579364,1.4479735329998848,-2.285077710384261,2.955209859802949
0.1,0.15000000000000002,0.2,-0.015000000000000027,0.34918584287042087,0.19999999999999998,-60,90.0,-90.0,0.07566527999815252,0.7910651529666292,-1.2902453556010094,-0.45134787806467397,1.6174846541275487,1.8344149134144687,3.318059469433842
0.1,0.15000000000000002,0.2,-0.06263455967290593,0.312634559672906,0.19999999999999998,-45,90.0,-90.0,0.11029045076156273,0.8250590903789674,-1.092179339080233,-0.9505358766669354,1.5897212021807423,1.6057875688676388,3.613273051932256
0.1,0.15000000000000002,0.2,-0.09918584287042093,0.265,0.19999999999999998,-30,90.0,-90.0,0.10874741140905884,-2.479278002589034,0.9780194705259945,2.272085347271478,1.1887356547256527,-1.6112672481440031,1.6709930158629362
0.1,0.15000000000000002,0.2,-0.12216294004648573,0.2095283803735798,0.19999999999999996,-15,90.0,-90.0,0.07885698191217375,-2.850360179407151,0.9845772595235702,2.451614651368873,0.5737371506787293,-1.8193326729558,1.729301385529321
0.1,0.15000000000000002,0.2,-0.13,0.15000000000000002,0.2,0,90.0,-90.0,0.08496113869840037,2.9752811580403615,1.0832691592557355,2.3539247941605477,-0.1744128406838675,-1.8613092135577987,1.5199894333252393
0.1,0.15000000000000002,0.2,-0.1221629400464857,0.09047161962642028,0.19999999999999993,15,90.0,-90.0,0.08861787228189898,2.7142808622702543,1.0170585539922714,2.1092435043896045,-0.6881957787002219,-1.559173380470927,1.580739692196853
0.1,0.15000000000000002,0.2,-0.09918584287042093,0.03500000000000002,0.2,30,90.0,-90.0,0.10555118213769166,2.634571999031034,0.9271575645157303,1.8016843007360412,-1.0687617450059819,-1.3627308503880744,1.9307491579943445
0.1,0.15000000000000002,0.2,-0.0626345596729059,-0.012634559672905887,0.19999999999999993,45,90.0,-90.0,0.1281873720719794,2.638556522168092,0.9404418017578382,1.4722895459753733,-1.357648530561314,-1.3840924835491342,2.278641985215959
0.1,0.15000000000000002,0.2,-0.015,-0.04918584287042088,0.19999999999999998,60,90.0,-90.0,0.11939630378728815,2.6658834737695813,1.0379059860353528,1.1073536775750676,-1.5446522933247226,-1.5312818073623569,2.5659040066910443
0.1,0.15000000000000002,0.2,0.040471619626420235,-0.07216294004648571,0.2,75,90.0,-90.0,0.09118510289438038,2.7002878062995195,1.202875502086211,0.6645928207482554,-1.6227753674951144,-1.7424122608939803,2.8397805285663438
0.1,0.15000000000000002,0.2,0.09999999999999996,-0.08000000000000004,0.2,90,90.0,-90.0,0.03782480162616692,2.723191861898571,1.5000446647745884,-0.029127405421146942,-1.5255585189079022,-1.9861434639075415,3.2505638921102316
0.15000000000000002,0.0,0.2,0.09047161962642025,0.22216294004648574,0.19999999999999998,-75,90.0,-90.0,0.04525108319589947,0.5705548955561373,-1.4584401131361158,-0.06252936611473793,1.5553610973253764,1.8796531206886453,3.089366021606972
0.15000000000000002,0.0,0.2,0.03499999999999999,0.19918584287042088,0.19999999999999998,-60,90.0,-90.0,0.09467488424803856,0.5911983189971344,-1.1800472864752156,-0.7197885070851673,1.5933009851039772,1.6343762031168274,3.4707188501187747
0.15000000000000002,0.0,0.2,-0.012634559672905915,0.16263455967290594,0.19999999999999998,-45,90.0,-90.0,0.11999210595088683,0.6160663694064815,-1.023712527417896,-1.1519930145239106,1.474957622683591,1.4318521620943385,-2.530506874584233
0.15000000000000002,0.0,0.2,-0.04918584287042091,0.115,0.19999999999999998,-30,90.0,-90.0,0.12052054751209249,0.6295818017893622,-0.9404431328630094,-1.5086489082540941,1.2428402299743473,1.3084598869786932,-2.2199149030631635
0.15000000000000002,0.0,0.2,-0.07216294004648571,0.05952838037357977,0.19999999999999996,-15,90.0,-90.0,0.10013384589926626,0.6074316505956087,-0.9460231372212714,-1.8356878242840602,0.9010230780652836,1.3408478891769593,-1.8514696387811596
0.15000000000000002,0.0,0.2,-0.07999999999999999,0.0,0.2,0,90.0,-90.0,0.09302853047538948,0.4714623329991311,-1.023239011013572,-2.1245892371998885,0.4709715342334143,1.5769649713563045,-1.5684303942159703
0.15000000000000002,0.0,0.2,-0.07216294004648569,-0.05952838037357975,0.19999999999999993,15,90.0,-90.0,0.09027858358387643,0.15663998236809243,-1.0298032124944534,-2.3198291880275272,-0.10838549102425107,1.7769157015730648,-1.592755168730443
0.15000000000000002,0.0,0.2,-0.04918584287042091,-0.115,0.2,30,90.0,-90.0,0.09736980047379887,-0.25170169814843496,-0.9815517037970464,-2.305596932354818,-0.7810261870173789,1.6744310447159394,-1.6737086372251513
0.15000000000000002,0.0,0.2,-0.012634559672905887,-0.1626345596729059,0.19999999999999993,45,90.0,-90.0,0.11365558717926694,-0.5298906335718151,-1.0424024481271177,-2.0550982924210714,-1.3161872097762333,1.5595915136369845,-1.527901918865201
0.15000000000000002,0.0,0.2,0.03500000000000002,-0.1991858428704209,0.19999999999999998,60,90.0,-90.0,0.09032617576990562,-0.6475817048981208,-1.2056155996311244,-1.617639929491711,-1.6896186356464502,1.609036595426499,-1.255741436218348
0.15000000000000002,0.0,0.2,0.09047161962642025,-0.22216294004648574,0.2,75,90.0,-90.0,0.033833701524124044,-0.6474311107166153,-1.5302215550441962,-0.853235472013143,-1.8564941357577704,1.8321526408920543,-0.8494365335006555
0.0,-0.10000000000000002,0.2,-3.611212654972683e-17,0.13000000000000006,0.2,-90,90.0,-90.0,0.08214420491971319,0.6287012983123828,-1.2878716084622912,-1.3783982562304717,-0.996757730191944,-1.8443491465277355,1.1766406327315035
0.0,-0.10000000000000002,0.2,-0.05952838037357976,0.12216294004648572,0.19999999999999998,-75,90.0,-90.0,0.1123082604956838,0.6785668798629616,-1.0986262392829282,-1.887522579987086,-1.1592157271533787,-1.63439115300315,1.4274836441046008
0.0,-0.10000000000000002,0.2,-0.11500000000000003,0.09918584287042086,0.19999999999999998,-60,90.0,-90.0,0.11960667849109503,0.643441573303578,-0.9682222727991211,-2.298032747687823,-1.4512116142166316,-1.5548691418313751,1.694852423910314
0.0,-0.10000000000000002,0.2,-0.16263455967290594,0.06263455967290592,0.19999999999999998,-45,90.0,-90.0,0.07744055846562635,0.431475982449655,-0.9143115154781069,-2.614131378319747,-1.900290242588924,-1.700920839468746,1.9356290166113403
0.0,-0.10000000000000002,0.2,-0.19918584287042093,0.014999999999999986,0.19999999999999998,-30,90.0,-90.0,0.03463293150187884,-0.1875584485229693,-1.1186934540230233,-2.760815376981064,-2.6992653599784417,-2.2591853412320617,1.8623263961636178
0.0,-0.10000000000000002,0.2,-0.22216294004648574,-0.04047161962642025,0.19999999999999996,-15,90.0,-90.0,0.07045218742824909,0.6229826128484489,-1.1679677157821304,-2.275473115284076,0.908076051512693,1.759732703325793,-1.3333366550258072
0.0,-0.10000000000000002,0.2,-0.23,-0.10000000000000002,0.2,0,90.0,-90.0,0.05660419683369014,0.3328631441374592,-1.3774526258590947,-2.5178472069121107,0.44387462436635244,2.273685665215652,-1.271864380789793
0.0,-0.10000000000000002,0.2,-0.2221629400464857,-0.15952838037357978,0.19999999999999993,15,90.0,-90.0,0.047095992326730764,-0.3748683036035515,-1.0036978559118754,-2.7530523208759874,-0.7364017848110432,2.053037113788675,-1.9696745352242022
0.0,-0.10000000000000002,0.2,-0.19918584287042093,-0.21500000000000002,0.2,30,90.0,-90.0,0.0897729929470679,-0.838319768700549,-0.9193539354535698,-2.5288054067909393,-1.370330499328263,1.633220545353768,-1.8716465833975449
0.0,-0.10000000000000002,0.2,-0.1626345596729059,-0.26263455967290594,0.19999999999999993,45,90.0,-90.0,0.12320853801031723,-0.9908584216078675,-1.0023525640965973,-2.180762206577174,-1.7757904537673979,1.5617438052211963,-1.6106103668015341
0.0,-0.10000000000000002,0.2,-0.115,-0.29918584287042094,0.19999999999999998,60,90.0,-90.0,0.10429180503753491,-0.9983704276496862,-1.1507143335425614,-1.7406124963863512,-2.0336759783559897,1.6847376937313088,-1.3467386710648301
0.0,-0.10000000000000002,0.2,-0.05952838037357977,-0.32216294004648577,0.2,75,90.0,-90.0,0.06836281128168781,-0.9341363064412267,-1.3665463117595544,-1.1861929624352836,-2.1546016614176624,1.923616663008133,-1.0896010036061565
0.05,-0.05,0.2,0.04999999999999997,0.18000000000000005,0.2,-90,90.0,-90.0,0.04625337944716603,-2.6265520975937546,1.4520125214216022,0.07693537782100182,-1.593459275995361,2.0862106616837464,-3.188714286280262
0.05,-0.05,0.2,-0.00952838037357976,0.17216294004648575,0.19999999999999998,-75,90.0,-90.0,0.09334161625163197,-2.591796495926664,1.1912861696213193,0.695036153681584,-1.4798780307018649,1.8440573821472235,-2.813650379604733
